;FLAVOR:Marlin
;TIME:2455
;Filament used: 3.96049m
;Layer height: 0.2
;MINX:-11
;MINY:-17.999
;MINZ:0.2
;MAXX:10.802
;MAXY:17.999
;MAXZ:52
;Generated with Cura_SteamEngine 5.2.2
M82 ;absolute extrusion mode
G21 ; millimeter units
G90 ; absolute coordinates
M82 ; E absolute
M140 S35
M104 S220
M190 S35
M109 S220
G28 ; home axis
M420 S1 ; enable mesh leveling
; Lower nozzle and move to start position
G1 Z150
G1 X-130 Y0 Z0.4 F3000
; Extrude about 40 mm by printing a 90 degree arc
G3 X0 Y-130 I130 Z0.3 E40 F2700
; Retract and move nozzle up
G92 E0
G1 E-1.5 F1800
G0 Z0.5
G1 E0 F300

G92 E0
G92 E0
G1 F3600 E-0.3
;LAYER_COUNT:260
;LAYER:0
M107
G0 X-9.614 Y-13.279 Z0.2
;TYPE:SKIRT
G1 F3600 E0
G1 F1800 X-9.508 Y-13.875 E0.01973
G1 X-9.386 Y-14.274 E0.03333
G1 X-9.386 Y14.241 E0.96287
G1 X-9.517 Y13.822 E0.97718
G1 X-9.614 Y13.291 E0.99478
G1 X-9.614 Y-13.279 E1.86092
G1 F3600 E1.56092
G0 X-10.01 Y-13.318
G1 F3600 E1.86092
G1 F1800 X-9.894 Y-13.968 E1.88244
G1 X-9.761 Y-14.408 E1.89742
G1 X-9.551 Y-14.857 E1.91358
G1 X-9.297 Y-15.272 E1.92944
G1 X-8.96 Y-15.698 E1.94715
G1 X-8.99 Y-15.468 E1.95471
G1 X-8.99 Y15.468 E2.96317
G1 X-8.956 Y15.702 E2.97088
G1 X-9.3 Y15.273 E2.9888
G1 X-9.552 Y14.864 E3.00446
G1 X-9.741 Y14.432 E3.01984
G1 X-9.901 Y13.922 E3.03726
G1 X-10.01 Y13.325 E3.05704
G1 X-10.01 Y-13.318 E3.92556
G1 F3600 E3.62556
G0 X-10.38 Y-13.498
G1 F3600 E3.92556
G1 F1800 X-10.28 Y-14.059 E3.94413
G1 X-10.132 Y-14.549 E3.96082
G1 X-9.902 Y-15.041 E3.97852
G1 X-9.618 Y-15.505 E3.99626
G1 X-9.304 Y-15.915 E4.01309
G1 X-8.914 Y-16.304 E4.03105
G1 X-8.5 Y-16.625 E4.04813
G1 X-8.052 Y-16.901 E4.06528
G1 X-7.564 Y-17.115 E4.08265
G1 X-7.013 Y-17.287 E4.10147
G1 X-6.516 Y-17.378 E4.11794
G1 X-6.062 Y-17.406 E4.13276
G1 X7.548 Y-17.406 E4.57643
G1 X7.548 Y-16.344 E4.61105
G1 X-7.718 Y-16.344 E5.10869
G1 X-7.931 Y-16.304 E5.11576
G1 X-8.138 Y-16.17 E5.12379
G1 X-8.42 Y-15.888 E5.13679
G1 X-8.543 Y-15.709 E5.14387
G1 X-8.594 Y-15.468 E5.1519
G1 X-8.594 Y15.468 E6.16036
G1 X-8.554 Y15.681 E6.16743
G1 X-8.42 Y15.888 E6.17547
G1 X-8.138 Y16.17 E6.18847
G1 X-7.959 Y16.293 E6.19555
G1 X-7.718 Y16.344 E6.20358
G1 X7.548 Y16.344 E6.70122
G1 X7.548 Y17.406 E6.73584
G1 X-6.099 Y17.406 E7.18071
G1 X-6.498 Y17.38 E7.19375
G1 X-7.059 Y17.28 E7.21232
G1 X-7.549 Y17.132 E7.22901
G1 X-8.041 Y16.902 E7.24671
G1 X-8.505 Y16.618 E7.26445
G1 X-8.915 Y16.304 E7.28128
G1 X-9.304 Y15.914 E7.29924
G1 X-9.625 Y15.5 E7.31631
G1 X-9.901 Y15.052 E7.33347
G1 X-10.114 Y14.566 E7.35076
G1 X-10.287 Y14.013 E7.36965
G1 X-10.378 Y13.516 E7.38612
G1 X-10.406 Y13.062 E7.40095
G1 X-10.406 Y-13.099 E8.25375
G1 X-10.38 Y-13.498 E8.26679
G1 F3600 E7.96679
G0 X-10.774 Y-13.548
G1 F3600 E8.26679
G1 F1800 X-10.666 Y-14.152 E8.28679
G1 X-10.503 Y-14.69 E8.30511
G1 X-10.25 Y-15.232 E8.32461
G1 X-9.948 Y-15.725 E8.34346
G1 X-9.602 Y-16.177 E8.36202
G1 X-9.175 Y-16.603 E8.38168
G1 X-8.733 Y-16.946 E8.39992
G1 X-8.231 Y-17.255 E8.41913
G1 X-7.707 Y-17.485 E8.43779
G1 X-7.113 Y-17.671 E8.45808
G1 X-6.561 Y-17.772 E8.47637
G1 X-6.071 Y-17.802 E8.49237
G1 X7.944 Y-17.802 E8.94924
G1 X7.944 Y-15.948 E9.00967
G1 X-7.718 Y-15.948 E9.52023
G1 X-7.858 Y-15.89 E9.52517
G1 X-8.14 Y-15.608 E9.53817
G1 X-8.198 Y-15.468 E9.54311
G1 X-8.198 Y15.468 E10.55157
G1 X-8.14 Y15.608 E10.55651
G1 X-7.858 Y15.89 E10.56951
G1 X-7.718 Y15.948 E10.57445
G1 X7.944 Y15.948 E11.085
G1 X7.944 Y17.802 E11.14544
G1 X-6.109 Y17.802 E11.60354
G1 X-6.548 Y17.774 E11.61788
G1 X-7.152 Y17.666 E11.63788
G1 X-7.69 Y17.503 E11.65621
G1 X-8.232 Y17.25 E11.67571
G1 X-8.725 Y16.948 E11.69455
G1 X-9.177 Y16.602 E11.71311
G1 X-9.603 Y16.175 E11.73277
G1 X-9.947 Y15.732 E11.75106
G1 X-10.255 Y15.231 E11.77023
G1 X-10.485 Y14.707 E11.78888
G1 X-10.671 Y14.113 E11.80917
G1 X-10.772 Y13.561 E11.82746
G1 X-10.802 Y13.071 E11.84347
G1 X-10.802 Y-13.109 E12.69689
G1 X-10.774 Y-13.548 E12.71123
G1 F3600 E12.41123
G0 X-7.435 Y-16.74
G1 F3600 E12.71123
G1 F1800 X-6.922 Y-16.901 E12.72876
G1 X-6.325 Y-17.01 E12.74854
G1 X7.152 Y-17.01 E13.18787
G1 X7.152 Y-16.74 E13.19667
G1 X-7.435 Y-16.74 E13.67218
G1 F3600 E13.37218
G0 X-7.452 Y16.74
G1 F3600 E13.67218
G1 F1800 X7.152 Y16.74 E14.14824
G1 X7.152 Y17.01 E14.15705
G1 X-6.318 Y17.01 E14.59614
G1 X-6.968 Y16.894 E14.61767
G1 X-7.452 Y16.74 E14.63422
G1 F3600 E14.33422
;MESH:porta_volume_tondo.stl
G0 X9.594 Y-17.406
;TYPE:WALL-INNER
G1 F3600 E14.63422
G1 F2400 X9.594 Y17.406 E15.76904
G1 X10 Y17.406 E15.78227
G1 X10.406 Y17.406 E15.79551
G1 X10.406 Y-17.406 E16.93032
G1 X9.594 Y-17.406 E16.95679
G1 F3600 E16.65679
G0 X9.198 Y-17.802
;TYPE:WALL-OUTER
G1 F3600 E16.95679
G1 F2400 X9.198 Y17.802 E18.11741
G1 X10 Y17.802 E18.14356
G1 X10.802 Y17.802 E18.1697
G1 X10.802 Y-17.802 E19.33033
G1 X9.198 Y-17.802 E19.38262
G0 F3600 X9.198 Y-17.652
G1 F3600 E19.08262
G0 X9.846 Y-17.154
M104 S220
;TYPE:SKIN
G1 F3600 E19.38262
G1 F3085.7 X9.846 Y17.154 E20.25247
G1 X10.154 Y17.154 E20.26028
G1 X10.154 Y-17 E21.12623
G1 X10.154 Y-17.154 E21.13013
G1 X9.846 Y-17.154 E21.13794
G1 F3600 E20.83794
;MESH:NONMESH
G0 X9.846 Y-17.154 Z0.4
G0 X-10.92 Y-13.118
;TIME_ELAPSED:24.132924
;LAYER:1
M106 S44.6
;TYPE:SUPPORT
G1 F3600 E21.13794
G1 F3200 X-10.92 Y13.074 E22.0962
G1 X-10.888 Y13.574 E22.11453
G1 X-10.789 Y14.126 E22.13505
G1 X-10.596 Y14.75 E22.15895
G1 X-10.36 Y15.286 E22.18038
G1 X-10.049 Y15.789 E22.20201
G1 X-9.691 Y16.251 E22.2234
G1 X-9.254 Y16.688 E22.24601
G1 X-8.789 Y17.044 E22.26743
G1 X-8.284 Y17.354 E22.28911
G1 X-7.738 Y17.609 E22.31116
G1 X-7.168 Y17.782 E22.33295
G1 X-6.56 Y17.89 E22.35555
G1 X-6.12 Y17.92 E22.37168
G1 X8.062 Y17.92 E22.89055
G1 X8.062 Y16.875 E22.92878
G1 X8.062 Y15.83 E22.96701
G1 X-7.713 Y15.826 E23.54416
G1 X-8.038 Y15.541 E23.55997
G1 X-8.077 Y15.457 E23.56336
G1 X-8.077 Y-15.457 E24.69438
G1 X-8.044 Y-15.534 E24.69745
G1 X-7.715 Y-15.825 E24.71352
G1 X8.062 Y-15.83 E25.29074
G1 X8.062 Y-17.92 E25.3672
G1 X-6.074 Y-17.92 E25.88439
G1 X-6.574 Y-17.889 E25.90271
G1 X-7.126 Y-17.789 E25.92324
G1 X-7.749 Y-17.596 E25.9471
G1 X-8.29 Y-17.358 E25.96872
G1 X-8.789 Y-17.049 E25.9902
G1 X-9.253 Y-16.689 E26.01168
G1 X-9.691 Y-16.252 E26.03432
G1 X-10.044 Y-15.789 E26.05562
G1 X-10.354 Y-15.285 E26.07727
G1 X-10.611 Y-14.734 E26.09951
G1 X-10.782 Y-14.168 E26.12114
G1 X-10.891 Y-13.56 E26.14374
G1 X-10.92 Y-13.118 E26.15995
G1 F3600 E25.85995
G0 F5400 X-10.5 Y-14.783
G1 F3600 E26.15995
G1 F3200 X-10.5 Y14.767 E27.24107
G1 F3600 E26.94107
G0 F5400 X-9 Y16.782
G1 F3600 E27.24107
G1 F3200 X-9 Y-16.785 E28.46916
G1 F3600 E28.16916
G0 F5400 X-7.5 Y-17.59
G1 F3600 E28.46916
G1 F3200 X-7.5 Y-15.91 E28.53062
G1 F3600 E28.23062
G0 F5400 X-6 Y-15.91
G1 F3600 E28.53062
G1 F3200 X-6 Y-17.84 E28.60123
G1 F3600 E28.30123
G0 F5400 X-4.5 Y-17.84
G1 F3600 E28.60123
G1 F3200 X-4.5 Y-15.91 E28.67184
G1 F3600 E28.37184
G0 F5400 X-3 Y-15.91
G1 F3600 E28.67184
G1 F3200 X-3 Y-17.84 E28.74246
G1 F3600 E28.44246
G0 F5400 X-1.5 Y-17.84
G1 F3600 E28.74246
G1 F3200 X-1.5 Y-15.91 E28.81307
G1 F3600 E28.51307
G0 F5400 X0.00 Y-15.91
G1 F3600 E28.81307
G1 F3200 X0.00 Y-17.84 E28.88368
G1 F3600 E28.58368
G0 F5400 X1.5 Y-17.84
G1 F3600 E28.88368
G1 F3200 X1.5 Y-15.91 E28.95429
G1 F3600 E28.65429
G0 F5400 X3 Y-15.91
G1 F3600 E28.95429
G1 F3200 X3 Y-17.84 E29.0249
G1 F3600 E28.7249
G0 F5400 X4.5 Y-17.84
G1 F3600 E29.0249
G1 F3200 X4.5 Y-15.91 E29.09551
G1 F3600 E28.79551
G0 F5400 X6 Y-15.91
G1 F3600 E29.09551
G1 F3200 X6 Y-17.84 E29.16612
G1 F3600 E28.86612
G0 F5400 X7.5 Y-17.84
G1 F3600 E29.16612
G1 F3200 X7.5 Y-15.91 E29.23674
G1 F3600 E28.93674
G0 F5400 X7.5 Y15.91
G1 F3600 E29.23674
G1 F3200 X7.5 Y17.84 E29.30735
G1 F3600 E29.00735
G0 F5400 X6 Y17.84
G1 F3600 E29.30735
G1 F3200 X6 Y15.91 E29.37796
G1 F3600 E29.07796
G0 F5400 X4.5 Y15.91
G1 F3600 E29.37796
G1 F3200 X4.5 Y17.84 E29.44857
G1 F3600 E29.14857
G0 F5400 X3 Y17.84
G1 F3600 E29.44857
G1 F3200 X3 Y15.91 E29.51918
G1 F3600 E29.21918
G0 F5400 X1.5 Y15.91
G1 F3600 E29.51918
G1 F3200 X1.5 Y17.84 E29.58979
G1 F3600 E29.28979
G0 F5400 X0.00 Y17.84
G1 F3600 E29.58979
G1 F3200 X0.00 Y15.91 E29.6604
G1 F3600 E29.3604
G0 F5400 X-1.5 Y15.91
G1 F3600 E29.6604
G1 F3200 X-1.5 Y17.84 E29.73101
G1 F3600 E29.43101
G0 F5400 X-3 Y17.84
G1 F3600 E29.73101
G1 F3200 X-3 Y15.91 E29.80163
G1 F3600 E29.50163
G0 F5400 X-4.5 Y15.91
G1 F3600 E29.80163
G1 F3200 X-4.5 Y17.84 E29.87224
G1 F3600 E29.57224
G0 F5400 X-6 Y17.84
G1 F3600 E29.87224
G1 F3200 X-6 Y15.91 E29.94285
G1 F3600 E29.64285
G0 F5400 X-7.5 Y15.91
G1 F3600 E29.94285
G1 F3200 X-7.5 Y17.597 E30.00457
G1 F3600 E29.70457
;MESH:porta_volume_tondo.stl
G0 F5400 X9.6 Y-17.4
;TYPE:WALL-INNER
G1 F3600 E30.00457
G1 F2800 X9.6 Y17.4 E31.27777
G1 X10.4 Y17.4 E31.30704
G1 X10.4 Y-17 E32.5656
G1 X10.4 Y-17.4 E32.58023
G1 X9.6 Y-17.4 E32.6095
G1 F3600 E32.3095
G0 F5400 X10 Y-17
G1 F3600 E32.6095
G1 F2800 X10 Y17 E33.85343
G1 F3600 E33.55343
G0 F5400 X9.2 Y-17.8
;TYPE:WALL-OUTER
G1 F3600 E33.85343
G1 F2800 X9.2 Y17.8 E35.1559
G1 X10.8 Y17.8 E35.21444
G1 X10.8 Y-17 E36.48763
G1 X10.8 Y-17.8 E36.5169
G1 X9.2 Y-17.8 E36.57544
G0 F5400 X9.2 Y-17.65
G1 F3600 E36.27544
;MESH:NONMESH
G0 X9.2 Y-17.65 Z0.6
G0 F5400 X-10.92 Y-13.118
;TIME_ELAPSED:36.160497
;LAYER:2
M106 S89.2
;TYPE:SUPPORT
G1 F3600 E36.57544
G1 F4000 X-10.92 Y13.072 E37.53363
G1 X-10.888 Y13.577 E37.55215
G1 X-10.785 Y14.14 E37.57309
G1 X-10.596 Y14.748 E37.59638
G1 X-10.361 Y15.283 E37.61776
G1 X-10.045 Y15.795 E37.63977
G1 X-9.695 Y16.247 E37.66069
G1 X-9.253 Y16.69 E37.68358
G1 X-8.79 Y17.043 E37.70488
G1 X-8.284 Y17.355 E37.72663
G1 X-7.738 Y17.608 E37.74865
G1 X-7.165 Y17.783 E37.77057
G1 X-6.562 Y17.89 E37.79297
G1 X-6.12 Y17.92 E37.80918
G1 X8.062 Y17.92 E38.32805
G1 X8.062 Y16.875 E38.36628
G1 X8.062 Y15.83 E38.40451
G1 X-7.713 Y15.826 E38.98166
G1 X-8.038 Y15.542 E38.99745
G1 X-8.077 Y15.456 E39.0009
G1 X-8.077 Y-15.457 E40.13189
G1 X-8.044 Y-15.534 E40.13496
G1 X-7.714 Y-15.825 E40.15105
G1 X8.062 Y-15.83 E40.72824
G1 X8.062 Y-17.92 E40.8047
G1 X-6.072 Y-17.92 E41.32181
G1 X-6.577 Y-17.888 E41.34032
G1 X-7.14 Y-17.785 E41.36126
G1 X-7.748 Y-17.596 E41.38456
G1 X-8.287 Y-17.359 E41.4061
G1 X-8.795 Y-17.045 E41.42795
G1 X-9.249 Y-16.693 E41.44897
G1 X-9.692 Y-16.251 E41.47186
G1 X-10.043 Y-15.79 E41.49306
G1 X-10.355 Y-15.284 E41.51481
G1 X-10.61 Y-14.734 E41.53699
G1 X-10.783 Y-14.165 E41.55875
G1 X-10.891 Y-13.562 E41.58116
G1 X-10.92 Y-13.118 E41.59744
G1 F3600 E41.29744
G0 F7200 X-10.5 Y-14.782
G1 F3600 E41.59744
G1 F4000 X-10.5 Y14.767 E42.67852
G1 F3600 E42.37852
G0 F7200 X-9 Y16.781
G1 F3600 E42.67852
G1 F4000 X-9 Y-16.785 E43.90657
G1 F3600 E43.60657
G0 F7200 X-7.5 Y-17.59
G1 F3600 E43.90657
G1 F4000 X-7.5 Y-15.91 E43.96804
G1 F3600 E43.66804
G0 F7200 X-6 Y-15.91
G1 F3600 E43.96804
G1 F4000 X-6 Y-17.84 E44.03865
G1 F3600 E43.73865
G0 F7200 X-4.5 Y-17.84
G1 F3600 E44.03865
G1 F4000 X-4.5 Y-15.91 E44.10926
G1 F3600 E43.80926
G0 F7200 X-3 Y-15.91
G1 F3600 E44.10926
G1 F4000 X-3 Y-17.84 E44.17987
G1 F3600 E43.87987
G0 F7200 X-1.5 Y-17.84
G1 F3600 E44.17987
G1 F4000 X-1.5 Y-15.91 E44.25048
G1 F3600 E43.95048
G0 F7200 X0.00 Y-15.91
G1 F3600 E44.25048
G1 F4000 X0.00 Y-17.84 E44.32109
G1 F3600 E44.02109
G0 F7200 X1.5 Y-17.84
G1 F3600 E44.32109
G1 F4000 X1.5 Y-15.91 E44.39171
G1 F3600 E44.09171
G0 F7200 X3 Y-15.91
G1 F3600 E44.39171
G1 F4000 X3 Y-17.84 E44.46232
G1 F3600 E44.16232
G0 F7200 X4.5 Y-17.84
G1 F3600 E44.46232
G1 F4000 X4.5 Y-15.91 E44.53293
G1 F3600 E44.23293
G0 F7200 X6 Y-15.91
G1 F3600 E44.53293
G1 F4000 X6 Y-17.84 E44.60354
G1 F3600 E44.30354
G0 F7200 X7.5 Y-17.84
G1 F3600 E44.60354
G1 F4000 X7.5 Y-15.91 E44.67415
G1 F3600 E44.37415
G0 F7200 X7.5 Y15.91
G1 F3600 E44.67415
G1 F4000 X7.5 Y17.84 E44.74476
G1 F3600 E44.44476
G0 F7200 X6 Y17.84
G1 F3600 E44.74476
G1 F4000 X6 Y15.91 E44.81537
G1 F3600 E44.51537
G0 F7200 X4.5 Y15.91
G1 F3600 E44.81537
G1 F4000 X4.5 Y17.84 E44.88599
G1 F3600 E44.58599
G0 F7200 X3 Y17.84
G1 F3600 E44.88599
G1 F4000 X3 Y15.91 E44.9566
G1 F3600 E44.6566
G0 F7200 X1.5 Y15.91
G1 F3600 E44.9566
G1 F4000 X1.5 Y17.84 E45.02721
G1 F3600 E44.72721
G0 F7200 X0.00 Y17.84
G1 F3600 E45.02721
G1 F4000 X0.00 Y15.91 E45.09782
G1 F3600 E44.79782
G0 F7200 X-1.5 Y15.91
G1 F3600 E45.09782
G1 F4000 X-1.5 Y17.84 E45.16843
G1 F3600 E44.86843
G0 F7200 X-3 Y17.84
G1 F3600 E45.16843
G1 F4000 X-3 Y15.91 E45.23904
G1 F3600 E44.93904
G0 F7200 X-4.5 Y15.91
G1 F3600 E45.23904
G1 F4000 X-4.5 Y17.84 E45.30965
G1 F3600 E45.00965
G0 F7200 X-6 Y17.84
G1 F3600 E45.30965
G1 F4000 X-6 Y15.91 E45.38026
G1 F3600 E45.08026
G0 F7200 X-7.5 Y15.91
G1 F3600 E45.38026
G1 F4000 X-7.5 Y17.597 E45.44198
G1 F3600 E45.14198
;MESH:porta_volume_tondo.stl
G0 F7200 X9.6 Y-17.4
;TYPE:WALL-INNER
G1 F3600 E45.44198
G1 F3200 X9.6 Y17.4 E46.71518
G1 X10.4 Y17.4 E46.74445
G1 X10.4 Y-17 E48.00302
G1 X10.4 Y-17.4 E48.01765
G1 X9.6 Y-17.4 E48.04692
G1 F3600 E47.74692
G0 F7200 X9.2 Y-17.8
;TYPE:WALL-OUTER
G1 F3600 E48.04692
G1 F3200 X9.2 Y17.8 E49.34939
G1 X10.8 Y17.8 E49.40792
G1 X10.8 Y-17 E50.68112
G1 X10.8 Y-17.8 E50.71039
G1 X9.2 Y-17.8 E50.76893
G0 F7200 X9.2 Y-17.65
G1 F3600 E50.46893
G0 F7200 X9.85 Y-17.15
;TYPE:SKIN
G1 F3600 E50.76893
G1 F2666.7 X9.85 Y17.15 E51.71011
G1 X10.15 Y17.15 E51.71834
G1 X10.15 Y-17 E52.6554
G1 X10.15 Y-17.15 E52.65952
G1 X9.85 Y-17.15 E52.66775
G1 F3600 E52.36775
;MESH:NONMESH
G0 X9.85 Y-17.15 Z0.8
G0 F7200 X-10.92 Y-13.118
;TIME_ELAPSED:47.196534
;LAYER:3
M106 S133.9
;TYPE:SUPPORT
G1 F3600 E52.66775
G1 F4800 X-10.92 Y13.071 E53.6259
G1 X-10.887 Y13.58 E53.64457
G1 X-10.786 Y14.134 E53.66517
G1 X-10.599 Y14.737 E53.68827
G1 X-10.362 Y15.283 E53.71004
G1 X-10.046 Y15.795 E53.73206
G1 X-9.696 Y16.247 E53.75297
G1 X-9.25 Y16.691 E53.77599
G1 X-8.795 Y17.04 E53.79697
G1 X-8.278 Y17.358 E53.81918
G1 X-7.74 Y17.607 E53.84087
G1 X-7.165 Y17.783 E53.86287
G1 X-6.562 Y17.89 E53.88528
G1 X-6.12 Y17.92 E53.90149
G1 X8.062 Y17.92 E54.42035
G1 X8.062 Y16.875 E54.45858
G1 X8.062 Y15.83 E54.49682
G1 X-7.711 Y15.826 E55.07389
G1 X-8.038 Y15.542 E55.08973
G1 X-8.077 Y15.456 E55.09319
G1 X-8.077 Y-15.457 E56.22418
G1 X-8.044 Y-15.533 E56.22721
G1 X-7.715 Y-15.825 E56.2433
G1 X8.062 Y-15.83 E56.82052
G1 X8.062 Y-17.92 E56.89699
G1 X-6.071 Y-17.92 E57.41406
G1 X-6.58 Y-17.887 E57.43272
G1 X-7.134 Y-17.786 E57.45332
G1 X-7.737 Y-17.599 E57.47642
G1 X-8.287 Y-17.36 E57.49836
G1 X-8.795 Y-17.046 E57.52021
G1 X-9.249 Y-16.694 E57.54123
G1 X-9.693 Y-16.248 E57.56425
G1 X-10.04 Y-15.795 E57.58513
G1 X-10.358 Y-15.278 E57.60734
G1 X-10.609 Y-14.736 E57.62919
G1 X-10.783 Y-14.165 E57.65103
G1 X-10.891 Y-13.562 E57.67344
G1 X-10.92 Y-13.118 E57.68972
G1 F3600 E57.38972
G0 F9000 X-10.5 Y-14.782
G1 F3600 E57.68972
G1 F4800 X-10.5 Y14.763 E58.77066
G1 F3600 E58.47066
G0 F9000 X-9 Y16.781
G1 F3600 E58.77066
G1 F4800 X-9 Y-16.786 E59.99875
G1 F3600 E59.69875
G0 F9000 X-7.5 Y-17.589
G1 F3600 E59.99875
G1 F4800 X-7.5 Y-15.91 E60.06017
G1 F3600 E59.76017
G0 F9000 X-6 Y-15.91
G1 F3600 E60.06017
G1 F4800 X-6 Y-17.84 E60.13078
G1 F3600 E59.83078
G0 F9000 X-4.5 Y-17.84
G1 F3600 E60.13078
G1 F4800 X-4.5 Y-15.91 E60.2014
G1 F3600 E59.9014
G0 F9000 X-3 Y-15.91
G1 F3600 E60.2014
G1 F4800 X-3 Y-17.84 E60.27201
G1 F3600 E59.97201
G0 F9000 X-1.5 Y-17.84
G1 F3600 E60.27201
G1 F4800 X-1.5 Y-15.91 E60.34262
G1 F3600 E60.04262
G0 F9000 X0.00 Y-15.91
G1 F3600 E60.34262
G1 F4800 X0.00 Y-17.84 E60.41323
G1 F3600 E60.11323
G0 F9000 X1.5 Y-17.84
G1 F3600 E60.41323
G1 F4800 X1.5 Y-15.91 E60.48384
G1 F3600 E60.18384
G0 F9000 X3 Y-15.91
G1 F3600 E60.48384
