;FLAVOR:Marlin
;TIME:1182
;Filament used: 3.47804m
;Layer height: 0.24
;MINX:-15.653
;MINY:-46.664
;MINZ:0.25
;MAXX:15.423
;MAXY:45.85
;MAXZ:10.09
;Generated with Cura_SteamEngine 5.2.2
M82 ;absolute extrusion mode
G21 ; millimeter units
G90 ; absolute coordinates
M82 ; E absolute
M140 S35
M104 S215
M190 S35
M109 S215
G28 ; home axis
M420 S1 ; enable mesh leveling
; Lower nozzle and move to start position
G1 Z150
G1 X-130 Y0 Z0.4 F3000
; Extrude about 40 mm by printing a 90 degree arc
G3 X0 Y-130 I130 Z0.3 E40 F2700
; Retract and move nozzle up
G92 E0
G1 E-1.5 F1800
G0 Z0.5
G1 E0 F300

G92 E0
G92 E0
G1 F1800 E-0.8
;LAYER_COUNT:42
;LAYER:0
M107
G1 F3000 Z0.75
;MESH:ferma_caricabatteie.STL
G0 F6000 X10.389 Y-36.729 Z0.75
;TYPE:WALL-INNER
G1 F3000 Z0.25
G1 F1800 E0
G1 F4200 X10.598 Y-36.57 E0.01892
G1 X10.763 Y-36.318 E0.04061
G1 X10.825 Y-36 E0.06395
G1 X10.825 Y36.105 E5.2576
G1 X10.763 Y36.318 E5.27358
G1 X10.598 Y36.569 E5.29521
G1 X10.389 Y36.729 E5.31417
G1 X10.131 Y36.825 E5.334
G1 X-14.175 Y36.825 E7.08474
G1 X-14.175 Y45.175 E7.68618
G1 X12.869 Y45.175 E9.63413
G1 X12.869 Y-45.175 E16.14195
G1 X-14.175 Y-45.175 E18.0899
G1 X-14.175 Y-36.825 E18.69134
G1 X10.131 Y-36.825 E20.44208
G1 X10.389 Y-36.729 E20.46191
G0 F6000 X10.08 Y-36.495
G1 F4200 X10.359 Y-36.342 E20.48483
G1 X10.458 Y-36.191 E20.49783
G1 X10.495 Y-36 E20.51184
G1 X10.489 Y36.086 E25.70413
G1 X10.359 Y36.342 E25.72481
G1 X10.08 Y36.495 E25.74773
G1 X-14.505 Y36.495 E27.51856
G1 X-14.505 Y45.505 E28.16754
G1 X13.063 Y45.505 E30.15323
G1 X13.199 Y45.475 E30.16327
G1 X13.199 Y-45.355 E36.70566
G1 X13.199 Y-45.475 E36.7143
G1 X13.065 Y-45.505 E36.72419
G1 X-14.505 Y-45.505 E38.71003
G1 X-14.505 Y-36.495 E39.35901
G1 X10.08 Y-36.495 E41.12984
G1 F1800 E40.32984
G0 F6000 X10.08 Y-36.7
G0 X10.7 Y36.114
G1 F1800 E41.12984
G0 F6000 X10.12 Y36.114
;TYPE:WALL-OUTER
G1 F4200 X10.037 Y36.162 E41.13749
G1 X-14.835 Y36.165 E43.12094
G1 X-14.835 Y45.835 E43.89209
G1 X13.098 Y45.835 E46.11965
G1 X13.529 Y45.741 E46.15482
G1 X13.529 Y-45.355 E53.4194
G1 X13.529 Y-45.741 E53.45018
G1 X13.1 Y-45.835 E53.4852
G1 X-14.835 Y-45.835 E55.71292
G1 X-14.835 Y-36.165 E56.48407
G1 X10.037 Y-36.162 E58.46752
G1 X10.165 Y-36.046 E58.48129
G1 X10.163 Y36.029 E64.22901
G1 X10.12 Y36.114 E64.23661
G0 F6000 X10.037 Y36.162
G0 X9.982 Y36.162
G1 F1800 E63.43661
G0 F6000 X9.982 Y36.7
G0 X10.628 Y36.628
G0 X10.797 Y-36.795
;TYPE:SKIN
G1 F1800 E64.23661
G1 F4200 X11.025 Y-36.461 E64.25655
G1 X11.122 Y-36.031 E64.27828
G1 X11.123 Y36.151 E67.83726
G1 X11.026 Y36.462 E67.85332
G1 X10.836 Y36.753 E67.87045
G1 X10.552 Y36.98 E67.88838
G1 X10.183 Y37.125 E67.90793
G1 X-13.875 Y37.125 E69.09412
G1 X-13.875 Y44.875 E69.47624
G1 X12.569 Y44.875 E70.78008
G1 X12.569 Y-41 E75.01419
G1 X12.569 Y-44.875 E75.20525
G1 X-13.875 Y-44.875 E76.50909
G1 X-13.875 Y-37.125 E76.8912
G1 X10.148 Y-37.125 E78.07567
G1 X10.51 Y-37.002 E78.09452
G1 X10.797 Y-36.795 E78.11197
G0 F6000 X12.404 Y-44.532
G1 F4200 X12.227 Y-44.708 E78.12428
G0 F6000 X11.76 Y-44.708
G1 F4200 X12.404 Y-44.065 E78.16915
G0 F6000 X12.404 Y-43.598
G1 F4200 X11.293 Y-44.708 E78.24658
G0 F6000 X10.827 Y-44.708
G1 F4200 X12.404 Y-43.132 E78.35651
G0 F6000 X12.404 Y-42.665
G1 F4200 X10.36 Y-44.708 E78.499
G0 F6000 X9.893 Y-44.708
G1 F4200 X12.404 Y-42.198 E78.67405
G0 F6000 X12.404 Y-41.732
G1 F4200 X9.427 Y-44.708 E78.8816
G0 F6000 X8.96 Y-44.708
G1 F4200 X12.404 Y-41.265 E79.12171
G0 F6000 X12.404 Y-40.798
G1 F4200 X8.493 Y-44.708 E79.39438
G0 F6000 X8.027 Y-44.708
G1 F4200 X12.404 Y-40.331 E79.69958
G0 F6000 X12.404 Y-39.865
G1 F4200 X7.56 Y-44.708 E80.03731
G0 F6000 X7.093 Y-44.708
G1 F4200 X12.404 Y-39.398 E80.40761
G0 F6000 X12.404 Y-38.931
G1 F4200 X6.627 Y-44.708 E80.81043
G0 F6000 X6.16 Y-44.708
G1 F4200 X12.404 Y-38.465 E81.24578
G0 F6000 X12.404 Y-37.998
G1 F4200 X5.693 Y-44.708 E81.71369
G0 F6000 X5.226 Y-44.708
G1 F4200 X12.404 Y-37.531 E82.21417
G0 F6000 X12.404 Y-37.065
G1 F4200 X4.76 Y-44.708 E82.74714
G0 F6000 X4.293 Y-44.708
G1 F4200 X12.404 Y-36.598 E83.31267
G0 F6000 X12.404 Y-36.131
G1 F4200 X3.826 Y-44.708 E83.91077
G0 F6000 X3.36 Y-44.708
G1 F4200 X12.404 Y-35.665 E84.54136
G0 F6000 X12.404 Y-35.198
G1 F4200 X11.198 Y-36.403 E84.62542
G0 F6000 X11.284 Y-35.851
G1 F4200 X12.404 Y-34.731 E84.70352
G0 F6000 X12.404 Y-34.264
G1 F4200 X11.284 Y-35.385 E84.78165
G0 F6000 X11.284 Y-34.918
G1 F4200 X12.404 Y-33.798 E84.85974
G0 F6000 X12.404 Y-33.331
G1 F4200 X11.284 Y-34.451 E84.93784
G0 F6000 X11.284 Y-33.984
G1 F4200 X12.404 Y-32.864 E85.01593
G0 F6000 X12.404 Y-32.398
G1 F4200 X11.284 Y-33.518 E85.09403
G0 F6000 X11.284 Y-33.051
G1 F4200 X12.404 Y-31.931 E85.17213
G0 F6000 X12.404 Y-31.464
G1 F4200 X11.284 Y-32.584 E85.25022
G0 F6000 X11.284 Y-32.118
G1 F4200 X12.404 Y-30.998 E85.32832
G0 F6000 X12.404 Y-30.531
G1 F4200 X11.284 Y-31.651 E85.40641
G0 F6000 X11.284 Y-31.184
G1 F4200 X12.404 Y-30.064 E85.48451
G0 F6000 X12.404 Y-29.598
G1 F4200 X11.284 Y-30.718 E85.56261
G0 F6000 X11.284 Y-30.251
G1 F4200 X12.404 Y-29.131 E85.6407
G0 F6000 X12.404 Y-28.664
G1 F4200 X11.284 Y-29.784 E85.7188
G0 F6000 X11.284 Y-29.318
G1 F4200 X12.404 Y-28.198 E85.79689
G0 F6000 X12.404 Y-27.731
G1 F4200 X11.284 Y-28.851 E85.87499
G0 F6000 X11.284 Y-28.384
G1 F4200 X12.404 Y-27.264 E85.95309
G0 F6000 X12.404 Y-26.797
G1 F4200 X11.284 Y-27.917 E86.03118
G0 F6000 X11.284 Y-27.451
G1 F4200 X12.404 Y-26.331 E86.10928
G0 F6000 X12.404 Y-25.864
G1 F4200 X11.284 Y-26.984 E86.18738
G0 F6000 X11.284 Y-26.517
G1 F4200 X12.404 Y-25.397 E86.26547
G0 F6000 X12.404 Y-24.931
G1 F4200 X11.284 Y-26.051 E86.34357
G0 F6000 X11.284 Y-25.584
G1 F4200 X12.404 Y-24.464 E86.42166
G0 F6000 X12.404 Y-23.997
G1 F4200 X11.284 Y-25.117 E86.49976
G0 F6000 X11.284 Y-24.651
G1 F4200 X12.404 Y-23.531 E86.57786
G0 F6000 X12.404 Y-23.064
G1 F4200 X11.284 Y-24.184 E86.65595
G0 F6000 X11.284 Y-23.717
G1 F4200 X12.404 Y-22.597 E86.73405
G0 F6000 X12.404 Y-22.131
G1 F4200 X11.284 Y-23.251 E86.81214
G0 F6000 X11.284 Y-22.784
G1 F4200 X12.404 Y-21.664 E86.89024
G0 F6000 X12.404 Y-21.197
G1 F4200 X11.284 Y-22.317 E86.96834
G0 F6000 X11.284 Y-21.851
G1 F4200 X12.404 Y-20.73 E87.04647
G0 F6000 X12.404 Y-20.264
G1 F4200 X11.284 Y-21.384 E87.12456
G0 F6000 X11.284 Y-20.917
G1 F4200 X12.404 Y-19.797 E87.20266
G0 F6000 X12.404 Y-19.33
G1 F4200 X11.284 Y-20.45 E87.28075
G0 F6000 X11.284 Y-19.984
G1 F4200 X12.404 Y-18.864 E87.35885
G0 F6000 X12.404 Y-18.397
G1 F4200 X11.284 Y-19.517 E87.43695
G0 F6000 X11.284 Y-19.05
G1 F4200 X12.404 Y-17.93 E87.51504
G0 F6000 X12.404 Y-17.464
G1 F4200 X11.284 Y-18.584 E87.59314
G0 F6000 X11.284 Y-18.117
G1 F4200 X12.404 Y-16.997 E87.67123
G0 F6000 X12.404 Y-16.53
G1 F4200 X11.284 Y-17.65 E87.74933
G0 F6000 X11.284 Y-17.184
G1 F4200 X12.404 Y-16.064 E87.82743
G0 F6000 X12.404 Y-15.597
G1 F4200 X11.284 Y-16.717 E87.90552
G0 F6000 X11.284 Y-16.25
G1 F4200 X12.404 Y-15.13 E87.98362
G0 F6000 X12.404 Y-14.663
G1 F4200 X11.284 Y-15.784 E88.06175
G0 F6000 X11.284 Y-15.317
G1 F4200 X12.404 Y-14.197 E88.13985
G0 F6000 X12.404 Y-13.73
G1 F4200 X11.284 Y-14.85 E88.21794
G0 F6000 X11.284 Y-14.383
G1 F4200 X12.404 Y-13.263 E88.29604
G0 F6000 X12.404 Y-12.797
G1 F4200 X11.284 Y-13.917 E88.37413
G0 F6000 X11.284 Y-13.45
G1 F4200 X12.404 Y-12.33 E88.45223
G0 F6000 X12.404 Y-11.863
G1 F4200 X11.284 Y-12.983 E88.53033
G0 F6000 X11.284 Y-12.517
G1 F4200 X12.404 Y-11.397 E88.60842
G0 F6000 X12.404 Y-10.93
G1 F4200 X11.284 Y-12.05 E88.68652
G0 F6000 X11.284 Y-11.583
G1 F4200 X12.404 Y-10.463 E88.76461
G0 F6000 X12.404 Y-9.997
G1 F4200 X11.284 Y-11.117 E88.84271
G0 F6000 X11.284 Y-10.65
G1 F4200 X12.404 Y-9.53 E88.92081
G0 F6000 X12.404 Y-9.063
G1 F4200 X11.284 Y-10.183 E88.9989
G0 F6000 X11.284 Y-9.717
G1 F4200 X12.404 Y-8.597 E89.077
G0 F6000 X12.404 Y-8.13
G1 F4200 X11.284 Y-9.25 E89.15509
G0 F6000 X11.284 Y-8.783
G1 F4200 X12.404 Y-7.663 E89.23319
G0 F6000 X12.404 Y-7.196
G1 F4200 X11.284 Y-8.316 E89.31129
G0 F6000 X11.284 Y-7.85
G1 F4200 X12.404 Y-6.73 E89.38938
G0 F6000 X12.404 Y-6.263
G1 F4200 X11.284 Y-7.383 E89.46748
G0 F6000 X11.284 Y-6.916
G1 F4200 X12.404 Y-5.796 E89.54557
G0 F6000 X12.404 Y-5.33
G1 F4200 X11.284 Y-6.45 E89.62367
G0 F6000 X11.284 Y-5.983
G1 F4200 X12.404 Y-4.863 E89.70177
G0 F6000 X12.404 Y-4.396
G1 F4200 X11.284 Y-5.516 E89.77986
G0 F6000 X11.284 Y-5.05
G1 F4200 X12.404 Y-3.93 E89.85796
G0 F6000 X12.404 Y-3.463
G1 F4200 X11.284 Y-4.583 E89.93605
G0 F6000 X11.284 Y-4.116
G1 F4200 X12.404 Y-2.996 E90.01415
G0 F6000 X12.404 Y-2.53
G1 F4200 X11.284 Y-3.65 E90.09225
G0 F6000 X11.284 Y-3.183
G1 F4200 X12.404 Y-2.063 E90.17034
G0 F6000 X12.404 Y-1.596
G1 F4200 X11.284 Y-2.716 E90.24844
G0 F6000 X11.284 Y-2.25
G1 F4200 X12.404 Y-1.129 E90.32657
G0 F6000 X12.404 Y-.663
G1 F4200 X11.284 Y-1.783 E90.40466
G0 F6000 X11.284 Y-1.316
G1 F4200 X12.404 Y-.196 E90.48276
G0 F6000 X12.404 Y0.27
G1 F4200 X11.284 Y-.849 E90.56082
G0 F6000 X11.284 Y-.383
G1 F4200 X12.404 Y0.736 E90.63888
G0 F6000 X12.404 Y1.203
G1 F4200 X11.284 Y0.084 E90.71694
G0 F6000 X11.284 Y0.55
G1 F4200 X12.404 Y1.67 E90.79504
G0 F6000 X12.404 Y2.136
G1 F4200 X11.284 Y1.017 E90.8731
G0 F6000 X11.284 Y1.484
G1 F4200 X12.404 Y2.603 E90.95116
G0 F6000 X12.404 Y3.07
G1 F4200 X11.284 Y1.95 E91.02926
G0 F6000 X11.284 Y2.417
G1 F4200 X12.404 Y3.536 E91.10732
G0 F6000 X12.404 Y4.003
G1 F4200 X11.284 Y2.884 E91.18538
G0 F6000 X11.284 Y3.35
G1 F4200 X12.404 Y4.47 E91.26348
G0 F6000 X12.404 Y4.937
G1 F4200 X11.284 Y3.817 E91.34157
G0 F6000 X11.284 Y4.284
G1 F4200 X12.404 Y5.403 E91.41963
G0 F6000 X12.404 Y5.87
G1 F4200 X11.284 Y4.751 E91.49769
G0 F6000 X11.284 Y5.217
G1 F4200 X12.404 Y6.337 E91.57579
G0 F6000 X12.404 Y6.803
G1 F4200 X11.284 Y5.684 E91.65385
G0 F6000 X11.284 Y6.151
G1 F4200 X12.404 Y7.27 E91.73191
G0 F6000 X12.404 Y7.737
G1 F4200 X11.284 Y6.617 E91.81001
G0 F6000 X11.284 Y7.084
G1 F4200 X12.404 Y8.203 E91.88807
G0 F6000 X12.404 Y8.67
G1 F4200 X11.284 Y7.551 E91.96613
G0 F6000 X11.284 Y8.017
G1 F4200 X12.404 Y9.137 E92.04423
G0 F6000 X12.404 Y9.603
G1 F4200 X11.284 Y8.484 E92.12229
G0 F6000 X11.284 Y8.951
G1 F4200 X12.404 Y10.07 E92.20035
G0 F6000 X12.404 Y10.537
G1 F4200 X11.284 Y9.417 E92.27845
G0 F6000 X11.284 Y9.884
G1 F4200 X12.404 Y11.003 E92.35651
G0 F6000 X12.404 Y11.47
G1 F4200 X11.284 Y10.351 E92.43457
G0 F6000 X11.284 Y10.818
G1 F4200 X12.404 Y11.937 E92.51263
G0 F6000 X12.404 Y12.404
G1 F4200 X11.284 Y11.284 E92.59073
G0 F6000 X11.284 Y11.751
G1 F4200 X12.404 Y12.87 E92.66879
G0 F6000 X12.404 Y13.337
G1 F4200 X11.284 Y12.218 E92.74685
G0 F6000 X11.284 Y12.684
G1 F4200 X12.404 Y13.804 E92.82494
G0 F6000 X12.404 Y14.27
G1 F4200 X11.284 Y13.151 E92.903
G0 F6000 X11.284 Y13.618
G1 F4200 X12.404 Y14.737 E92.98107
G0 F6000 X12.404 Y15.204
G1 F4200 X11.284 Y14.084 E93.05916
G0 F6000 X11.284 Y14.551
G1 F4200 X12.404 Y15.67 E93.13722
G0 F6000 X12.404 Y16.137
G1 F4200 X11.284 Y15.018 E93.21528
G0 F6000 X11.284 Y15.484
G1 F4200 X12.404 Y16.604 E93.29338
G0 F6000 X12.404 Y17.07
G1 F4200 X11.284 Y15.951 E93.37144
G0 F6000 X11.284 Y16.418
G1 F4200 X12.404 Y17.537 E93.4495
G0 F6000 X12.404 Y18.004
G1 F4200 X11.284 Y16.885 E93.52756
G0 F6000 X11.284 Y17.351
G1 F4200 X12.404 Y18.471 E93.60566
G0 F6000 X12.404 Y18.937
G1 F4200 X11.284 Y17.818 E93.68372
G0 F6000 X11.284 Y18.285
G1 F4200 X12.404 Y19.404 E93.76178
G0 F6000 X12.404 Y19.871
G1 F4200 X11.284 Y18.751 E93.83988
G0 F6000 X11.284 Y19.218
G1 F4200 X12.404 Y20.337 E93.91794
G0 F6000 X12.404 Y20.804
G1 F4200 X11.284 Y19.685 E93.996
G0 F6000 X11.284 Y20.151
G1 F4200 X12.404 Y21.271 E94.0741
G0 F6000 X12.404 Y21.737
G1 F4200 X11.284 Y20.618 E94.15216
G0 F6000 X11.284 Y21.085
G1 F4200 X12.404 Y22.204 E94.23022
G0 F6000 X12.404 Y22.671
G1 F4200 X11.284 Y21.551 E94.30831
G0 F6000 X11.284 Y22.018
G1 F4200 X12.404 Y23.137 E94.38638
G0 F6000 X12.404 Y23.604
G1 F4200 X11.284 Y22.485 E94.46444
G0 F6000 X11.284 Y22.951
G1 F4200 X12.404 Y24.071 E94.54253
G0 F6000 X12.404 Y24.538
G1 F4200 X11.284 Y23.418 E94.62063
G0 F6000 X11.284 Y23.885
G1 F4200 X12.404 Y25.004 E94.69869
G0 F6000 X12.404 Y25.471
G1 F4200 X11.284 Y24.352 E94.77675
G0 F6000 X11.284 Y24.818
G1 F4200 X12.404 Y25.938 E94.85485
G0 F6000 X12.404 Y26.404
G1 F4200 X11.284 Y25.285 E94.93291
G0 F6000 X11.284 Y25.752
G1 F4200 X12.404 Y26.871 E95.01097
G0 F6000 X12.404 Y27.338
G1 F4200 X11.284 Y26.218 E95.08907
G0 F6000 X11.284 Y26.685
G1 F4200 X12.404 Y27.804 E95.16713
G0 F6000 X12.404 Y28.271
G1 F4200 X11.284 Y27.152 E95.24519
G0 F6000 X11.284 Y27.618
G1 F4200 X12.404 Y28.738 E95.32328
G0 F6000 X12.404 Y29.204
G1 F4200 X11.284 Y28.085 E95.40134
G0 F6000 X11.284 Y28.552
G1 F4200 X12.404 Y29.671 E95.47941
G0 F6000 X12.404 Y30.138
G1 F4200 X11.284 Y29.018 E95.5575
G0 F6000 X11.284 Y29.485
G1 F4200 X12.404 Y30.604 E95.63556
G0 F6000 X12.404 Y31.071
G1 F4200 X11.284 Y29.952 E95.71362
G0 F6000 X11.284 Y30.419
G1 F4200 X12.404 Y31.538 E95.79169
G0 F6000 X12.404 Y32.005
G1 F4200 X11.284 Y30.885 E95.86978
G0 F6000 X11.284 Y31.352
G1 F4200 X12.404 Y32.471 E95.94784
G0 F6000 X12.404 Y32.938
G1 F4200 X11.284 Y31.819 E96.0259
G0 F6000 X11.284 Y32.285
G1 F4200 X12.404 Y33.405 E96.104
G0 F6000 X12.404 Y33.871
G1 F4200 X11.284 Y32.752 E96.18206
G0 F6000 X11.284 Y33.219
G1 F4200 X12.404 Y34.338 E96.26012
G0 F6000 X12.404 Y34.805
G1 F4200 X11.284 Y33.685 E96.33822
G0 F6000 X11.284 Y34.152
G1 F4200 X12.404 Y35.271 E96.41628
G0 F6000 X12.404 Y35.738
G1 F4200 X11.284 Y34.619 E96.49434
G0 F6000 X11.284 Y35.085
G1 F4200 X12.404 Y36.205 E96.57244
G0 F6000 X12.404 Y36.671
G1 F4200 X11.284 Y35.552 E96.6505
G0 F6000 X11.284 Y36.019
G1 F4200 X12.404 Y37.138 E96.72856
G0 F6000 X12.404 Y37.605
G1 F4200 X11.209 Y36.41 E96.81188
G0 F6000 X11.046 Y36.714
G1 F4200 X12.404 Y38.072 E96.90658
G0 F6000 X12.404 Y38.538
G1 F4200 X10.834 Y36.968 E97.01605
G0 F6000 X10.558 Y37.159
G1 F4200 X12.404 Y39.005 E97.14477
G0 F6000 X12.404 Y39.472
G1 F4200 X10.204 Y37.272 E97.29817
G0 F6000 X9.754 Y37.289
G1 F4200 X12.404 Y39.938 E97.48292
G0 F6000 X12.404 Y40.405
G1 F4200 X9.287 Y37.289 E97.70023
G0 F6000 X8.821 Y37.289
G1 F4200 X12.404 Y40.872 E97.95006
G0 F6000 X12.404 Y41.338
G1 F4200 X8.354 Y37.289 E98.23243
G0 F6000 X7.887 Y37.289
G1 F4200 X12.404 Y41.805 E98.54736
G0 F6000 X12.404 Y42.272
G1 F4200 X7.421 Y37.289 E98.89482
G0 F6000 X6.954 Y37.289
G1 F4200 X12.404 Y42.738 E99.2748
G0 F6000 X12.404 Y43.205
G1 F4200 X6.487 Y37.289 E99.68735
G0 F6000 X6.021 Y37.289
G1 F4200 X12.404 Y43.672 E100.13243
G0 F6000 X12.404 Y44.139
G1 F4200 X5.554 Y37.289 E100.61007
G0 F6000 X5.087 Y37.289
G1 F4200 X12.404 Y44.605 E101.12024
G0 F6000 X12.04 Y44.708
G1 F4200 X4.62 Y37.289 E101.63759
G0 F6000 X4.154 Y37.289
G1 F4200 X11.573 Y44.708 E102.15491
G0 F6000 X11.107 Y44.708
G1 F4200 X3.687 Y37.289 E102.67226
G0 F6000 X3.22 Y37.289
G1 F4200 X10.64 Y44.708 E103.18961
G0 F6000 X10.173 Y44.708
G1 F4200 X2.754 Y37.289 E103.70693
G0 F6000 X2.287 Y37.289
G1 F4200 X9.707 Y44.708 E104.22428
G0 F6000 X9.24 Y44.708
G1 F4200 X1.82 Y37.289 E104.74163
G0 F6000 X1.354 Y37.289
G1 F4200 X8.773 Y44.708 E105.25894
G0 F6000 X8.307 Y44.708
G1 F4200 X0.887 Y37.289 E105.7763
G0 F6000 X0.42 Y37.289
G1 F4200 X7.84 Y44.708 E106.29365
G0 F6000 X7.373 Y44.708
G1 F4200 X-0.045 Y37.289 E106.81093
G0 F6000 X-.512 Y37.289
G1 F4200 X6.907 Y44.708 E107.32824
G0 F6000 X6.44 Y44.708
G1 F4200 X-.979 Y37.289 E107.84556
G0 F6000 X-1.446 Y37.289
G1 F4200 X5.973 Y44.708 E108.36288
G0 F6000 X5.506 Y44.708
G1 F4200 X-1.912 Y37.289 E108.88016
G0 F6000 X-2.379 Y37.289
G1 F4200 X5.04 Y44.708 E109.39747
G0 F6000 X4.573 Y44.708
