;FLAVOR:Marlin
;TIME:959
;Filament used: 1.47636m
;Layer height: 0.2
;MINX:-13.802
;MINY:-13.804
;MINZ:0.2
;MAXX:13.805
;MAXY:13.805
;MAXZ:13
;Generated with Cura_SteamEngine 5.2.2
M82 ;absolute extrusion mode
G21 ; millimeter units
G90 ; absolute coordinates
M82 ; E absolute
M140 S35
M104 S220
M190 S35
M109 S220
G28 ; home axis
M420 S1 ; enable mesh leveling
; Lower nozzle and move to start position
G1 Z150
G1 X-130 Y0 Z0.4 F3000
; Extrude about 40 mm by printing a 90 degree arc
G3 X0 Y-130 I130 Z0.3 E40 F2700
; Retract and move nozzle up
G92 E0
G1 E-1.5 F1800
G0 Z0.5
G1 E0 F300

G92 E0
G92 E0
G1 F3600 E-0.3
;LAYER_COUNT:65
;LAYER:0
M107
;MESH:mozzo_omniwheel_tondo_v1.stl
G0 X-6.087 Y2.13 Z0.2
;TYPE:WALL-OUTER
G1 F3600 E0
G1 F2400 X-6.251 Y1.581 E0.01868
G1 X-6.368 Y1.014 E0.03755
G1 X-6.433 Y0.446 E0.05619
G1 X-6.403 Y-.144 E0.07544
G1 X-6.433 Y-.418 E0.08443
G1 X-6.366 Y-1.034 E0.10463
G1 X-6.25 Y-1.587 E0.12305
G1 X-6.08 Y-2.148 E0.14216
G1 X-5.862 Y-2.689 E0.16117
G1 X-5.601 Y-3.194 E0.1797
G1 X-5.299 Y-3.679 E0.19833
G1 X-4.944 Y-4.139 E0.21727
G1 X-4.555 Y-4.564 E0.23605
G1 X-4.129 Y-4.955 E0.2549
G1 X-3.676 Y-5.3 E0.27346
G1 X-3.196 Y-5.601 E0.29193
G1 X-2.693 Y-5.86 E0.31037
G1 X-2.154 Y-6.079 E0.32934
G1 X-1.584 Y-6.25 E0.34874
G1 X-1.036 Y-6.365 E0.36699
G1 X-.429 Y-6.433 E0.3869
G1 X0.138 Y-6.403 E0.40541
G1 X0.415 Y-6.433 E0.41449
G1 X1.03 Y-6.366 E0.43466
G1 X1.584 Y-6.251 E0.4531
G1 X2.132 Y-6.085 E0.47177
G1 X2.688 Y-5.863 E0.49129
G1 X3.202 Y-5.596 E0.51017
G1 X3.675 Y-5.3 E0.52836
G1 X4.141 Y-4.943 E0.54749
G1 X4.558 Y-4.562 E0.5659
G1 X4.955 Y-4.128 E0.58508
G1 X5.3 Y-3.675 E0.60364
G1 X5.602 Y-3.194 E0.62215
G1 X5.867 Y-2.674 E0.64118
G1 X6.081 Y-2.147 E0.65972
G1 X6.252 Y-1.582 E0.67896
G1 X6.365 Y-1.033 E0.69724
G1 X6.432 Y-.464 E0.71591
G1 X6.403 Y0.144 E0.73576
G1 X6.435 Y0.436 E0.74533
G1 X6.365 Y1.034 E0.76496
G1 X6.25 Y1.588 E0.7834
G1 X6.079 Y2.151 E0.80258
G1 X5.861 Y2.691 E0.82157
G1 X5.604 Y3.19 E0.83986
G1 X5.296 Y3.678 E0.85867
G1 X4.942 Y4.141 E0.87767
G1 X4.552 Y4.567 E0.8965
G1 X4.127 Y4.956 E0.91528
G1 X3.679 Y5.295 E0.9336
G1 X3.191 Y5.604 E0.95243
G1 X2.687 Y5.862 E0.97088
G1 X2.143 Y6.082 E0.99001
G1 X1.595 Y6.248 E1.00868
G1 X1.028 Y6.366 E1.02756
G1 X0.456 Y6.432 E1.04633
G1 X-.146 Y6.403 E1.06597
G1 X-.421 Y6.432 E1.07499
G1 X-1.02 Y6.368 E1.09462
G1 X-1.59 Y6.249 E1.11361
G1 X-2.138 Y6.084 E1.13226
G1 X-2.693 Y5.86 E1.15177
G1 X-3.2 Y5.598 E1.17038
G1 X-3.683 Y5.297 E1.18893
G1 X-4.142 Y4.942 E1.20784
G1 X-4.568 Y4.55 E1.22672
G1 X-4.957 Y4.126 E1.24547
G1 X-5.302 Y3.673 E1.26403
G1 X-5.604 Y3.19 E1.2826
G1 X-5.868 Y2.672 E1.30156
G1 X-6.087 Y2.13 E1.32061
G0 F3600 X-6.13 Y1.987
G1 F3600 E1.02061
G0 X-8.836 Y1.691
G1 F3600 E1.32061
G1 F1440 X-9.442 Y1.64 E1.34044
G1 X-9.789 Y1.502 E1.35261
G1 X-10.257 Y1.149 E1.37172
G1 X-10.588 Y0.611 E1.39231
G1 X-10.7 Y0.01 E1.41224
G1 X-10.672 Y-.297 E1.42229
G1 X-10.569 Y-.642 E1.43403
G1 X-10.256 Y-1.15 E1.45348
G1 X-9.774 Y-1.512 E1.47313
G1 X-9.442 Y-1.64 E1.48473
G1 X-8.849 Y-1.692 E1.50413
G1 X-8.519 Y-1.629 E1.51508
G1 X-8.211 Y-1.502 E1.52594
G1 X-7.747 Y-1.148 E1.54497
G1 X-7.431 Y-.643 E1.56439
G1 X-7.329 Y-.307 E1.57583
G1 X-7.302 Y0.017 E1.58643
G1 X-7.331 Y0.319 E1.59632
G1 X-7.431 Y0.642 E1.60734
G1 X-7.749 Y1.15 E1.62688
G1 X-8.218 Y1.507 E1.6461
G1 X-8.524 Y1.631 E1.65686
G1 X-8.836 Y1.691 E1.66722
G0 F3600 X-8.985 Y1.679
G1 F3600 E1.36722
G0 X-10.553 Y1.422
;TYPE:WALL-INNER
G1 F3600 E1.66722
G1 F1440 X-10.962 Y0.759 E1.69261
G1 X-11.096 Y0.052 E1.71607
G1 X-11.066 Y-.334 E1.72869
G1 X-10.906 Y-.85 E1.7463
G1 X-10.553 Y-1.422 E1.76821
G1 X-9.982 Y-1.849 E1.79145
G1 X-9.506 Y-2.031 E1.80806
G1 X-8.857 Y-2.092 E1.82931
G1 X-8.393 Y-2.005 E1.8447
G1 X-7.993 Y-1.832 E1.85891
G1 X-7.441 Y-1.414 E1.88148
G1 F1454.7 X-7.041 Y-.766 E1.90605
G1 F1633.9 X-6.976 Y-0.006 E1.92797
G1 F1682.1 X-7.041 Y0.697 E1.94767
G1 F1492.8 X-7.094 Y0.85 E1.95276
G1 F1440 X-7.444 Y1.417 E1.97448
G1 X-7.994 Y1.833 E1.99696
G1 X-8.483 Y2.029 E2.01414
G1 X-8.857 Y2.092 E2.0265
G1 X-9.507 Y2.03 E2.04778
G1 X-9.985 Y1.847 E2.06447
G1 X-10.553 Y1.422 E2.08759
G1 F3600 E1.78759
G0 X1.572 Y8.371
;TYPE:WALL-OUTER
G1 F3600 E2.08759
G1 F1440 X1.667 Y8.703 E2.09885
G1 X1.693 Y9.017 E2.10912
G1 X1.665 Y9.308 E2.11865
G1 X1.572 Y9.629 E2.12955
G1 X1.437 Y9.9 E2.13942
G1 X1.039 Y10.339 E2.15873
G1 X0.766 Y10.513 E2.16929
G1 X0.447 Y10.638 E2.18045
G1 X0.141 Y10.692 E2.19058
G1 X-.434 Y10.642 E2.2094
G1 X-.794 Y10.502 E2.22199
G1 X-1.257 Y10.149 E2.24097
G1 X-1.589 Y9.617 E2.26141
G1 X-1.678 Y9.288 E2.27252
G1 X-1.677 Y8.694 E2.29189
G1 X-1.59 Y8.389 E2.30222
G1 X-1.262 Y7.853 E2.32271
G1 X-.777 Y7.487 E2.34252
G1 X-.433 Y7.358 E2.35449
G1 X0.142 Y7.308 E2.37331
G1 X0.476 Y7.371 E2.38439
G1 X0.768 Y7.488 E2.39464
G1 X1.048 Y7.67 E2.40553
G1 X1.442 Y8.111 E2.4248
G1 X1.572 Y8.371 E2.43428
G0 F3600 X1.613 Y8.515
G1 F3600 E2.13428
G0 X0.88 Y7.103
;TYPE:WALL-INNER
G1 F3600 E2.43428
G1 F1440 X1.279 Y7.336 E2.44934
G1 X1.764 Y7.87 E2.47286
G1 X1.949 Y8.245 E2.48649
G1 X2.054 Y8.616 E2.49906
G1 X2.089 Y9.025 E2.51244
G1 X2.056 Y9.369 E2.5237
G1 X1.965 Y9.705 E2.53505
G1 X1.769 Y10.124 E2.55013
G1 X1.314 Y10.624 E2.57217
G1 X0.879 Y10.897 E2.58891
G1 X0.533 Y11.025 E2.60094
G1 X0.159 Y11.088 E2.6133
G1 X-.564 Y11.028 E2.63695
G1 X-1.032 Y10.818 E2.65367
G1 X-1.559 Y10.421 E2.67518
G1 X-1.945 Y9.796 E2.69913
G1 X-2.074 Y9.31 E2.71552
G1 X-2.069 Y8.638 E2.73742
G1 X-1.949 Y8.211 E2.75188
G1 X-1.56 Y7.581 E2.77602
G1 X-.936 Y7.115 E2.80141
G1 F1575.2 X-.619 Y7.033 E2.81116
G1 F1986.9 X0.16 Y6.987 E2.8296
G1 F1776.4 X0.88 Y7.103 E2.84887
G1 F3600 E2.54887
G0 X7.743 Y1.148
;TYPE:WALL-OUTER
G1 F3600 E2.84887
G1 F1440 X7.431 Y0.643 E2.86822
G1 X7.314 Y0.085 E2.88681
G1 X7.331 Y-.317 E2.89992
G1 X7.431 Y-.643 E2.91104
G1 X7.749 Y-1.15 E2.93055
G1 X8.22 Y-1.508 E2.94983
G1 X8.545 Y-1.64 E2.96127
G1 X9.128 Y-1.692 E2.98035
G1 X9.463 Y-1.635 E2.99143
G1 X9.789 Y-1.502 E3.0029
G1 X10.249 Y-1.152 E3.02175
G1 X10.584 Y-.618 E3.0423
G1 X10.672 Y-.297 E3.05315
G1 X10.699 Y-0.003 E3.06277
G1 X10.672 Y0.296 E3.07256
G1 X10.583 Y0.62 E3.08351
G1 X10.248 Y1.153 E3.10403
G1 X9.789 Y1.502 E3.12283
G1 X9.463 Y1.635 E3.1343
G1 X9.117 Y1.692 E3.14574
G1 X8.564 Y1.641 E3.16384
G1 X8.218 Y1.507 E3.17593
G1 X7.743 Y1.148 E3.19534
G0 F3600 X7.665 Y1.021
G1 F3600 E2.89534
G0 X6.872 Y-.23
;TYPE:WALL-INNER
G1 F3600 E3.19534
G1 F1129.2 X6.886 Y-.406 E3.20268
G1 F3600 E2.90268
G0 X1.572 Y-9.629
;TYPE:WALL-OUTER
G1 F3600 E3.20268
G1 F1440 X1.667 Y-9.297 E3.21394
G1 X1.693 Y-8.983 E3.22421
G1 X1.666 Y-8.696 E3.23361
G1 X1.572 Y-8.371 E3.24464
G1 X1.433 Y-8.097 E3.25465
G1 X1.048 Y-7.67 E3.27339
G1 X0.767 Y-7.487 E3.28433
G1 X0.44 Y-7.36 E3.29576
G1 X0.153 Y-7.308 E3.30527
G1 X-.463 Y-7.361 E3.32542
G1 X-.794 Y-7.498 E3.3371
G1 X-1.264 Y-7.854 E3.35632
G1 X-1.59 Y-8.389 E3.37674
G1 X-1.678 Y-8.704 E3.38741
G1 X-1.678 Y-9.29 E3.40651
G1 X-1.589 Y-9.617 E3.41756
G1 X-1.255 Y-10.151 E3.43809
G1 X-.794 Y-10.502 E3.45698
G1 X-.464 Y-10.637 E3.4686
G1 X0.141 Y-10.693 E3.48841
G1 X0.463 Y-10.634 E3.49908
G1 X0.768 Y-10.512 E3.50978
G1 X1.04 Y-10.339 E3.52029
G1 X1.417 Y-9.923 E3.53859
G1 X1.572 Y-9.629 E3.54943
G0 F3600 X1.613 Y-9.485
G1 F3600 E3.24943
G0 X-.946 Y-7.116
;TYPE:WALL-INNER
G1 F3600 E3.54943
G1 F1440 X-1.565 Y-7.587 E3.57478
G1 X-1.95 Y-8.214 E3.59877
G1 X-2.074 Y-8.647 E3.61345
G1 X-2.074 Y-9.312 E3.63513
G1 X-1.951 Y-9.775 E3.65075
G1 X-1.562 Y-10.419 E3.67527
G1 X-1.032 Y-10.818 E3.6969
G1 X-.537 Y-11.03 E3.71445
G1 X0.159 Y-11.089 E3.73722
G1 X0.579 Y-11.012 E3.75114
G1 X0.879 Y-10.897 E3.76161
G1 X1.316 Y-10.623 E3.77843
G1 X1.715 Y-10.185 E3.79774
G1 X1.966 Y-9.704 E3.81543
G1 X2.057 Y-9.369 E3.82674
G1 X2.089 Y-9.028 E3.83791
G1 X2.054 Y-8.616 E3.85139
G1 X1.927 Y-8.194 E3.86575
G1 X1.76 Y-7.865 E3.87778
G1 X1.28 Y-7.335 E3.90109
G1 X0.879 Y-7.102 E3.91621
G1 F1516.6 X0.613 Y-7.02 E3.92482
G1 F1869.6 X0.103 Y-6.983 E3.93766
G1 F2193.2 X-.463 Y-7.028 E3.94982
G1 F1722.8 X-.946 Y-7.116 E3.96319
G1 F3600 E3.66319
G0 X-.624 Y-13.787
;TYPE:WALL-OUTER
G1 F3600 E3.96319
G1 F2400 X-1.414 Y-13.727 E3.98902
G1 X-2.299 Y-13.607 E4.01813
G1 X-3.126 Y-13.44 E4.04564
G1 X-3.926 Y-13.23 E4.0726
G1 X-4.74 Y-12.963 E4.10052
G1 X-5.519 Y-12.649 E4.1279
G1 X-6.281 Y-12.288 E4.15539
G1 X-7.027 Y-11.879 E4.18312
G1 X-7.73 Y-11.433 E4.21026
G1 X-8.415 Y-10.939 E4.23779
G1 X-9.064 Y-10.408 E4.26513
G1 X-9.684 Y-9.835 E4.29265
G1 X-10.264 Y-9.227 E4.32004
G1 X-10.813 Y-8.578 E4.34775
G1 X-11.315 Y-7.904 E4.37515
G1 X-11.772 Y-7.204 E4.4024
G1 X-12.189 Y-6.474 E4.4298
G1 X-12.561 Y-5.717 E4.4573
G1 X-12.888 Y-4.942 E4.48472
G1 X-13.164 Y-4.146 E4.51218
G1 X-13.39 Y-3.338 E4.53953
G1 X-13.571 Y-2.514 E4.56703
G1 X-13.699 Y-1.683 E4.59444
G1 X-13.776 Y-.843 E4.62194
G1 X-13.802 Y-0.003 E4.64934
G1 X-13.776 Y0.838 E4.67676
G1 X-13.699 Y1.675 E4.70416
G1 X-13.571 Y2.506 E4.73157
G1 X-13.391 Y3.33 E4.75907
G1 X-13.169 Y4.128 E4.78607
G1 X-12.89 Y4.937 E4.81396
G1 X-12.563 Y5.711 E4.84136
G1 X-12.19 Y6.468 E4.86887
G1 X-11.771 Y7.203 E4.89644
G1 X-11.314 Y7.903 E4.9237
G1 X-10.812 Y8.577 E4.95109
G1 X-10.268 Y9.221 E4.97857
G1 X-9.688 Y9.829 E5.00596
G1 X-9.068 Y10.402 E5.03348
G1 X-8.412 Y10.941 E5.06116
G1 X-7.729 Y11.434 E5.08862
G1 X-7.026 Y11.88 E5.11576
G1 X-6.287 Y12.286 E5.14325
G1 X-5.532 Y12.644 E5.17048
G1 X-4.747 Y12.961 E5.19808
G1 X-3.926 Y13.232 E5.22627
G1 X-3.134 Y13.44 E5.25296
G1 X-2.307 Y13.607 E5.28046
G1 X-1.473 Y13.722 E5.30791
G1 X-.632 Y13.787 E5.3354
G1 X0.204 Y13.799 E5.36266
G1 X1.045 Y13.761 E5.3901
G1 X1.833 Y13.678 E5.41593
G1 X2.712 Y13.531 E5.44498
G1 X3.535 Y13.34 E5.47252
G1 X4.261 Y13.124 E5.49721
G1 X5.132 Y12.811 E5.52739
G1 X5.905 Y12.474 E5.55487
G1 X6.652 Y12.092 E5.58222
G1 X7.376 Y11.664 E5.60964
G1 X8.075 Y11.192 E5.63714
G1 X8.743 Y10.678 E5.66461
G1 X9.377 Y10.126 E5.69201
G1 X9.977 Y9.534 E5.71949
G1 X10.539 Y8.908 E5.74692
G1 X11.069 Y8.244 E5.77461
G1 X11.551 Y7.554 E5.80205
G1 X11.987 Y6.841 E5.82929
G1 X12.381 Y6.099 E5.85668
G1 X12.727 Y5.339 E5.8839
G1 X13.032 Y4.548 E5.91153
G1 X13.293 Y3.724 E5.93971
G1 X13.488 Y2.928 E5.96643
G1 X13.642 Y2.098 E5.99394
G1 X13.743 Y1.263 E6.02136
G1 X13.796 Y0.416 E6.04903
G1 X13.795 Y-.378 E6.07491
G1 X13.747 Y-1.209 E6.10204
G1 X13.642 Y-2.093 E6.13106
G1 X13.491 Y-2.908 E6.15808
G1 X13.287 Y-3.738 E6.18595
G1 X13.032 Y-4.547 E6.2136
G1 X12.732 Y-5.326 E6.24081
G1 X12.383 Y-6.093 E6.26828
G1 X11.986 Y-6.842 E6.29591
G1 X11.55 Y-7.553 E6.3231
G1 X11.068 Y-8.245 E6.35059
G1 X10.543 Y-8.905 E6.37808
G1 X9.981 Y-9.53 E6.40548
G1 X9.381 Y-10.122 E6.43296
G1 X8.747 Y-10.674 E6.46036
G1 X8.073 Y-11.193 E6.48809
G1 X7.382 Y-11.661 E6.5153
G1 X6.658 Y-12.09 E6.54273
G1 X5.911 Y-12.472 E6.57008
G1 X5.124 Y-12.816 E6.59808
G1 X4.348 Y-13.097 E6.62498
G1 X3.533 Y-13.341 E6.65272
G1 X2.72 Y-13.531 E6.67993
G1 X1.89 Y-13.671 E6.70737
G1 X1.053 Y-13.761 E6.73481
G1 X0.212 Y-13.799 E6.76226
G1 X-.624 Y-13.787 E6.78951
G0 F3600 X-.773 Y-13.776
G1 F3600 E6.48951
G0 X6.872 Y-.23
;TYPE:WALL-INNER
G1 F3600 E6.78951
G1 F2507.7 X6.735 Y0.182 E6.80306
G1 F3157.5 X6.783 Y0.651 E6.81474
G1 F2575.6 X6.754 Y1.114 E6.82883
G1 F2400 X6.63 Y1.703 E6.84845
G1 X6.456 Y2.275 E6.86794
G1 X6.236 Y2.823 E6.88719
G1 X5.948 Y3.386 E6.90781
G1 X5.626 Y3.898 E6.92752
G1 X5.238 Y4.405 E6.94833
G1 X4.835 Y4.845 E6.96778
G1 X4.398 Y5.247 E6.98714
G1 X3.905 Y5.62 E7.00729
G1 X3.371 Y5.956 E7.02786
G1 X2.82 Y6.236 E7.04801
G1 X2.309 Y6.443 E7.06598
G1 X1.71 Y6.627 E7.08641
G1 X0.984 Y6.78 E7.11059
G1 F2618.2 X-0.056 Y6.729 E7.14171
G1 F2746.8 X-.915 Y6.794 E7.16624
G1 F2507.7 X-1.704 Y6.629 E7.19139
G1 F2400 X-2.302 Y6.446 E7.21178
G1 X-2.824 Y6.236 E7.23012
G1 X-3.409 Y5.934 E7.25158
G1 X-3.91 Y5.622 E7.27082
G1 X-4.385 Y5.255 E7.29039
G1 X-4.824 Y4.855 E7.30975
G1 X-5.253 Y4.389 E7.3304
G1 X-5.632 Y3.893 E7.35074
G1 X-5.944 Y3.393 E7.36996
G1 X-6.221 Y2.853 E7.38974
G1 X-6.457 Y2.273 E7.41015
G1 X-6.627 Y1.711 E7.42929
G1 X-6.762 Y1.06 E7.45097
G1 F2488 X-6.787 Y0.717 E7.46178
G1 F3046.2 X-6.758 Y0.412 E7.46965
G1 F3727.1 X-6.73 Y-.135 E7.48115
G1 F2988.7 X-6.795 Y-.719 E7.49653
G1 F2443.2 X-6.754 Y-1.114 E7.50925
G1 F2400 X-6.63 Y-1.701 E7.5288
G1 X-6.466 Y-2.246 E7.54736
G1 X-6.222 Y-2.854 E7.56871
G1 X-5.961 Y-3.362 E7.58733
G1 X-5.64 Y-3.883 E7.60728
G1 X-5.251 Y-4.389 E7.62808
G1 X-4.823 Y-4.856 E7.64873
G1 X-4.411 Y-5.235 E7.66698
G1 X-3.918 Y-5.614 E7.68725
G1 X-3.401 Y-5.94 E7.70718
G1 X-2.875 Y-6.212 E7.72648
G1 X-2.25 Y-6.465 E7.74846
G1 X-1.664 Y-6.638 E7.76838
G1 F2514.3 X-.938 Y-6.79 E7.79146
G1 F3095.8 X0.091 Y-6.73 E7.81751
G1 F3116.1 X0.643 Y-6.79 E7.83145
G1 F2527.7 X1.062 Y-6.762 E7.84445
G1 F2400 X1.699 Y-6.63 E7.86565
G1 X2.247 Y-6.464 E7.88432
G1 X2.869 Y-6.215 E7.90616
G1 X3.384 Y-5.949 E7.92505
G1 X3.897 Y-5.628 E7.94478
G1 X4.398 Y-5.245 E7.96534
G1 X4.836 Y-4.844 E7.9847
G1 X5.263 Y-4.378 E8.0053
G1 X5.62 Y-3.909 E8.02451
G1 X5.943 Y-3.396 E8.04428
G1 X6.22 Y-2.855 E8.06409
G1 X6.453 Y-2.283 E8.08422
G1 X6.64 Y-1.662 E8.10536
G1 X6.753 Y-1.113 E8.12364
G1 F2093.4 X6.886 Y-.406 E8.15052
G1 X7.093 Y-.851 E8.16886
G1 F2400 X7.443 Y-1.417 E8.19056
G1 X8 Y-1.837 E8.2133
G1 X8.446 Y-2.027 E8.2291
G1 X9.112 Y-2.088 E8.2509
G1 X9.517 Y-2.029 E8.26424
G1 X9.961 Y-1.868 E8.27964
G1 X10.555 Y-1.42 E8.30389
G1 X10.951 Y-.778 E8.32848
G1 X11.066 Y-.334 E8.34343
G1 X11.095 Y-0.004 E8.35423
G1 X11.053 Y0.416 E8.36799
G1 X10.949 Y0.781 E8.38036
G1 X10.562 Y1.408 E8.40438
G1 X9.966 Y1.865 E8.42886
G1 X9.569 Y2.017 E8.44272
G1 X9.112 Y2.088 E8.4578
G1 X8.444 Y2.027 E8.47966
G1 X7.993 Y1.833 E8.49567
G1 X7.443 Y1.416 E8.51817
G1 X7.093 Y0.851 E8.53983
G1 F2897.6 X6.991 Y0.145 E8.55909
G1 F2507.7 X6.872 Y-.23 E8.57137
G1 F3600 E8.27137
G0 X-7.083 Y1.574
G1 F3600 E8.57137
G1 F2400 X-7.238 Y1.758 E8.57921
G1 X-7.77 Y2.16 E8.60095
G1 X-8.258 Y2.377 E8.61836
G1 X-8.82 Y2.494 E8.63707
G1 X-9.573 Y2.421 E8.66173
G1 X-10.195 Y2.183 E8.68344
G1 X-10.705 Y1.803 E8.70417
G1 X-10.921 Y1.579 E8.71432
G1 X-11.26 Y1.03 E8.73535
G1 X-11.357 Y0.797 E8.74358
G1 X-11.494 Y0.082 E8.76731
G1 X-11.461 Y-.37 E8.78208
G1 X-11.353 Y-.809 E8.79682
G1 X-11.258 Y-1.034 E8.80478
G1 X-10.919 Y-1.582 E8.82579
G1 X-10.705 Y-1.803 E8.83582
G1 X-10.19 Y-2.186 E8.85674
G1 X-9.571 Y-2.421 E8.87832
G1 X-8.849 Y-2.491 E8.90197
G1 X-8.412 Y-2.419 E8.91641
G1 X-7.768 Y-2.158 E8.93906
G1 X-7.2 Y-1.732 E8.9622
G1 X-7.081 Y-1.576 E8.9686
G1 X-6.845 Y-2.36 E8.99529
G1 X-6.58 Y-3.024 E9.01859
G1 X-6.275 Y-3.61 E9.04013
G1 X-5.95 Y-4.132 E9.06017
G1 X-5.553 Y-4.645 E9.08132
G1 X-5.137 Y-5.102 E9.10147
G1 X-4.679 Y-5.526 E9.12181
G1 X-4.15 Y-5.935 E9.14361
G1 X-3.559 Y-6.305 E9.16634
G1 X-3.056 Y-6.564 E9.18478
G1 X-2.364 Y-6.845 E9.20913
G1 X-1.56 Y-7.085 E9.23648
G1 X-1.773 Y-7.249 E9.24524
G1 X-1.957 Y-7.468 E9.25457
G1 X-2.312 Y-8.044 E9.27662
G1 X-2.47 Y-8.598 E9.2954
G1 X-2.469 Y-9.334 E9.3194
G1 X-2.302 Y-9.97 E9.34083
G1 X-1.858 Y-10.691 E9.36843
G1 X-1.271 Y-11.134 E9.39241
G1 X-1.034 Y-11.266 E9.40125
G1 X-.616 Y-11.421 E9.41578
G1 X0.137 Y-11.49 E9.44043
G1 X0.695 Y-11.391 E9.45891
G1 X1.179 Y-11.19 E9.47599
G1 X1.592 Y-10.907 E9.49231
G1 X2.012 Y-10.447 E9.51262
G1 X2.154 Y-10.235 E9.52093
G1 X2.347 Y-9.813 E9.53606
G1 X2.448 Y-9.429 E9.549
G1 X2.485 Y-9.045 E9.56158
G1 X2.444 Y-8.545 E9.57793
G1 X2.317 Y-8.099 E9.59305
G1 X2.092 Y-7.643 E9.60963
G1 X1.582 Y-7.079 E9.63441
G1 X2.362 Y-6.844 E9.66097
G1 X2.965 Y-6.606 E9.6821
G1 X3.542 Y-6.314 E9.70318
G1 X4.119 Y-5.956 E9.72532
G1 X4.658 Y-5.544 E9.74743
