;FLAVOR:Marlin
;TIME:2331
;Filament used: 3.63954m
;Layer height: 0.2
;MINX:-94.651
;MINY:-52.302
;MINZ:0.2
;MAXX:94.649
;MAXY:52.301
;MAXZ:6
;Generated with Cura_SteamEngine 5.2.2
M82 ;absolute extrusion mode
G21 ; millimeter units
G90 ; absolute coordinates
M82 ; E absolute
M140 S35
M104 S220
M190 S35
M109 S220
G28 ; home axis
M420 S1 ; enable mesh leveling
; Lower nozzle and move to start position
G1 Z150
G1 X-130 Y0 Z0.4 F3000
; Extrude about 40 mm by printing a 90 degree arc
G3 X0 Y-130 I130 Z0.3 E40 F2700
; Retract and move nozzle up
G92 E0
G1 E-1.5 F1800
G0 Z0.5
G1 E0 F300

G92 E0
G92 E0
G1 F3600 E-0.3
;LAYER_COUNT:30
;LAYER:0
M107
;MESH:3d_spring_omnwheel_mount_tondo_v3.stl
G0 X-3.814 Y25.726 Z0.2
;TYPE:WALL-INNER
G1 F3600 E0
G1 F2400 X-3.514 Y25.003 E0.02552
G1 X-3.384 Y24.778 E0.03399
G1 X-2.828 Y24.056 E0.06369
G1 X-2.106 Y23.5 E0.0934
G1 X-1.88 Y23.369 E0.10192
G1 X-1.041 Y23.023 E0.1315
G1 X-.13 Y22.901 E0.16146
G1 X0.13 Y22.901 E0.16994
G1 X1.039 Y23.022 E0.19983
G1 X1.88 Y23.369 E0.22949
G1 X2.106 Y23.5 E0.238
G1 X2.828 Y24.056 E0.26771
G1 X3.384 Y24.778 E0.29741
G1 X3.514 Y25.003 E0.30589
G1 X3.814 Y25.726 E0.3314
G1 X3.88 Y25.976 E0.33983
G1 X3.999 Y26.883 E0.36965
G1 X3.862 Y27.928 E0.40401
G1 X3.514 Y28.765 E0.43356
G1 X3.384 Y28.99 E0.44203
G1 X2.831 Y29.711 E0.47165
G1 X2.106 Y30.269 E0.50147
G1 X1.88 Y30.4 E0.50999
G1 X1.082 Y30.725 E0.53807
G1 X0.908 Y30.764 E0.54389
G1 X0.008 Y30.882 E0.57348
G1 X-1.021 Y30.749 E0.6073
G1 X-1.88 Y30.4 E0.63752
G1 X-2.106 Y30.269 E0.64604
G1 X-2.831 Y29.711 E0.67586
G1 X-3.385 Y28.99 E0.7055
G1 X-3.514 Y28.765 E0.71396
G1 X-3.862 Y27.928 E0.74351
G1 X-3.999 Y26.884 E0.77783
G1 X-3.88 Y25.976 E0.80768
G1 X-3.814 Y25.726 E0.81611
G1 F3600 E0.51611
G0 X-1.8 Y30.005
G1 F3600 E0.81611
G1 F2400 X-2.547 Y29.43 E0.84684
G1 X-3.117 Y28.688 E0.87734
G1 X-3.477 Y27.823 E0.90789
G1 X-3.6 Y26.884 E0.93876
G1 X-3.478 Y25.95 E0.96946
G1 X-3.118 Y25.081 E1.00012
G1 X-2.546 Y24.338 E1.03069
G1 X-1.801 Y23.765 E1.06133
G1 X-.936 Y23.408 E1.09183
G1 X0.00 Y23.284 E1.12261
G1 X0.933 Y23.407 E1.15329
G1 X1.801 Y23.765 E1.1839
G1 X2.546 Y24.338 E1.21454
G1 X3.117 Y25.08 E1.24506
G1 X3.478 Y25.95 E1.27576
G1 X3.595 Y26.884 E1.30645
G1 X3.477 Y27.822 E1.33726
G1 X3.119 Y28.684 E1.36769
G1 X2.547 Y29.43 E1.39833
G1 X1.801 Y30.004 E1.42902
G1 X1.006 Y30.332 E1.45705
G1 X0.857 Y30.371 E1.46207
G1 X-0.002 Y30.484 E1.49032
G1 X-.922 Y30.363 E1.52057
G1 X-1.8 Y30.005 E1.55147
G1 F3600 E1.25147
G0 X-2.772 Y25.282
;TYPE:WALL-OUTER
G1 F3600 E1.55147
G1 F2400 X-2.263 Y24.621 E1.57867
G1 X-1.599 Y24.11 E1.60598
G1 X-.814 Y23.791 E1.63361
G1 X0.00 Y23.684 E1.66037
G1 X0.832 Y23.794 E1.68773
G1 X1.599 Y24.11 E1.71477
G1 X2.263 Y24.621 E1.74208
G1 X2.772 Y25.282 E1.76928
G1 X3.091 Y26.052 E1.79645
G1 X3.199 Y26.884 E1.8238
G1 X3.094 Y27.699 E1.85058
G1 X2.772 Y28.486 E1.8783
G1 X2.266 Y29.146 E1.90541
G1 X1.599 Y29.659 E1.93284
G1 X0.855 Y29.966 E1.95908
G1 X0.805 Y29.979 E1.96076
G1 X-0.002 Y30.084 E1.98729
G1 X-.832 Y29.975 E2.01458
G1 X-1.599 Y29.659 E2.04162
G1 X-2.266 Y29.146 E2.06905
G1 X-2.771 Y28.489 E2.09607
G1 X-3.094 Y27.699 E2.12389
G1 X-3.2 Y26.884 E2.15068
G1 X-3.091 Y26.052 E2.17803
G1 X-2.772 Y25.282 E2.2052
G0 F3600 X-2.681 Y25.164
G1 F3600 E1.9052
G0 X-4.937 Y41.228
;TYPE:WALL-INNER
G1 F3600 E2.2052
G1 F2400 X-4.473 Y40.053 E2.24638
G1 X-3.724 Y39.019 E2.288
G1 X-2.739 Y38.201 E2.32974
G1 X-1.58 Y37.652 E2.37155
G1 X-.316 Y37.411 E2.41349
G1 X0.967 Y37.495 E2.45541
G1 X2.051 Y37.848 E2.49257
G1 X2.276 Y37.954 E2.50068
G1 X3.146 Y38.505 E2.53425
G1 X3.337 Y38.663 E2.54233
G1 X4.122 Y39.502 E2.57978
G1 X4.74 Y40.623 E2.62151
G1 X5.059 Y41.86 E2.66315
G1 X5.059 Y43.139 E2.70485
G1 X4.738 Y44.378 E2.74657
G1 X4.13 Y45.489 E2.78785
G1 X3.243 Y46.434 E2.8301
G1 X2.185 Y47.105 E2.87094
G1 X0.958 Y47.505 E2.91301
G1 X-.318 Y47.589 E2.9547
G1 X-1.565 Y47.35 E2.99609
G1 X-2.732 Y46.804 E3.03809
G1 X-3.717 Y45.989 E3.07977
G1 X-4.469 Y44.954 E3.12147
G1 X-4.937 Y43.775 E3.16282
G1 X-5.096 Y42.499 E3.20474
G1 X-4.937 Y41.228 E3.24649
G1 F3600 E2.94649
G0 X-4.551 Y41.326
G1 F3600 E3.24649
G1 F2400 X-4.111 Y40.226 E3.28511
G1 X-3.427 Y39.285 E3.32304
G1 X-2.506 Y38.527 E3.36192
G1 X-1.462 Y38.034 E3.39956
G1 X-.298 Y37.811 E3.43819
G1 X0.879 Y37.886 E3.47664
G1 X1.929 Y38.224 E3.51259
G1 X2.064 Y38.288 E3.51746
G1 X2.992 Y38.882 E3.55338
G1 X3.799 Y39.734 E3.59164
G1 X4.37 Y40.773 E3.63028
G1 X4.663 Y41.911 E3.66859
G1 X4.663 Y43.092 E3.70709
G1 X4.367 Y44.234 E3.74555
G1 X3.805 Y45.258 E3.78362
G1 X2.991 Y46.125 E3.82239
G1 X2.01 Y46.746 E3.86024
G1 X0.884 Y47.113 E3.89884
G1 X-.283 Y47.189 E3.93697
G1 X-1.456 Y46.968 E3.97588
G1 X-2.504 Y46.474 E4.01365
G1 X-3.412 Y45.73 E4.05191
G1 X-4.117 Y44.757 E4.09108
G1 X-4.551 Y43.675 E4.12908
G1 X-4.698 Y42.501 E4.16765
G1 X-4.551 Y41.326 E4.20625
G1 F3600 E3.90625
G0 X-3.771 Y40.431
;TYPE:WALL-OUTER
G1 F3600 E4.20625
G1 F2400 X-3.137 Y39.56 E4.24137
G1 X-2.308 Y38.874 E4.27645
G1 X-1.331 Y38.412 E4.31168
G1 X-.257 Y38.209 E4.34731
G1 X0.812 Y38.279 E4.38223
G1 X1.807 Y38.601 E4.41632
G1 X1.852 Y38.622 E4.41794
G1 X2.741 Y39.188 E4.4523
G1 X3.483 Y39.979 E4.48765
G1 X3.997 Y40.919 E4.52258
G1 X4.265 Y41.959 E4.55759
G1 X4.265 Y43.041 E4.59286
G1 X4.001 Y44.072 E4.62755
G1 X3.474 Y45.034 E4.66331
G1 X2.75 Y45.804 E4.69776
G1 X1.832 Y46.391 E4.73328
G1 X0.816 Y46.72 E4.76809
G1 X-.273 Y46.79 E4.80367
G1 X-1.317 Y46.592 E4.83831
G1 X-2.305 Y46.128 E4.87389
G1 X-3.135 Y45.442 E4.90899
G1 X-3.77 Y44.569 E4.94418
G1 X-4.159 Y43.589 E4.97855
G1 X-4.298 Y42.512 E5.01395
G1 X-4.167 Y41.444 E5.04903
G1 X-3.771 Y40.431 E5.08448
G0 F3600 X-3.683 Y40.31
G1 F3600 E4.78448
G0 X-8.826 Y40.363
;TYPE:WALL-INNER
G1 F3600 E5.08448
G1 F2400 X-8.995 Y40.644 E5.09517
G1 X-9.181 Y40.812 E5.10334
G1 X-9.508 Y40.961 E5.11506
G1 X-9.721 Y40.99 E5.12206
G1 X-19.01 Y40.99 E5.42487
G1 X-19.01 Y44.01 E5.52331
G1 X-9.523 Y44.01 E5.83257
G1 X-9.136 Y44.173 E5.84626
G1 X-8.935 Y44.349 E5.85497
G1 X-8.762 Y44.632 E5.86579
G1 X-8.233 Y46.149 E5.91816
G1 X-7.522 Y47.45 E5.96649
G1 X-6.605 Y48.62 E6.01495
G1 X-5.517 Y49.619 E6.0631
G1 X-4.275 Y50.426 E6.11138
G1 X-2.901 Y51.024 E6.16023
G1 X-1.475 Y51.384 E6.20817
G1 X0.00 Y51.506 E6.25642
G1 X1.475 Y51.385 E6.30466
G1 X2.901 Y51.024 E6.35261
G1 X4.275 Y50.427 E6.40145
G1 X5.517 Y49.619 E6.44975
G1 X6.605 Y48.62 E6.4979
G1 X7.522 Y47.45 E6.54636
G1 X8.232 Y46.15 E6.59464
G1 X8.78 Y44.589 E6.64857
G1 X8.911 Y44.377 E6.6567
G1 X9.133 Y44.175 E6.66648
G1 X9.52 Y44.01 E6.6802
G1 X19.01 Y44.01 E6.98955
G1 X19.01 Y40.99 E7.088
G1 X9.721 Y40.99 E7.39081
G1 X9.506 Y40.961 E7.39788
G1 X9.177 Y40.81 E7.40968
G1 X8.973 Y40.617 E7.41883
G1 X8.843 Y40.404 E7.42697
G1 X8.762 Y40.099 E7.43725
G1 X8.766 Y39.833 E7.44593
G1 X8.825 Y39.614 E7.45332
G1 X9.058 Y39.267 E7.46695
G1 X9.191 Y39.19 E7.47195
G1 X8.617 Y39.102 E7.49089
G1 X8.424 Y38.986 E7.49823
G1 X8.19 Y38.736 E7.50939
G1 X7.738 Y37.889 E7.54068
G1 X7.278 Y37.193 E7.56788
G1 X6.639 Y36.396 E7.60118
G1 X6.509 Y36.038 E7.6136
G1 X6.509 Y21.874 E8.07532
G1 X-6.51 Y21.875 E8.49971
G1 X-6.51 Y36.025 E8.96098
G1 X-6.656 Y36.419 E8.97468
G1 X-7.271 Y37.184 E9.00667
G1 X-7.741 Y37.892 E9.03438
G1 X-8.182 Y38.719 E9.06493
G1 X-8.423 Y38.986 E9.07665
G1 X-8.617 Y39.102 E9.08402
G1 X-9.027 Y39.19 E9.09769
G1 X-9.194 Y39.19 E9.10314
G1 X-9.058 Y39.269 E9.10826
G1 X-8.825 Y39.617 E9.12191
G1 X-8.757 Y40.043 E9.13598
G1 X-8.826 Y40.363 E9.14665
G1 F3600 E8.84665
G0 X-9.333 Y39.553
G1 F3600 E9.14665
G1 F2400 X-9.193 Y39.762 E9.15485
G1 X-9.152 Y40.018 E9.1633
G1 X-9.195 Y40.218 E9.16997
G1 X-9.296 Y40.387 E9.17639
G1 X-9.407 Y40.487 E9.18126
G1 X-9.641 Y40.594 E9.18964
G1 X-19.406 Y40.594 E9.50797
G1 X-19.406 Y44.406 E9.63223
G1 X-9.583 Y44.406 E9.95244
G1 X-9.354 Y44.504 E9.96056
G1 X-9.234 Y44.609 E9.96576
G1 X-9.13 Y44.779 E9.97226
G1 X-8.596 Y46.311 E10.02515
G1 X-7.854 Y47.669 E10.07559
G1 X-6.897 Y48.89 E10.12616
G1 X-5.76 Y49.933 E10.17646
G1 X-4.463 Y50.776 E10.22688
G1 X-3.029 Y51.4 E10.27786
G1 X-1.54 Y51.776 E10.32793
G1 X0.00 Y51.903 E10.3783
G1 X1.54 Y51.777 E10.42867
G1 X3.029 Y51.4 E10.47874
G1 X4.463 Y50.777 E10.52971
G1 X5.76 Y49.933 E10.58015
G1 X6.897 Y48.89 E10.63045
G1 X7.854 Y47.669 E10.68102
G1 X8.595 Y46.311 E10.73145
G1 X9.141 Y44.753 E10.78526
G1 X9.352 Y44.505 E10.79588
G1 X9.585 Y44.406 E10.80413
G1 X19.406 Y44.406 E11.12428
G1 X19.406 Y40.594 E11.24854
G1 X9.732 Y40.594 E11.5639
G1 X9.492 Y40.537 E11.57194
G1 X9.342 Y40.435 E11.57785
G1 X9.172 Y40.149 E11.5887
G1 X9.158 Y39.892 E11.59709
G1 X9.193 Y39.76 E11.60154
G1 X9.333 Y39.552 E11.60971
G1 F2252.1 X9.662 Y39.346 E11.6232
G1 F2043.9 X10.847 Y38.999 E11.67046
G1 F1951.5 X12.01 Y38.736 E11.71826
G1 F1908.4 X13.185 Y38.554 E11.76701
G1 F1882 X14.406 Y38.451 E11.81795
G1 F1900.8 X15.658 Y38.437 E11.86948
G1 F1947.5 X16.705 Y38.491 E11.9116
G1 F2030.8 X18.575 Y38.75 E11.98433
G1 F2174.8 X19.219 Y38.859 E12.00782
G1 F2318 X20.738 Y39.219 E12.06051
G1 F2481.5 X21.534 Y39.422 E12.08641
G1 F2669.7 X22.957 Y39.853 E12.12998
G1 F2845.5 X23.911 Y40.152 E12.15747
G1 F3095.8 X25.809 Y40.785 E12.20803
G1 F3394.3 X27.708 Y41.418 E12.25417
G1 F3533.1 X28.746 Y41.754 E12.27833
G1 F3641.4 X30.227 Y42.192 E12.31151
G1 F3669.5 X31.289 Y42.485 E12.335
G1 F3698.1 X32.917 Y42.863 E12.37036
G1 F3712.5 X33.97 Y43.09 E12.39306
G1 F3546.3 X35.317 Y43.308 E12.42316
G1 F3418.7 X36.881 Y43.49 E12.4592
G1 F3288.6 X38.177 Y43.57 E12.49009
G1 F3277.2 X38.708 Y43.585 E12.50277
G1 F3221.7 X39.662 Y43.597 E12.52594
G1 F3085.7 X41.187 Y43.544 E12.56462
G1 F3055.9 X41.901 Y43.489 E12.58296
G1 F2998.1 X42.756 Y43.41 E12.60536
G1 F2951.6 X43.548 Y43.306 E12.62654
G1 F2915.3 X44.362 Y43.188 E12.64861
G1 F2880 X45.2 Y43.034 E12.67176
G1 F2837 X46.01 Y42.875 E12.69452
G1 F2738.9 X47.685 Y42.471 E12.74374
G1 F2669.7 X49.422 Y41.967 E12.79674
G1 F2654.7 X50.52 Y41.599 E12.83087
G1 F2625.4 X51.18 Y41.369 E12.8517
G1 F2603.8 X52.313 Y40.935 E12.88815
G1 F2582.6 X52.968 Y40.674 E12.90951
G1 F2554.8 X54.186 Y40.151 E12.9501
G1 F2534.4 X54.786 Y39.885 E12.97036
G1 F2481.5 X56.628 Y39.002 E13.03476
G1 F2449.5 X58.49 Y38.027 E13.1019
G1 F2418.3 X60.361 Y36.965 E13.1715
G1 F2387.9 X62.246 Y35.818 E13.24379
G1 F2358.3 X64.132 Y34.591 E13.31843
G1 F2329.4 X66.016 Y33.288 E13.39537
G1 F2295.7 X67.885 Y31.918 E13.47434
G1 X71.126 Y29.357 E13.61512
G1 F2273.7 X71.586 Y28.985 E13.63547
G1 F2252.1 X74.7 Y26.27 E13.77899
G1 F2236.2 X75.168 Y25.851 E13.80097
G1 F2215.4 X78.165 Y22.985 E13.94741
G1 F2194.9 X78.586 Y22.571 E13.96846
G1 F2155.1 X81.788 Y19.2 E14.13724
G1 F2135.7 X83.287 Y17.503 E14.22018
G1 F2116.7 X84.712 Y15.805 E14.30212
G1 F2098 X86.06 Y14.112 E14.38282
G1 F2079.6 X87.322 Y12.435 E14.46177
G1 F2061.6 X88.492 Y10.78 E14.53869
G1 F2039.5 X89.564 Y9.157 E14.6133
G1 F2013.6 X90.535 Y7.568 E14.68566
G1 F1988.3 X91.398 Y6.024 E14.75526
G1 F1959.6 X92.15 Y4.531 E14.822
G1 F1935.6 X92.787 Y3.095 E14.88549
G1 F1912.3 X93.309 Y1.719 E14.9457
G1 F1885.7 X93.711 Y0.414 E15.00236
G1 F1867.2 X93.995 Y-.827 E15.0557
G1 F1863.5 X94.156 Y-1.99 E15.10499
G1 F1867.2 X94.197 Y-3.01 E15.14776
G1 F1897 X94.121 Y-4.096 E15.19266
G1 F1943.6 X93.948 Y-4.916 E15.2264
G1 F1996.6 X93.692 Y-5.693 E15.25845
G1 F2184.8 X93.279 Y-6.515 E15.29139
G1 F2534.4 X92.779 Y-7.229 E15.3183
G1 F2933.3 X92.018 Y-8.046 E15.34808
G1 F2455.8 X91.554 Y-8.244 E15.36415
G1 F2603.8 X91.808 Y-7.859 E15.37801
G1 F3221.7 X92.444 Y-7.106 E15.40195
G1 F2589.6 X92.954 Y-6.274 E15.43143
G1 F2279.1 X93.375 Y-5.274 E15.46867
G1 F2048.3 X93.608 Y-4.191 E15.51099
G1 F1900.8 X93.691 Y-3.127 E15.55491
G1 F1870.9 X93.646 Y-2.015 E15.60145
G1 X93.473 Y-.805 E15.65257
G1 F1893.2 X93.154 Y0.547 E15.70997
G1 F1920 X92.738 Y1.852 E15.76578
G1 F1947.5 X92.176 Y3.292 E15.82788
G1 F1975.9 X91.529 Y4.714 E15.88974
G1 F2000.8 X90.739 Y6.246 E15.95714
G1 F2026.4 X89.858 Y7.79 E16.02577
G1 F2052.7 X88.883 Y9.358 E16.09614
G1 F2075.1 X87.786 Y10.995 E16.17044
G1 F2093.4 X86.605 Y12.642 E16.24618
G1 F2112 X85.336 Y14.306 E16.3237
G1 F2126.2 X83.983 Y15.986 E16.40307
G1 F2150.2 X82.563 Y17.662 E16.483
G1 F2179.8 X81.042 Y19.364 E16.56492
G1 X78.269 Y22.268 E16.70904
G1 F2194.9 X77.843 Y22.704 E16.73076
G1 F2215.4 X74.871 Y25.539 E16.87581
G1 F2236.2 X74.425 Y25.954 E16.89713
G1 F2252.1 X71.307 Y28.664 E17.04063
G1 F2273.7 X70.864 Y29.041 E17.06065
G1 F2295.7 X67.627 Y31.59 E17.20107
G1 F2306.8 X67.152 Y31.956 E17.2214
G1 F2346.7 X65.279 Y33.312 E17.29849
G1 F2376 X63.395 Y34.601 E17.37366
G1 F2406.1 X61.505 Y35.813 E17.44666
G1 F2436.9 X59.618 Y36.946 E17.51733
G1 F2475 X57.736 Y37.996 E17.58545
G1 F2507.7 X55.866 Y38.955 E17.65102
G1 F2548 X54.035 Y39.814 E17.71312
G1 F2596.7 X52.184 Y40.595 E17.77365
G1 F2603.8 X51.05 Y41.026 E17.8101
G1 F2625.4 X50.378 Y41.272 E17.83142
G1 F2654.7 X49.309 Y41.625 E17.8646
G1 F2684.7 X48.6 Y41.85 E17.88627
G1 F2723.2 X47.59 Y42.133 E17.91641
G1 F2762.8 X46.854 Y42.33 E17.93798
G1 F2795.3 X45.934 Y42.54 E17.9644
G1 F2837 X45.106 Y42.719 E17.98776
G1 F2880 X44.304 Y42.86 E18.00988
G1 F2915.3 X43.472 Y42.995 E18.0325
G1 F3036.4 X41.842 Y43.185 E18.07478
G1 F3136.6 X40.262 Y43.284 E18.11427
G1 F3243.7 X38.714 Y43.298 E18.1516
G1 F3358.3 X37.208 Y43.233 E18.18672
G1 F3481.3 X35.734 Y43.091 E18.22
G1 F3586.4 X34.313 Y42.884 E18.25133
G1 F3727.1 X32.937 Y42.614 E18.28076
G1 F3683.7 X31.35 Y42.226 E18.31546
G1 F3669.5 X30.281 Y41.947 E18.33901
G1 F3655.4 X28.824 Y41.495 E18.37166
G1 F3533.1 X27.772 Y41.158 E18.39612
G1 F3394.3 X25.885 Y40.5 E18.44219
G1 F3095.8 X23.997 Y39.842 E18.49272
G1 F2845.5 X23.059 Y39.522 E18.51996
G1 F2669.7 X21.676 Y39.083 E18.56249
G1 F2481.5 X20.832 Y38.83 E18.59027
G1 F2318 X19.318 Y38.452 E18.64293
G1 F2174.8 X18.639 Y38.299 E18.66797
G1 F2052.7 X16.565 Y37.994 E18.74787
G1 F1951.5 X15.404 Y37.933 E18.79448
G1 F1882 X14.325 Y37.947 E18.83934
G1 F1870.9 X13.232 Y38.038 E18.8852
G1 F1885.7 X12.15 Y38.204 E18.93062
G1 F1923.9 X11.014 Y38.462 E18.97799
G1 F1967.7 X9.77 Y38.833 E19.0296
G1 F2174.8 X9.027 Y38.794 E19.05637
G1 F2400 X8.781 Y38.742 E19.06457
G1 X8.536 Y38.536 E19.075
G1 X8.079 Y37.686 E19.10646
G1 X7.599 Y36.96 E19.13483
G1 X6.983 Y36.191 E19.16695
G1 X6.905 Y35.977 E19.17437
G1 X6.905 Y21.478 E19.64702
G1 X-6.906 Y21.479 E20.09723
G1 X-6.906 Y35.968 E20.56955
G1 X-6.993 Y36.206 E20.57781
G1 X-7.591 Y36.95 E20.60892
G1 X-8.081 Y37.689 E20.63783
G1 X-8.52 Y38.512 E20.66824
G1 X-8.664 Y38.672 E20.67525
G1 X-8.781 Y38.741 E20.67968
G1 X-9.027 Y38.794 E20.68788
G1 F2169.9 X-9.77 Y38.832 E20.71471
G1 F1963.6 X-11.028 Y38.458 E20.767
G1 F1923.9 X-12.147 Y38.206 E20.81364
G1 F1885.7 X-13.248 Y38.036 E20.85986
G1 F1874.6 X-14.341 Y37.947 E20.90563
G1 F1885.7 X-15.418 Y37.933 E20.95032
G1 F1951.5 X-16.583 Y37.996 E20.99709
G1 F2048.3 X-18.649 Y38.301 E21.07686
G1 F2174.8 X-19.318 Y38.452 E21.10153
G1 F2318 X-20.844 Y38.832 E21.15461
G1 F2475 X-21.674 Y39.082 E21.18201
G1 F2662.2 X-23.078 Y39.528 E21.2253
G1 F2837 X-24.013 Y39.847 E21.25254
G1 F3085.7 X-25.902 Y40.506 E21.30327
G1 F3394.3 X-27.791 Y41.165 E21.34938
G1 F3533.1 X-28.822 Y41.495 E21.37335
G1 F3655.4 X-30.312 Y41.956 E21.40673
G1 F3669.5 X-31.347 Y42.226 E21.42954
G1 F3683.7 X-32.968 Y42.623 E21.46498
G1 F3727.1 X-34.337 Y42.888 E21.49425
G1 F3586.4 X-35.762 Y43.094 E21.52566
G1 F3494.1 X-37.21 Y43.232 E21.55823
G1 F3370.2 X-38.714 Y43.298 E21.59318
G1 F3221.7 X-39.657 Y43.294 E21.61608
G1 F3168 X-40.283 Y43.283 E21.63154
G1 F3116.1 X-41.139 Y43.234 E21.65307
G1 F3055.9 X-41.871 Y43.182 E21.67186
G1 F3007.6 X-42.716 Y43.089 E21.69397
G1 F2960.7 X-43.504 Y42.991 E21.71495
