;FLAVOR:Marlin
;TIME:3119
;Filament used: 8.04449m
;Layer height: 0.26
;MINX:-49.85
;MINY:-39.85
;MINZ:0.25
;MAXX:49.85
;MAXY:39.85
;MAXZ:3.89
;Generated with Cura_SteamEngine 5.2.2
M82 ;absolute extrusion mode
G21 ; millimeter units
G90 ; absolute coordinates
M82 ; E absolute
M140 S35
M104 S215
M190 S35
M109 S215
G28 ; home axis
M420 S1 ; enable mesh leveling
; Lower nozzle and move to start position
G1 Z150
G1 X-130 Y0 Z0.4 F3000
; Extrude about 40 mm by printing a 90 degree arc
G3 X0 Y-130 I130 Z0.3 E40 F2700
; Retract and move nozzle up
G92 E0
G1 E-1.5 F1800
G0 Z0.5
G1 E0 F300

G92 E0
G92 E0
G1 F1800 E-0.8
;LAYER_COUNT:15
;LAYER:0
M107
G1 F3000 Z0.55
;MESH:porta_caricatore.STL
G0 F6000 X33.534 Y-24.298 Z0.55
;TYPE:WALL-INNER
G1 F3000 Z0.25
G1 F1800 E0
G1 F4200 X33.475 Y-25.02 E0.0487
G1 X33.54 Y-25.724 E0.09623
G1 X33.716 Y-26.373 E0.14144
G1 X34.011 Y-27.011 E0.18869
G1 X34.417 Y-27.586 E0.23601
G1 X34.912 Y-28.082 E0.28312
G1 X35.486 Y-28.491 E0.3305
G1 X36.125 Y-28.787 E0.37784
G1 X36.799 Y-28.964 E0.42469
G1 X37.498 Y-29.029 E0.47189
G1 X38.204 Y-28.967 E0.51953
G1 X38.877 Y-28.786 E0.56638
G1 X39.512 Y-28.491 E0.61345
G1 X40.092 Y-28.082 E0.66116
G1 X40.582 Y-27.592 E0.70775
G1 X40.991 Y-27.012 E0.75546
G1 X41.285 Y-26.379 E0.80238
G1 X41.467 Y-25.702 E0.84951
G1 X41.525 Y-25.002 E0.89673
G1 X41.469 Y-24.304 E0.94381
G1 X41.286 Y-23.625 E0.99108
G1 X40.991 Y-22.988 E1.03828
G1 X40.582 Y-22.408 E1.08599
G1 X40.089 Y-21.915 E1.13286
G1 X39.512 Y-21.511 E1.18021
G1 X38.874 Y-21.216 E1.22746
G1 X38.2 Y-21.036 E1.27436
G1 X37.522 Y-20.975 E1.32013
G1 X36.803 Y-21.032 E1.36862
G1 X36.12 Y-21.218 E1.4162
G1 X35.481 Y-21.512 E1.46349
G1 X34.905 Y-21.921 E1.51098
G1 X34.413 Y-22.418 E1.558
G1 X34.011 Y-22.984 E1.60467
G1 X33.714 Y-23.623 E1.65204
G1 X33.534 Y-24.298 E1.699
G0 F6000 X33.802 Y-24.998
G1 F4200 X33.863 Y-25.658 E1.74356
G1 X34.025 Y-26.261 E1.78554
G1 X34.297 Y-26.846 E1.82891
G1 X34.669 Y-27.374 E1.87233
G1 X35.121 Y-27.829 E1.91545
G1 X35.653 Y-28.205 E1.95924
G1 X36.236 Y-28.475 E2.00243
G1 X36.855 Y-28.641 E2.04552
G1 X37.5 Y-28.698 E2.08905
G1 X38.145 Y-28.641 E2.13258
G1 X38.764 Y-28.475 E2.17566
G1 X39.347 Y-28.205 E2.21886
G1 X39.872 Y-27.834 E2.26207
G1 X40.334 Y-27.372 E2.306
G1 X40.704 Y-26.849 E2.34907
G1 X40.971 Y-26.272 E2.39181
G1 X41.14 Y-25.651 E2.43507
G1 X41.195 Y-25.002 E2.47886
G1 X41.142 Y-24.356 E2.52244
G1 X40.976 Y-23.739 E2.56539
G1 X40.704 Y-23.151 E2.60894
G1 X40.334 Y-22.628 E2.65201
G1 X39.871 Y-22.165 E2.69603
G1 X39.347 Y-21.797 E2.73908
G1 X38.763 Y-21.525 E2.78239
G1 X38.145 Y-21.359 E2.82541
G1 X37.499 Y-21.302 E2.869
G1 X36.839 Y-21.364 E2.91357
G1 X36.215 Y-21.535 E2.95707
G1 X35.658 Y-21.794 E2.99836
G1 X35.131 Y-22.165 E3.04169
G1 X34.687 Y-22.606 E3.08376
G1 X34.305 Y-23.14 E3.1279
G1 X34.025 Y-23.743 E3.17259
G1 X33.861 Y-24.353 E3.21506
G1 X33.802 Y-24.998 E3.2586
G0 F6000 X33.6 Y-25.016
G0 X33.89 Y-23.687
G0 X34.173 Y-23.079
G0 X34.558 Y-22.531
G0 X35.594 Y-21.6
G0 X35.819 Y-22.082
;TYPE:WALL-OUTER
G1 F4200 X35.332 Y-22.427 E3.30302
G1 X34.921 Y-22.839 E3.34634
G1 X34.577 Y-23.331 E3.39102
G1 X34.337 Y-23.852 E3.43371
G1 X34.185 Y-24.419 E3.47741
G1 X34.135 Y-25.013 E3.52177
G1 X34.185 Y-25.582 E3.56429
G1 X34.337 Y-26.149 E3.60798
G1 X34.583 Y-26.682 E3.65167
G1 X34.922 Y-27.162 E3.69541
G1 X35.338 Y-27.578 E3.7392
G1 X35.831 Y-27.923 E3.78398
G1 X36.363 Y-28.167 E3.82755
G1 X36.913 Y-28.314 E3.86992
G1 X37.515 Y-28.365 E3.91489
G1 X38.101 Y-28.311 E3.95869
G1 X38.637 Y-28.167 E4
G1 X39.169 Y-27.923 E4.04356
G1 X39.651 Y-27.586 E4.08733
G1 X40.086 Y-27.151 E4.13312
G1 X40.423 Y-26.669 E4.1769
G1 X40.666 Y-26.139 E4.22029
G1 X40.816 Y-25.573 E4.26387
G1 X40.865 Y-25.002 E4.30653
G1 X40.814 Y-24.413 E4.35053
G1 X40.667 Y-23.864 E4.39284
G1 X40.423 Y-23.331 E4.43647
G1 X40.086 Y-22.849 E4.48024
G1 X39.651 Y-22.414 E4.52603
G1 X39.183 Y-22.083 E4.56869
G1 X38.65 Y-21.837 E4.61239
G1 X38.087 Y-21.686 E4.65577
G1 X37.485 Y-21.635 E4.70074
G1 X36.917 Y-21.685 E4.74318
G1 X36.355 Y-21.835 E4.78647
G1 X35.819 Y-22.082 E4.8304
G0 F6000 X35.697 Y-22.168
G1 F1800 E4.0304
G0 F6000 X35.39 Y-21.733
G0 X33.534 Y24.299
;TYPE:WALL-INNER
G1 F1800 E4.8304
G1 F4200 X33.714 Y23.623 E4.87743
G1 X34.013 Y22.98 E4.9251
G1 X34.416 Y22.41 E4.97203
G1 X34.907 Y21.919 E5.01871
G1 X35.514 Y21.497 E5.06841
G1 X36.12 Y21.218 E5.11326
G1 X36.803 Y21.032 E5.16085
G1 X37.522 Y20.975 E5.20934
G1 X38.2 Y21.036 E5.2551
G1 X38.874 Y21.216 E5.302
G1 X39.511 Y21.511 E5.34919
G1 X40.091 Y21.917 E5.39679
G1 X40.582 Y22.408 E5.44347
G1 X40.991 Y22.988 E5.49118
G1 X41.285 Y23.621 E5.5381
G1 X41.467 Y24.298 E5.58523
G1 X41.525 Y24.998 E5.63245
G1 X41.469 Y25.696 E5.67952
G1 X41.286 Y26.375 E5.7268
G1 X40.991 Y27.012 E5.77399
G1 X40.582 Y27.592 E5.8217
G1 X40.09 Y28.084 E5.86848
G1 X39.516 Y28.49 E5.91575
G1 X38.874 Y28.787 E5.9633
G1 X38.201 Y28.964 E6.01008
G1 X37.502 Y29.029 E6.05728
G1 X36.796 Y28.967 E6.10492
G1 X36.124 Y28.786 E6.15171
G1 X35.484 Y28.49 E6.19911
G1 X34.908 Y28.083 E6.24653
G1 X34.417 Y27.586 E6.29349
G1 X34.011 Y27.011 E6.34081
G1 X33.716 Y26.373 E6.38807
G1 X33.54 Y25.724 E6.43327
G1 X33.475 Y25.024 E6.48054
G1 X33.534 Y24.299 E6.52944
G0 F6000 X33.802 Y25.001
G1 F4200 X33.861 Y24.353 E6.57318
G1 X34.025 Y23.743 E6.61564
G1 X34.288 Y23.17 E6.65803
G1 X34.67 Y22.622 E6.70294
G1 X35.115 Y22.179 E6.74515
G1 X35.64 Y21.805 E6.78848
G1 X36.235 Y21.525 E6.83269
G1 X36.839 Y21.364 E6.87472
G1 X37.499 Y21.302 E6.91928
G1 X38.143 Y21.361 E6.96276
G1 X38.763 Y21.525 E7.00587
G1 X39.346 Y21.795 E7.04906
G1 X39.872 Y22.166 E7.09233
G1 X40.334 Y22.628 E7.13626
G1 X40.704 Y23.151 E7.17933
G1 X40.971 Y23.728 E7.22207
G1 X41.139 Y24.348 E7.26525
G1 X41.198 Y24.997 E7.30906
G1 X41.141 Y25.645 E7.35279
G1 X40.976 Y26.261 E7.39567
G1 X40.704 Y26.849 E7.43922
G1 X40.334 Y27.372 E7.48229
G1 X39.872 Y27.834 E7.52621
G1 X39.35 Y28.204 E7.56923
G1 X38.762 Y28.476 E7.61278
G1 X38.145 Y28.641 E7.65572
G1 X37.5 Y28.698 E7.69925
G1 X36.855 Y28.641 E7.74278
G1 X36.238 Y28.476 E7.78572
G1 X35.65 Y28.204 E7.82927
G1 X35.121 Y27.829 E7.87286
G1 X34.669 Y27.374 E7.91598
G1 X34.297 Y26.846 E7.9594
G1 X34.025 Y26.262 E8.00271
G1 X33.859 Y25.646 E8.0456
G1 X33.802 Y25.001 E8.08913
G0 F6000 X33.6 Y24.983
G0 X33.763 Y25.736
G0 X34.1 Y26.906
G0 X34.583 Y26.682
;TYPE:WALL-OUTER
G1 F4200 X34.337 Y26.149 E8.13282
G1 X34.185 Y25.582 E8.17651
G1 X34.135 Y24.987 E8.22095
G1 X34.186 Y24.412 E8.26392
G1 X34.337 Y23.852 E8.30709
G1 X34.582 Y23.32 E8.35068
G1 X34.917 Y22.844 E8.39401
G1 X35.343 Y22.418 E8.43885
G1 X35.831 Y22.077 E8.48316
G1 X36.355 Y21.835 E8.52612
G1 X36.917 Y21.685 E8.56941
G1 X37.515 Y21.635 E8.61408
G1 X38.087 Y21.686 E8.65682
G1 X38.65 Y21.837 E8.7002
G1 X39.182 Y22.083 E8.74383
G1 X39.651 Y22.414 E8.78655
G1 X40.086 Y22.849 E8.83234
G1 X40.423 Y23.331 E8.87612
G1 X40.666 Y23.861 E8.91951
G1 X40.816 Y24.427 E8.9631
G1 X40.865 Y25.013 E9.00686
G1 X40.814 Y25.587 E9.04975
G1 X40.667 Y26.136 E9.09206
G1 X40.423 Y26.669 E9.13569
G1 X40.086 Y27.151 E9.17946
G1 X39.651 Y27.586 E9.22525
G1 X39.17 Y27.923 E9.26896
G1 X38.637 Y28.167 E9.31259
G1 X38.087 Y28.314 E9.35497
G1 X37.485 Y28.365 E9.39993
G1 X36.899 Y28.311 E9.44373
G1 X36.363 Y28.167 E9.48504
G1 X35.804 Y27.908 E9.5309
G1 X35.338 Y27.577 E9.57344
G1 X34.922 Y27.162 E9.61718
G1 X34.583 Y26.682 E9.66092
G0 F6000 X34.521 Y26.546
G1 F1800 E8.86092
G0 F6000 X34.037 Y26.771
G0 X-37.5 Y21.158
G0 X-38.167 Y21.217
G0 X-38.813 Y21.39
G0 X-39.421 Y21.673
G0 X-39.969 Y22.058
G0 X-40.442 Y22.531
G0 X-41.469 Y24.304
;TYPE:WALL-INNER
G1 F1800 E9.66092
G1 F4200 X-41.286 Y23.625 E9.70819
G1 X-40.992 Y22.989 E9.7553
G1 X-40.586 Y22.412 E9.80273
G1 X-40.091 Y21.917 E9.84979
G1 X-39.511 Y21.511 E9.89738
G1 X-38.874 Y21.216 E9.94458
G1 X-38.2 Y21.036 E9.99147
G1 X-37.522 Y20.975 E10.03724
G1 X-36.803 Y21.032 E10.08573
G1 X-36.12 Y21.218 E10.13331
G1 X-35.482 Y21.512 E10.18054
G1 X-34.905 Y21.921 E10.22809
G1 X-34.413 Y22.418 E10.2751
G1 X-34.01 Y22.986 E10.32192
G1 X-33.724 Y23.605 E10.36776
G1 X-33.706 Y23.659 E10.37159
G1 X-33.534 Y24.297 E10.41601
G1 X-33.475 Y25.02 E10.46478
G1 X-33.54 Y25.724 E10.51231
G1 X-33.716 Y26.373 E10.55751
G1 X-34.011 Y27.011 E10.60477
G1 X-34.417 Y27.586 E10.65209
G1 X-34.912 Y28.082 E10.6992
G1 X-35.482 Y28.489 E10.74628
G1 X-36.126 Y28.787 E10.79399
G1 X-36.799 Y28.964 E10.84077
G1 X-37.498 Y29.029 E10.88796
G1 X-38.204 Y28.967 E10.93561
G1 X-38.876 Y28.786 E10.98239
G1 X-39.516 Y28.49 E11.0298
G1 X-40.09 Y28.084 E11.07706
G1 X-40.586 Y27.588 E11.12422
G1 X-40.992 Y27.012 E11.1716
G1 X-41.287 Y26.374 E11.21885
G1 X-41.464 Y25.701 E11.26563
G1 X-41.525 Y25.002 E11.3128
G1 X-41.469 Y24.304 E11.35988
G0 F6000 X-41.198 Y25.002
G1 F4200 X-41.141 Y24.355 E11.40354
G1 X-40.976 Y23.739 E11.44641
G1 X-40.704 Y23.152 E11.48991
G1 X-40.33 Y22.622 E11.53351
G1 X-39.878 Y22.17 E11.57649
G1 X-39.346 Y21.797 E11.62017
G1 X-38.765 Y21.525 E11.66329
G1 X-38.145 Y21.359 E11.70644
G1 X-37.499 Y21.302 E11.75004
G1 X-36.839 Y21.364 E11.79461
G1 X-36.235 Y21.525 E11.83663
G1 X-35.659 Y21.794 E11.87937
G1 X-35.122 Y22.17 E11.92344
G1 X-34.687 Y22.606 E11.96484
G1 X-34.305 Y23.14 E12.00898
G1 X-34.021 Y23.757 E12.05464
G1 X-33.861 Y24.353 E12.09613
G1 X-33.802 Y24.998 E12.13967
G1 X-33.863 Y25.658 E12.18423
G1 X-34.025 Y26.261 E12.22621
G1 X-34.297 Y26.846 E12.26958
G1 X-34.669 Y27.374 E12.313
G1 X-35.121 Y27.829 E12.35611
G1 X-35.65 Y28.204 E12.39971
G1 X-36.238 Y28.476 E12.44326
G1 X-36.855 Y28.641 E12.4862
G1 X-37.5 Y28.698 E12.52973
G1 X-38.145 Y28.641 E12.57326
G1 X-38.762 Y28.476 E12.61619
G1 X-39.35 Y28.204 E12.65975
G1 X-39.879 Y27.829 E12.70334
G1 X-40.33 Y27.378 E12.74622
G1 X-40.704 Y26.848 E12.78983
G1 X-40.976 Y26.261 E12.83332
G1 X-41.141 Y25.645 E12.87619
G1 X-41.198 Y25.002 E12.91959
G0 F6000 X-41.4 Y24.984
G0 X-41.11 Y23.687
G0 X-40.827 Y23.079
G0 X-40.442 Y22.531
G0 X-39.969 Y22.058
G0 X-39.421 Y21.673
G0 X-38.813 Y21.39
G0 X-38.167 Y21.217
G0 X-37.5 Y21.158
G0 X-35.595 Y21.6
G0 X-35.82 Y22.082
;TYPE:WALL-OUTER
G1 F4200 X-35.332 Y22.427 E12.96407
G1 X-34.921 Y22.839 E13.00738
G1 X-34.577 Y23.331 E13.05207
G1 X-34.336 Y23.855 E13.095
G1 X-34.185 Y24.419 E13.13845
G1 X-34.135 Y25.013 E13.18282
G1 X-34.185 Y25.582 E13.22533
G1 X-34.337 Y26.149 E13.26903
G1 X-34.583 Y26.682 E13.31272
G1 X-34.922 Y27.162 E13.35646
G1 X-35.338 Y27.578 E13.40025
G1 X-35.83 Y27.923 E13.44497
G1 X-36.363 Y28.167 E13.4886
G1 X-36.913 Y28.314 E13.53097
G1 X-37.515 Y28.365 E13.57594
G1 X-38.101 Y28.311 E13.61974
G1 X-38.637 Y28.167 E13.66105
G1 X-39.17 Y27.923 E13.70468
G1 X-39.651 Y27.586 E13.7484
G1 X-40.086 Y27.151 E13.79418
G1 X-40.423 Y26.669 E13.83796
G1 X-40.667 Y26.136 E13.88159
G1 X-40.814 Y25.587 E13.92389
G1 X-40.865 Y24.987 E13.96871
G1 X-40.811 Y24.399 E14.01266
G1 X-40.667 Y23.864 E14.0539
G1 X-40.423 Y23.331 E14.09753
G1 X-40.086 Y22.849 E14.1413
G1 X-39.651 Y22.414 E14.18709
G1 X-39.182 Y22.083 E14.22981
G1 X-38.65 Y21.837 E14.27344
G1 X-38.087 Y21.686 E14.31682
G1 X-37.485 Y21.635 E14.36179
G1 X-36.917 Y21.685 E14.40423
G1 X-36.355 Y21.835 E14.44752
G1 X-35.82 Y22.082 E14.49138
G0 F6000 X-35.698 Y22.168
G1 F1800 E13.69138
G0 F6000 X-35.391 Y21.732
G0 X-41.469 Y-25.696
;TYPE:WALL-INNER
G1 F1800 E14.49138
G1 F4200 X-41.286 Y-26.375 E14.53866
G1 X-40.992 Y-27.011 E14.58576
G1 X-40.586 Y-27.588 E14.63319
G1 X-40.092 Y-28.082 E14.68016
G1 X-39.512 Y-28.491 E14.72787
G1 X-38.875 Y-28.787 E14.77509
G1 X-38.201 Y-28.964 E14.82194
G1 X-37.502 Y-29.029 E14.86913
G1 X-36.796 Y-28.967 E14.91678
G1 X-36.123 Y-28.786 E14.96363
G1 X-35.486 Y-28.491 E15.01082
G1 X-34.912 Y-28.082 E15.05821
G1 X-34.417 Y-27.586 E15.10531
G1 X-34.011 Y-27.011 E15.15264
G1 X-33.745 Y-26.443 E15.1948
G1 X-33.717 Y-26.376 E15.19968
G1 X-33.54 Y-25.724 E15.2451
G1 X-33.475 Y-25.024 E15.29236
G1 X-33.534 Y-24.299 E15.34126
G1 X-33.714 Y-23.623 E15.38829
G1 X-34.013 Y-22.98 E15.43596
G1 X-34.416 Y-22.41 E15.48289
G1 X-34.906 Y-21.92 E15.52948
G1 X-35.485 Y-21.51 E15.57717
G1 X-36.12 Y-21.218 E15.62416
G1 X-36.803 Y-21.032 E15.67175
G1 X-37.522 Y-20.975 E15.72024
G1 X-38.2 Y-21.036 E15.766
G1 X-38.874 Y-21.216 E15.8129
G1 X-39.512 Y-21.511 E15.86015
G1 X-40.089 Y-21.915 E15.90751
G1 X-40.586 Y-22.412 E15.95476
G1 X-40.992 Y-22.988 E16.00213
G1 X-41.287 Y-23.626 E16.04939
G1 X-41.464 Y-24.299 E16.09617
G1 X-41.525 Y-24.998 E16.14334
G1 X-41.469 Y-25.696 E16.19042
G0 F6000 X-40.827 Y-26.921
G0 X-40.442 Y-27.469
G0 X-39.969 Y-27.942
G0 X-39.421 Y-28.327
G0 X-38.813 Y-28.61
G0 X-38.167 Y-28.783
G0 X-37.5 Y-28.842
G0 X-36.833 Y-28.783
G0 X-36.187 Y-28.61
G0 X-35.579 Y-28.327
G0 X-35.086 Y-27.981
G0 X-34.112 Y-26.932
G0 X-34.295 Y-26.847
G1 F4200 X-34.044 Y-26.305 E16.23057
G1 X-33.864 Y-25.658 E16.27572
G1 X-33.802 Y-25.003 E16.31995
G1 X-33.861 Y-24.353 E16.36383
G1 X-34.025 Y-23.743 E16.40629
G1 X-34.288 Y-23.17 E16.44868
G1 X-34.67 Y-22.622 E16.49358
G1 X-35.115 Y-22.179 E16.5358
G1 X-35.639 Y-21.805 E16.57908
G1 X-36.215 Y-21.535 E16.62184
G1 X-36.839 Y-21.364 E16.66534
G1 X-37.499 Y-21.302 E16.7099
G1 X-38.145 Y-21.359 E16.7535
G1 X-38.763 Y-21.525 E16.79652
G1 X-39.347 Y-21.797 E16.83983
G1 X-39.878 Y-22.17 E16.88345
G1 X-40.33 Y-22.622 E16.92643
G1 X-40.704 Y-23.152 E16.97004
G1 X-40.976 Y-23.739 E17.01353
G1 X-41.141 Y-24.355 E17.0564
G1 X-41.198 Y-24.998 E17.0998
G1 X-41.141 Y-25.645 E17.14346
G1 X-40.976 Y-26.261 E17.18633
G1 X-40.704 Y-26.848 E17.22983
G1 X-40.33 Y-27.378 E17.27343
G1 X-39.878 Y-27.83 E17.31641
G1 X-39.347 Y-28.205 E17.36011
G1 X-38.764 Y-28.475 E17.4033
G1 X-38.145 Y-28.641 E17.44639
G1 X-37.5 Y-28.698 E17.48992
G1 X-36.855 Y-28.641 E17.53345
G1 X-36.236 Y-28.475 E17.57653
G1 X-35.653 Y-28.205 E17.61972
G1 X-35.125 Y-27.83 E17.66326
G1 X-34.669 Y-27.374 E17.70661
G1 X-34.295 Y-26.847 E17.75006
G1 F1800 E16.95006
G0 F6000 X-34.112 Y-26.932
G0 X-35.031 Y-27.942
G0 X-35.579 Y-28.327
G0 X-36.187 Y-28.61
G0 X-36.833 Y-28.783
G0 X-37.5 Y-28.842
G0 X-38.167 Y-28.783
G0 X-38.813 Y-28.61
G0 X-39.421 Y-28.327
G0 X-39.969 Y-27.942
G0 X-40.442 Y-27.469
G0 X-41.326 Y-25.739
G1 F1800 E17.75006
G0 F6000 X-40.811 Y-25.601
;TYPE:WALL-OUTER
G1 F4200 X-40.667 Y-26.136 E17.79129
G1 X-40.423 Y-26.669 E17.83493
G1 X-40.086 Y-27.151 E17.8787
G1 X-39.651 Y-27.586 E17.92449
G1 X-39.169 Y-27.923 E17.96826
G1 X-38.637 Y-28.167 E18.01182
G1 X-38.087 Y-28.314 E18.0542
G1 X-37.485 Y-28.365 E18.09917
G1 X-36.899 Y-28.311 E18.14297
G1 X-36.363 Y-28.167 E18.18428
G1 X-35.831 Y-27.923 E18.22784
G1 X-35.338 Y-27.578 E18.27262
G1 X-34.922 Y-27.162 E18.31641
G1 X-34.583 Y-26.682 E18.36015
G1 X-34.344 Y-26.166 E18.40248
G1 X-34.185 Y-25.582 E18.44753
G1 X-34.135 Y-24.987 E18.49197
G1 X-34.186 Y-24.412 E18.53493
G1 X-34.337 Y-23.852 E18.5781
G1 X-34.582 Y-23.32 E18.6217
G1 X-34.917 Y-22.844 E18.66502
G1 X-35.343 Y-22.418 E18.70986
G1 X-35.83 Y-22.077 E18.75411
G1 X-36.355 Y-21.835 E18.79714
G1 X-36.917 Y-21.685 E18.84043
G1 X-37.515 Y-21.635 E18.8851
G1 X-38.087 Y-21.686 E18.92784
G1 X-38.65 Y-21.837 E18.97122
G1 X-39.183 Y-22.083 E19.01492
G1 X-39.651 Y-22.414 E19.05758
G1 X-40.086 Y-22.849 E19.10337
G1 X-40.423 Y-23.331 E19.14714
G1 X-40.667 Y-23.864 E19.19077
G1 X-40.814 Y-24.413 E19.23307
G1 X-40.865 Y-25.013 E19.27789
G1 X-40.811 Y-25.601 E19.32184
G0 F6000 X-40.773 Y-25.745
G1 F1800 E18.52184
G0 F6000 X-41.287 Y-25.883
G0 X-49.175 Y-39.175
;TYPE:WALL-INNER
G1 F1800 E19.32184
G1 F4200 X-49.175 Y39.175 E24.58908
G1 X32.011 Y39.174 E30.04698
G1 X49.175 Y39.175 E31.20086
G1 X49.175 Y-39.175 E36.4681
G1 X-49.175 Y-39.175 E43.07988
