;FLAVOR:Marlin
;TIME:2616
;Filament used: 3.96686m
;Layer height: 0.2
;MINX:-64.3
;MINY:-49.802
;MINZ:0.2
;MAXX:64.3
;MAXY:49.802
;MAXZ:10
;Generated with Cura_SteamEngine 5.2.2
M82 ;absolute extrusion mode
G21 ; millimeter units
G90 ; absolute coordinates
M82 ; E absolute
M140 S35
M104 S220
M190 S35
M109 S220
G28 ; home axis
M420 S1 ; enable mesh leveling
; Lower nozzle and move to start position
G1 Z150
G1 X-130 Y0 Z0.4 F3000
; Extrude about 40 mm by printing a 90 degree arc
G3 X0 Y-130 I130 Z0.3 E40 F2700
; Retract and move nozzle up
G92 E0
G1 E-1.5 F1800
G0 Z0.5
G1 E0 F300

G92 E0
G92 E0
G1 F3600 E-0.3
;LAYER_COUNT:50
;LAYER:0
M107
;MESH:porta_barretia_tondo_pb_version.stl
G0 X-60.787 Y45.594 Z0.2
;TYPE:WALL-INNER
G1 F3600 E0
G1 F2400 X-60.787 Y49.406 E0.12426
G1 X-50.094 Y49.406 E0.47284
G1 X-50.09 Y-44.076 E3.52019
G1 X-50.012 Y-44.674 E3.53985
G1 X-49.752 Y-45.303 E3.56203
G1 X-49.339 Y-45.839 E3.58409
G1 X-48.803 Y-46.252 E3.60615
G1 X-48.178 Y-46.511 E3.6282
G1 X-47.504 Y-46.594 E3.65034
G1 X47.576 Y-46.59 E6.74978
G1 X48.178 Y-46.512 E6.76957
G1 X48.803 Y-46.251 E6.79165
G1 X49.339 Y-45.839 E6.81369
G1 X49.754 Y-45.3 E6.83586
G1 X50.012 Y-44.675 E6.85791
G1 X50.094 Y-44.007 E6.87984
G1 X50.095 Y49.405 E9.92491
G1 X60.787 Y49.406 E10.27345
G1 X60.787 Y47.5 E10.33559
G1 X60.787 Y45.594 E10.39772
G1 X56.424 Y45.59 E10.53994
G1 X55.826 Y45.512 E10.5596
G1 X55.195 Y45.251 E10.58186
G1 X54.664 Y44.836 E10.60383
G1 X54.249 Y44.305 E10.6258
G1 X53.989 Y43.677 E10.64796
G1 X53.91 Y43.085 E10.66743
G1 X53.906 Y-49.406 E13.68247
G1 X-53.906 Y-49.406 E17.19696
G1 X-53.911 Y43.076 E20.21171
G1 X-53.989 Y43.675 E20.2314
G1 X-54.246 Y44.299 E20.2534
G1 X-54.661 Y44.839 E20.2756
G1 X-55.197 Y45.252 E20.29766
G1 X-55.824 Y45.511 E20.31977
G1 X-56.418 Y45.59 E20.33931
G1 X-60.787 Y45.594 E20.48173
G1 F3600 E20.18173
G0 X-61.183 Y45.198
;TYPE:WALL-OUTER
G1 F3600 E20.48173
G1 F2400 X-61.183 Y49.802 E20.63181
G1 X-49.698 Y49.802 E21.0062
G1 X-49.697 Y-44.025 E24.0648
G1 X-49.626 Y-44.571 E24.08275
G1 X-49.406 Y-45.102 E24.10148
G1 X-49.056 Y-45.556 E24.12017
G1 X-48.602 Y-45.906 E24.13886
G1 X-48.056 Y-46.128 E24.15807
G1 X-47.53 Y-46.197 E24.17536
G1 X47.525 Y-46.197 E27.27399
G1 X48.074 Y-46.125 E27.29204
G1 X48.602 Y-45.906 E27.31067
G1 X49.056 Y-45.556 E27.32936
G1 X49.408 Y-45.099 E27.34817
G1 X49.626 Y-44.571 E27.36679
G1 X49.697 Y-44.033 E27.38448
G1 X49.699 Y49.801 E30.4433
G1 X61.183 Y49.802 E30.81766
G1 X61.183 Y47.5 E30.8927
G1 X61.183 Y45.198 E30.96774
G1 X56.475 Y45.197 E31.12121
G1 X55.929 Y45.126 E31.13916
G1 X55.398 Y44.906 E31.1579
G1 X54.944 Y44.556 E31.17659
G1 X54.594 Y44.102 E31.19527
G1 X54.372 Y43.556 E31.21449
G1 X54.303 Y43.033 E31.23168
G1 X54.302 Y-49.802 E34.25794
G1 X-54.302 Y-49.802 E37.79824
G1 X-54.303 Y43.025 E40.82424
G1 X-54.372 Y43.556 E40.8417
G1 X-54.591 Y44.099 E40.86078
G1 X-54.944 Y44.556 E40.87961
G1 X-55.398 Y44.906 E40.8983
G1 X-55.944 Y45.128 E40.91751
G1 X-56.47 Y45.197 E40.9348
G1 X-61.183 Y45.198 E41.08844
G0 F3600 X-61.183 Y45.348
G1 F3600 E40.78844
G0 X-60.491 Y45.89
;TYPE:SKIN
G1 F3600 E41.08844
G1 F2400 X-60.491 Y49.11 E41.1934
G1 X-50.39 Y49.11 E41.52268
G1 X-50.389 Y-44.074 E44.56032
G1 X-50.318 Y-44.625 E44.57843
G1 X-50.022 Y-45.438 E44.60663
G1 X-49.561 Y-46.041 E44.63137
G1 X-48.941 Y-46.521 E44.65693
G1 X-48.173 Y-46.811 E44.68369
G1 X-47.628 Y-46.883 E44.70161
G1 X47.575 Y-46.889 E47.80507
G1 X48.127 Y-46.817 E47.82321
G1 X48.937 Y-46.523 E47.8513
G1 X49.541 Y-46.061 E47.87609
G1 X50.022 Y-45.439 E47.90172
G1 X50.318 Y-44.626 E47.92993
G1 X50.383 Y-44.132 E47.94617
G1 X50.392 Y49.108 E50.98563
G1 X60.491 Y49.11 E51.31484
G1 X60.491 Y47.5 E51.36733
G1 X60.491 Y45.89 E51.41981
G1 X56.425 Y45.889 E51.55235
G1 X55.873 Y45.817 E51.5705
G1 X55.059 Y45.521 E51.59873
G1 X54.455 Y45.048 E51.62374
G1 X53.982 Y44.446 E51.6487
G1 X53.689 Y43.673 E51.67565
G1 X53.617 Y43.127 E51.6936
G1 X53.61 Y-49.11 E54.70037
G1 X-53.609 Y-49.109 E58.19552
G1 X-53.611 Y43.077 E61.20062
G1 X-53.697 Y43.736 E61.22229
G1 X-53.983 Y44.446 E61.24724
G1 X-54.381 Y44.963 E61.26851
G1 X-54.939 Y45.428 E61.29218
G1 X-55.146 Y45.551 E61.30003
G1 X-55.827 Y45.811 E61.3238
G1 X-56.418 Y45.889 E61.34323
G1 X-60.491 Y45.89 E61.476
G1 F3600 E61.176
G0 X53.013 Y-48.911
G1 F3600 E61.476
G1 F2400 X53.411 Y-48.513 E61.49435
G1 F3600 E61.19435
G0 X53.411 Y-47.953
G1 F3600 E61.49435
G1 F2400 X52.453 Y-48.911 E61.53851
G1 F3600 E61.23851
G0 X51.893 Y-48.911
G1 F3600 E61.53851
G1 F2400 X53.411 Y-47.393 E61.6085
G1 F3600 E61.3085
G0 X53.411 Y-46.833
G1 F3600 E61.6085
G1 F2400 X51.333 Y-48.911 E61.70429
G1 F3600 E61.40429
G0 X50.773 Y-48.911
G1 F3600 E61.70429
G1 F2400 X53.411 Y-46.273 E61.82591
G1 F3600 E61.52591
G0 X53.411 Y-45.713
G1 F3600 E61.82591
G1 F2400 X50.213 Y-48.911 E61.97334
G1 F3600 E61.67334
G0 X49.653 Y-48.911
G1 F3600 E61.97334
G1 F2400 X53.411 Y-45.153 E62.14659
G1 F3600 E61.84659
G0 X53.411 Y-44.593
G1 F3600 E62.14659
G1 F2400 X49.093 Y-48.911 E62.34565
G1 F3600 E62.04565
G0 X48.533 Y-48.911
G1 F3600 E62.34565
G1 F2400 X53.411 Y-44.033 E62.57053
G1 F3600 E62.27053
G0 X53.411 Y-43.473
G1 F3600 E62.57053
G1 F2400 X47.973 Y-48.911 E62.82123
G1 F3600 E62.52123
G0 X47.413 Y-48.911
G1 F3600 E62.82123
G1 F2400 X53.411 Y-42.913 E63.09774
G1 X53.481 Y-42.843
G1 F3600 E62.79774
G0 X49.176 Y-46.588
G1 F3600 E63.09774
G1 F2400 X46.853 Y-48.911 E63.20483
G1 F3600 E62.90483
G0 X46.293 Y-48.911
G1 F3600 E63.20483
G1 F2400 X48.197 Y-47.007 E63.29261
G1 F3600 E62.99261
G0 X47.559 Y-47.085
G1 F3600 E63.29261
G1 F2400 X45.733 Y-48.911 E63.37679
G1 F3600 E63.07679
G0 X45.173 Y-48.911
G1 F3600 E63.37679
G1 F2400 X46.999 Y-47.085 E63.46097
G1 F3600 E63.16097
G0 X46.439 Y-47.085
G1 F3600 E63.46097
G1 F2400 X44.613 Y-48.911 E63.54515
G1 F3600 E63.24515
G0 X44.053 Y-48.911
G1 F3600 E63.54515
G1 F2400 X45.879 Y-47.085 E63.62933
G1 F3600 E63.32933
G0 X45.319 Y-47.085
G1 F3600 E63.62933
G1 F2400 X43.493 Y-48.911 E63.71351
G1 F3600 E63.41351
G0 X42.933 Y-48.911
G1 F3600 E63.71351
G1 F2400 X44.759 Y-47.085 E63.79769
G1 F3600 E63.49769
G0 X44.199 Y-47.085
G1 F3600 E63.79769
G1 F2400 X42.373 Y-48.911 E63.88187
G1 F3600 E63.58187
G0 X41.813 Y-48.911
G1 F3600 E63.88187
G1 F2400 X43.639 Y-47.085 E63.96605
G1 F3600 E63.66605
G0 X43.079 Y-47.085
G1 F3600 E63.96605
G1 F2400 X41.253 Y-48.911 E64.05023
G1 F3600 E63.75023
G0 X40.693 Y-48.911
G1 F3600 E64.05023
G1 F2400 X42.519 Y-47.085 E64.13441
G1 F3600 E63.83441
G0 X41.959 Y-47.085
G1 F3600 E64.13441
G1 F2400 X40.133 Y-48.911 E64.21859
G1 F3600 E63.91859
G0 X39.573 Y-48.911
G1 F3600 E64.21859
G1 F2400 X41.398 Y-47.085 E64.30275
G1 F3600 E64.00275
G0 X40.838 Y-47.085
G1 F3600 E64.30275
G1 F2400 X39.013 Y-48.911 E64.3869
G1 F3600 E64.0869
G0 X38.453 Y-48.911
G1 F3600 E64.3869
G1 F2400 X40.278 Y-47.085 E64.47106
G1 F3600 E64.17106
G0 X39.718 Y-47.085
G1 F3600 E64.47106
G1 F2400 X37.893 Y-48.911 E64.55522
G1 F3600 E64.25522
G0 X37.333 Y-48.911
G1 F3600 E64.55522
G1 F2400 X39.158 Y-47.085 E64.63938
G1 F3600 E64.33938
G0 X38.598 Y-47.085
G1 F3600 E64.63938
G1 F2400 X36.773 Y-48.911 E64.72353
G1 F3600 E64.42353
G0 X36.213 Y-48.911
G1 F3600 E64.72353
G1 F2400 X38.038 Y-47.085 E64.80769
G1 F3600 E64.50769
G0 X37.478 Y-47.085
G1 F3600 E64.80769
G1 F2400 X35.653 Y-48.911 E64.89185
G1 F3600 E64.59185
G0 X35.093 Y-48.911
G1 F3600 E64.89185
G1 F2400 X36.919 Y-47.084 E64.97605
G1 F3600 E64.67605
G0 X36.359 Y-47.084
G1 F3600 E64.97605
G1 F2400 X34.532 Y-48.911 E65.06028
G1 F3600 E64.76028
G0 X33.972 Y-48.911
G1 F3600 E65.06028
G1 F2400 X35.799 Y-47.084 E65.1445
G1 F3600 E64.8445
G0 X35.239 Y-47.084
G1 F3600 E65.1445
G1 F2400 X33.412 Y-48.911 E65.22873
G1 F3600 E64.92873
G0 X32.852 Y-48.911
G1 F3600 E65.22873
G1 F2400 X34.679 Y-47.084 E65.31296
G1 F3600 E65.01296
G0 X34.119 Y-47.084
G1 F3600 E65.31296
G1 F2400 X32.292 Y-48.911 E65.39718
G1 F3600 E65.09718
G0 X31.732 Y-48.911
G1 F3600 E65.39718
G1 F2400 X33.559 Y-47.084 E65.48141
G1 F3600 E65.18141
G0 X32.999 Y-47.084
G1 F3600 E65.48141
G1 F2400 X31.172 Y-48.911 E65.56564
G1 F3600 E65.26564
G0 X30.612 Y-48.911
G1 F3600 E65.56564
G1 F2400 X32.439 Y-47.084 E65.64986
G1 F3600 E65.34986
G0 X31.879 Y-47.084
G1 F3600 E65.64986
G1 F2400 X30.052 Y-48.911 E65.73409
G1 F3600 E65.43409
G0 X29.492 Y-48.911
G1 F3600 E65.73409
G1 F2400 X31.319 Y-47.084 E65.81831
G1 F3600 E65.51831
G0 X30.759 Y-47.084
G1 F3600 E65.81831
G1 F2400 X28.932 Y-48.911 E65.90254
G1 F3600 E65.60254
G0 X28.372 Y-48.911
G1 F3600 E65.90254
G1 F2400 X30.199 Y-47.084 E65.98677
G1 F3600 E65.68677
G0 X29.639 Y-47.084
G1 F3600 E65.98677
G1 F2400 X27.812 Y-48.911 E66.07099
G1 F3600 E65.77099
G0 X27.252 Y-48.911
G1 F3600 E66.07099
G1 F2400 X29.079 Y-47.084 E66.15522
G1 F3600 E65.85522
G0 X28.519 Y-47.084
G1 F3600 E66.15522
G1 F2400 X26.692 Y-48.911 E66.23945
G1 F3600 E65.93945
G0 X26.132 Y-48.911
G1 F3600 E66.23945
G1 F2400 X27.959 Y-47.084 E66.32367
G1 F3600 E66.02367
G0 X27.398 Y-47.084
G1 F3600 E66.32367
G1 F2400 X25.572 Y-48.911 E66.40788
G1 F3600 E66.10788
G0 X25.012 Y-48.911
G1 F3600 E66.40788
G1 F2400 X26.838 Y-47.084 E66.49208
G1 F3600 E66.19208
G0 X26.279 Y-47.084
G1 F3600 E66.49208
G1 F2400 X24.452 Y-48.911 E66.57631
G1 F3600 E66.27631
G0 X23.892 Y-48.911
G1 F3600 E66.57631
G1 F2400 X25.719 Y-47.084 E66.66053
G1 F3600 E66.36053
G0 X25.159 Y-47.084
G1 F3600 E66.66053
G1 F2400 X23.332 Y-48.911 E66.74476
G1 F3600 E66.44476
G0 X22.772 Y-48.911
G1 F3600 E66.74476
G1 F2400 X24.599 Y-47.084 E66.82898
G1 F3600 E66.52898
G0 X24.039 Y-47.084
G1 F3600 E66.82898
G1 F2400 X22.212 Y-48.911 E66.91321
G1 F3600 E66.61321
G0 X21.652 Y-48.911
G1 F3600 E66.91321
G1 F2400 X23.479 Y-47.084 E66.99744
G1 F3600 E66.69744
G0 X22.919 Y-47.084
G1 F3600 E66.99744
G1 F2400 X21.092 Y-48.911 E67.08166
G1 F3600 E66.78166
G0 X20.532 Y-48.911
G1 F3600 E67.08166
G1 F2400 X22.359 Y-47.084 E67.16589
G1 F3600 E66.86589
G0 X21.799 Y-47.084
G1 F3600 E67.16589
G1 F2400 X19.972 Y-48.911 E67.25012
G1 F3600 E66.95012
G0 X19.412 Y-48.911
G1 F3600 E67.25012
G1 F2400 X21.239 Y-47.084 E67.33434
G1 F3600 E67.03434
G0 X20.679 Y-47.084
G1 F3600 E67.33434
G1 F2400 X18.852 Y-48.911 E67.41857
G1 F3600 E67.11857
G0 X18.292 Y-48.911
G1 F3600 E67.41857
G1 F2400 X20.119 Y-47.084 E67.5028
G1 F3600 E67.2028
G0 X19.559 Y-47.084
G1 F3600 E67.5028
G1 F2400 X17.732 Y-48.911 E67.58702
G1 F3600 E67.28702
G0 X17.172 Y-48.911
G1 F3600 E67.58702
G1 F2400 X18.999 Y-47.084 E67.67125
G1 F3600 E67.37125
G0 X18.439 Y-47.084
G1 F3600 E67.67125
G1 F2400 X16.612 Y-48.911 E67.75547
G1 F3600 E67.45547
G0 X16.052 Y-48.911
G1 F3600 E67.75547
G1 F2400 X17.879 Y-47.084 E67.8397
G1 F3600 E67.5397
G0 X17.319 Y-47.084
G1 F3600 E67.8397
G1 F2400 X15.492 Y-48.911 E67.92393
G1 F3600 E67.62393
G0 X14.931 Y-48.911
G1 F3600 E67.92393
G1 F2400 X16.759 Y-47.084 E68.00818
G1 F3600 E67.70818
G0 X16.199 Y-47.084
G1 F3600 E68.00818
G1 F2400 X14.371 Y-48.911 E68.09243
G1 F3600 E67.79243
G0 X13.811 Y-48.911
G1 F3600 E68.09243
G1 F2400 X15.639 Y-47.083 E68.1767
G1 F3600 E67.8767
G0 X15.079 Y-47.083
G1 F3600 E68.1767
G1 F2400 X13.251 Y-48.911 E68.26097
G1 F3600 E67.96097
G0 X12.691 Y-48.911
G1 F3600 E68.26097
G1 F2400 X14.519 Y-47.083 E68.34524
G1 F3600 E68.04524
G0 X13.959 Y-47.083
G1 F3600 E68.34524
G1 F2400 X12.131 Y-48.911 E68.42952
G1 F3600 E68.12952
G0 X11.571 Y-48.911
G1 F3600 E68.42952
G1 F2400 X13.399 Y-47.083 E68.51379
G1 F3600 E68.21379
G0 X12.839 Y-47.083
G1 F3600 E68.51379
G1 F2400 X11.011 Y-48.911 E68.59806
G1 F3600 E68.29806
G0 X10.451 Y-48.911
G1 F3600 E68.59806
G1 F2400 X12.279 Y-47.083 E68.68233
G1 F3600 E68.38233
G0 X11.719 Y-47.083
G1 F3600 E68.68233
G1 F2400 X9.891 Y-48.911 E68.76661
G1 F3600 E68.46661
G0 X9.331 Y-48.911
G1 F3600 E68.76661
G1 F2400 X11.159 Y-47.083 E68.85088
G1 F3600 E68.55088
G0 X10.599 Y-47.083
G1 F3600 E68.85088
G1 F2400 X8.771 Y-48.911 E68.93515
G1 F3600 E68.63515
G0 X8.211 Y-48.911
G1 F3600 E68.93515
G1 F2400 X10.039 Y-47.083 E69.01942
G1 F3600 E68.71942
G0 X9.479 Y-47.083
G1 F3600 E69.01942
G1 F2400 X7.651 Y-48.911 E69.1037
G1 F3600 E68.8037
G0 X7.091 Y-48.911
G1 F3600 E69.1037
G1 F2400 X8.919 Y-47.083 E69.18797
G1 F3600 E68.88797
G0 X8.359 Y-47.083
G1 F3600 E69.18797
G1 F2400 X6.531 Y-48.911 E69.27224
G1 F3600 E68.97224
G0 X5.971 Y-48.911
G1 F3600 E69.27224
G1 F2400 X7.799 Y-47.083 E69.35651
G1 F3600 E69.05651
G0 X7.239 Y-47.083
G1 F3600 E69.35651
G1 F2400 X5.411 Y-48.911 E69.44078
G1 F3600 E69.14078
G0 X4.851 Y-48.911
G1 F3600 E69.44078
G1 F2400 X6.679 Y-47.083 E69.52506
G1 F3600 E69.22506
G0 X6.119 Y-47.083
G1 F3600 E69.52506
G1 F2400 X4.291 Y-48.911 E69.60933
G1 F3600 E69.30933
G0 X3.731 Y-48.911
G1 F3600 E69.60933
G1 F2400 X5.559 Y-47.083 E69.6936
G1 F3600 E69.3936
G0 X4.999 Y-47.082
G1 F3600 E69.6936
G1 F2400 X3.171 Y-48.911 E69.7779
G1 F3600 E69.4779
G0 X2.611 Y-48.911
G1 F3600 E69.7779
G1 F2400 X4.439 Y-47.082 E69.86219
G1 F3600 E69.56219
G0 X3.879 Y-47.082
G1 F3600 E69.86219
G1 F2400 X2.051 Y-48.911 E69.94649
G1 F3600 E69.64649
G0 X1.491 Y-48.911
G1 F3600 E69.94649
G1 F2400 X3.319 Y-47.082 E70.03078
G1 F3600 E69.73078
G0 X2.759 Y-47.082
G1 F3600 E70.03078
G1 F2400 X0.931 Y-48.911 E70.11508
G1 F3600 E69.81508
G0 X0.371 Y-48.911
G1 F3600 E70.11508
G1 F2400 X2.199 Y-47.082 E70.19938
G1 F3600 E69.89938
G0 X1.639 Y-47.082
G1 F3600 E70.19938
G1 F2400 X-.188 Y-48.911 E70.28365
G1 F3600 E69.98365
G0 X-.748 Y-48.911
G1 F3600 E70.28365
G1 F2400 X1.079 Y-47.082 E70.36792
G1 F3600 E70.06792
G0 X0.519 Y-47.082
G1 F3600 E70.36792
G1 F2400 X-1.308 Y-48.911 E70.45219
G1 F3600 E70.15219
G0 X-1.868 Y-48.911
G1 F3600 E70.45219
G1 F2400 X-0.04 Y-47.082 E70.53649
G1 F3600 E70.23649
G0 X-.6 Y-47.082
G1 F3600 E70.53649
G1 F2400 X-2.428 Y-48.911 E70.62078
G1 F3600 E70.32078
G0 X-2.988 Y-48.911
G1 F3600 E70.62078
G1 F2400 X-1.16 Y-47.082 E70.70508
G1 F3600 E70.40508
G0 X-1.72 Y-47.082
G1 F3600 E70.70508
G1 F2400 X-3.548 Y-48.911 E70.78937
G1 F3600 E70.48937
G0 X-4.108 Y-48.911
G1 F3600 E70.78937
G1 F2400 X-2.28 Y-47.082 E70.87367
G1 F3600 E70.57367
G0 X-2.84 Y-47.082
G1 F3600 E70.87367
G1 F2400 X-4.669 Y-48.911 E70.95799
G1 F3600 E70.65799
G0 X-5.229 Y-48.911
G1 F3600 E70.95799
G1 F2400 X-3.4 Y-47.082 E71.04231
G1 F3600 E70.74231
G0 X-3.96 Y-47.082
G1 F3600 E71.04231
G1 F2400 X-5.789 Y-48.911 E71.12663
G1 F3600 E70.82663
G0 X-6.349 Y-48.911
G1 F3600 E71.12663
G1 F2400 X-4.52 Y-47.082 E71.21094
G1 F3600 E70.91094
G0 X-5.08 Y-47.082
G1 F3600 E71.21094
G1 F2400 X-6.909 Y-48.911 E71.29526
G1 F3600 E70.99526
G0 X-7.469 Y-48.911
G1 F3600 E71.29526
G1 F2400 X-5.639 Y-47.081 E71.37963
G1 F3600 E71.07963
G0 X-6.199 Y-47.081
G1 F3600 E71.37963
G1 F2400 X-8.029 Y-48.911 E71.46399
G1 F3600 E71.16399
G0 X-8.589 Y-48.911
G1 F3600 E71.46399
G1 F2400 X-6.759 Y-47.081 E71.54836
G1 F3600 E71.24836
G0 X-7.319 Y-47.081
G1 F3600 E71.54836
G1 F2400 X-9.149 Y-48.911 E71.63272
G1 F3600 E71.33272
G0 X-9.709 Y-48.911
G1 F3600 E71.63272
G1 F2400 X-7.879 Y-47.081 E71.71709
G1 F3600 E71.41709
G0 X-8.44 Y-47.081
G1 F3600 E71.71709
G1 F2400 X-10.269 Y-48.911 E71.80143
G1 F3600 E71.50143
G0 X-10.829 Y-48.911
G1 F3600 E71.80143
G1 F2400 X-9 Y-47.081 E71.88577
G1 F3600 E71.58577
G0 X-9.56 Y-47.081
G1 F3600 E71.88577
G1 F2400 X-11.389 Y-48.911 E71.97011
G1 F3600 E71.67011
G0 X-11.949 Y-48.911
G1 F3600 E71.97011
G1 F2400 X-10.12 Y-47.081 E72.05445
G1 F3600 E71.75445
G0 X-10.68 Y-47.081
G1 F3600 E72.05445
G1 F2400 X-12.509 Y-48.911 E72.13879
G1 F3600 E71.83879
G0 X-13.069 Y-48.911
G1 F3600 E72.13879
G1 F2400 X-11.24 Y-47.081 E72.22314
