;FLAVOR:Marlin
;TIME:1336
;Filament used: 2.0259m
;Layer height: 0.18
;MINX:-11.437
;MINY:-10.649
;MINZ:0.25
;MAXX:11.757
;MAXY:9.669
;MAXZ:37.09
;Generated with Cura_SteamEngine 5.2.2
M82 ;absolute extrusion mode
G21 ; millimeter units
G90 ; absolute coordinates
M82 ; E absolute
M140 S35
M104 S215
M190 S35
M109 S215
G28 ; home axis
M420 S1 ; enable mesh leveling
; Lower nozzle and move to start position
G1 Z150
G1 X-130 Y0 Z0.4 F3000
; Extrude about 40 mm by printing a 90 degree arc
G3 X0 Y-130 I130 Z0.3 E40 F2700
; Retract and move nozzle up
G92 E0
G1 E-1.5 F1800
G0 Z0.5
G1 E0 F300

G92 E0
G92 E0
G1 F1800 E-0.8
;LAYER_COUNT:206
;LAYER:0
M107
G1 F3000 Z0.55
G0 F6000 X7.778 Y-4.677 Z0.55
;TYPE:SKIRT
G1 F3000 Z0.25
G1 F1800 E0
G1 F4200 X7.592 Y-5.012 E0.02024
G1 X7.271 Y-5.477 E0.05009
G1 X8.052 Y-5.871 E0.09629
G1 X8.285 Y-5.476 E0.12052
G1 X8 Y-5.147 E0.14351
G1 X7.778 Y-4.677 E0.17096
G0 F6000 X8.013 Y-4.351
G1 F4200 X7.631 Y-4.218 E0.19233
G1 X7.32 Y-4.825 E0.22835
G1 X6.784 Y-5.602 E0.27821
G1 X8.181 Y-6.305 E0.36082
G1 X8.714 Y-5.4 E0.4163
G1 X8.45 Y-5.184 E0.43432
G1 X8.241 Y-4.91 E0.45252
G1 X8.013 Y-4.351 E0.48441
G0 F6000 X8.291 Y-4.098
G1 F4200 X7.461 Y-3.81 E0.53082
G1 X7.101 Y-4.563 E0.5749
G1 X6.449 Y-5.508 E0.63555
G1 X6.274 Y-5.714 E0.64982
G1 X8.308 Y-6.738 E0.77011
G1 X9.159 Y-5.294 E0.85864
G1 X8.663 Y-4.928 E0.8912
G1 X8.438 Y-4.559 E0.91403
G1 X8.291 Y-4.098 E0.93959
G0 F6000 X8.642 Y-4.163
G1 F4200 X8.597 Y-3.855 E0.95603
G1 X7.291 Y-3.401 E1.02907
G1 X6.814 Y-4.396 E1.08735
G1 X6.142 Y-5.371 E1.1499
G1 X5.738 Y-5.814 E1.18157
G1 X8.435 Y-7.171 E1.34104
G1 X9.604 Y-5.189 E1.46259
G1 X9.073 Y-4.847 E1.49595
G1 X8.881 Y-4.677 E1.5095
G1 X8.642 Y-4.163 E1.53944
G0 F6000 X8.951 Y-4.047
G1 F4200 X8.919 Y-3.851 E1.54993
G1 X8.968 Y-3.635 E1.56163
G1 X7.287 Y-3.051 E1.65562
G1 X7.092 Y-2.916 E1.66815
G1 X6.928 Y-3.388 E1.69455
G1 X6.528 Y-4.23 E1.74379
G1 X5.864 Y-5.186 E1.80527
G1 X5.201 Y-5.913 E1.85724
G1 X8.563 Y-7.605 E2.05605
G1 X10.05 Y-5.083 E2.21069
G1 X9.251 Y-4.569 E2.26088
G1 X9.11 Y-4.431 E2.2713
G1 X8.951 Y-4.047 E2.29325
G0 F6000 X9.26 Y-3.931
G1 F4200 X9.256 Y-3.827 E2.29875
G1 X9.372 Y-3.426 E2.3208
G1 X7.395 Y-2.739 E2.43135
G1 X7.298 Y-2.649 E2.43834
G1 X7.179 Y-2.375 E2.45412
G1 X7.179 Y-2.242 E2.46114
G1 X7.399 Y-1.742 E2.49
G1 X7.089 Y-1.649 E2.50709
G1 X6.921 Y-2.4 E2.54774
G1 X6.609 Y-3.297 E2.59791
G1 X6.234 Y-4.076 E2.64358
G1 X5.634 Y-4.946 E2.6994
G1 X4.918 Y-5.731 E2.75552
G1 X4.123 Y-6.383 E2.80983
G1 X3.221 Y-6.926 E2.86544
G1 X3.366 Y-7.245 E2.88395
G1 X4.571 Y-6.256 E2.96629
G1 X4.954 Y-6.188 E2.98684
G1 X5.046 Y-6.205 E2.99178
G1 X8.691 Y-8.038 E3.20729
G1 X10.495 Y-4.977 E3.39497
G1 X9.43 Y-4.292 E3.46185
G1 X9.26 Y-3.931 E3.48293
G1 F1800 E2.68293
G1 F3000 Z0.55
G0 F6000 X5.027 Y-2.62 Z0.55
G1 F3000 Z0.25
G1 F1800 E3.48293
G1 F4200 X5.271 Y-1.91 E3.52259
G1 X5.404 Y-1.305 E3.55531
G1 X5.458 Y-.491 E3.5984
G1 X5.448 Y-.335 E3.60665
G1 X4.097 Y-3.438 E3.78542
G1 X2.281 Y-4.863 E3.90735
G1 X2.503 Y-5.352 E3.93572
G1 X3.242 Y-4.881 E3.982
G1 X3.749 Y-4.462 E4.01675
G1 X4.289 Y-3.867 E4.05919
G1 X4.75 Y-3.193 E4.10232
G1 X5.027 Y-2.62 E4.13594
G1 F1800 E3.33594
G0 F6000 X5.412 Y0.061
G1 F1800 E4.13594
G1 F4200 X5.403 Y0.322 E4.14973
G1 X5.269 Y0.933 E4.18277
G1 X5.027 Y1.638 E4.22215
G1 X4.75 Y2.215 E4.25595
G1 X4.288 Y2.888 E4.29907
G1 X3.749 Y3.483 E4.34148
G1 X3.248 Y3.896 E4.37578
G1 X3.029 Y4.037 E4.38953
G1 X2.348 Y3.362 E4.44018
G1 X5.369 Y0.146 E4.67325
G1 X5.412 Y0.061 E4.67828
G0 F6000 X4.826 Y1.207
G1 F4200 X4.721 Y1.514 E4.69542
G1 X4.465 Y2.047 E4.72665
G1 X4.028 Y2.683 E4.76741
G1 X3.522 Y3.242 E4.80724
G1 X3.071 Y3.614 E4.83812
G1 X2.809 Y3.354 E4.85762
G1 X4.826 Y1.207 E5.01322
G1 F1800 E4.21322
G0 F6000 X6.823 Y1.704
G1 F1800 E5.01322
G1 F4200 X6.906 Y1.766 E5.01869
G1 X9.311 Y2.559 E5.15245
G1 X9.03 Y3.481 E5.20337
G1 X9.055 Y3.627 E5.21119
G1 X9.233 Y3.867 E5.22697
G1 X9.366 Y3.934 E5.23484
G1 X10.644 Y3.934 E5.30235
G1 X9.466 Y5.919 E5.42427
G1 X7.932 Y7.183 E5.52926
G1 X5.556 Y5.03 E5.69863
G1 X5.437 Y4.987 E5.70531
G1 X5.138 Y5.002 E5.72112
G1 X5.023 Y5.057 E5.72786
G1 X4.84 Y5.26 E5.74229
G1 X4.575 Y5.027 E5.76093
G1 X4.985 Y4.685 E5.78913
G1 X5.677 Y3.913 E5.8439
G1 X6.264 Y3.038 E5.89955
G1 X6.616 Y2.3 E5.94274
G1 X6.823 Y1.704 E5.97607
G0 F6000 X7.018 Y2.15
G1 F4200 X8.901 Y2.77 E6.08078
G1 X8.714 Y3.385 E6.11474
G1 X8.696 Y3.582 E6.12518
G1 X8.79 Y3.824 E6.1389
G1 X9.116 Y4.196 E6.16502
G1 X9.366 Y4.264 E6.17871
G1 X10.064 Y4.264 E6.21558
G1 X9.211 Y5.701 E6.30385
G1 X7.942 Y6.747 E6.39071
G1 X5.777 Y4.785 E6.54505
G1 X5.607 Y4.684 E6.55549
G1 X5.449 Y4.662 E6.56392
G1 X5.951 Y4.097 E6.60384
G1 X6.562 Y3.181 E6.662
G1 X6.907 Y2.46 E6.70422
G1 X7.018 Y2.15 E6.72161
G0 F6000 X7.22 Y2.564
G1 F4200 X8.492 Y2.984 E6.79237
G1 X8.363 Y3.542 E6.82262
G1 X8.407 Y3.795 E6.83618
G1 X8.703 Y4.26 E6.8653
G1 X8.886 Y4.44 E6.87886
G1 X9.115 Y4.555 E6.89239
G1 X9.485 Y4.594 E6.91205
G1 X8.957 Y5.482 E6.96662
G1 X7.952 Y6.311 E7.03543
G1 X6.001 Y4.542 E7.17454
G1 X6.224 Y4.282 E7.19263
G1 X6.833 Y3.377 E7.25025
G1 X7.22 Y2.564 E7.29781
G0 F6000 X7.395 Y2.969
G1 F4200 X8.083 Y3.196 E7.33608
G1 X8.034 Y3.492 E7.35193
G1 X8.064 Y3.794 E7.36796
G1 X8.171 Y4.077 E7.38394
G1 X8.438 Y4.457 E7.40847
G1 X8.649 Y4.675 E7.4245
G1 X8.954 Y4.842 E7.44287
G1 X8.703 Y5.265 E7.46885
G1 X7.963 Y5.875 E7.5195
G1 X6.461 Y4.513 E7.6266
G1 X7.121 Y3.542 E7.68862
G1 X7.395 Y2.969 E7.72217
G0 F6000 X7.567 Y3.373
G1 F4200 X7.709 Y3.42 E7.73007
G1 X7.724 Y3.779 E7.74905
G1 X7.821 Y4.109 E7.76721
G1 X7.995 Y4.414 E7.78576
G1 X8.409 Y4.904 E7.81965
G1 X8.499 Y4.963 E7.82533
G1 X8.449 Y5.047 E7.83049
G1 X7.973 Y5.439 E7.86307
G1 X6.897 Y4.464 E7.93976
G1 X7.347 Y3.796 E7.98231
G1 X7.567 Y3.373 E8.00749
G0 F6000 X7.496 Y4.167
G1 F4200 X7.73 Y4.61 E8.03396
G1 X8.02 Y4.972 E8.05846
G1 X7.983 Y5.003 E8.06101
G1 X7.331 Y4.412 E8.10749
G1 X7.496 Y4.167 E8.12309
G1 F1800 E7.32309
G1 F3000 Z0.55
G0 F6000 X-4.262 Y2.898 Z0.55
G1 F3000 Z0.25
G1 F1800 E8.12309
G1 F4200 X-4.511 Y2.583 E8.1443
G1 X-4.847 Y2.034 E8.1783
G1 X-5.158 Y1.299 E8.22046
G1 X-5.37 Y0.524 E8.2629
G1 X-5.447 Y-.131 E8.29773
G1 X-5.446 Y-.851 E8.33576
G1 X-5.371 Y-1.497 E8.37011
G1 X-5.159 Y-2.274 E8.41266
G1 X-4.843 Y-3.017 E8.45531
G1 X-4.51 Y-3.564 E8.48913
G1 X-4.029 Y-4.173 E8.53012
G1 X-3.616 Y-4.589 E8.56109
G1 X-2.986 Y-5.06 E8.60264
G1 X-2.398 Y-5.387 E8.63817
G1 X-2.06 Y-4.969 E8.66657
G1 X-3.977 Y-3.417 E8.79685
G1 X-5.175 Y-1.61 E8.91137
G1 X-5.257 Y-1.224 E8.93222
G1 X-4.865 Y0.36 E9.01841
G1 X-4.262 Y2.898 E9.1562
G1 F1800 E8.3562
G0 F6000 X-5.443 Y4.179
G1 F1800 E9.1562
G1 F4200 X-7.328 Y5.358 E9.27364
G1 X-8.236 Y6.252 E9.34095
G1 X-9.126 Y5.064 E9.41936
G1 X-10.586 Y2.116 E9.59312
G1 X-10.421 Y-.445 E9.72868
G1 X-10.588 Y-.746 E9.74686
G1 X-10.488 Y-1.937 E9.80999
G1 X-10.216 Y-3.275 E9.88211
G1 X-9.927 Y-4.066 E9.9266
G1 X-9.698 Y-4.041 E9.93876
G1 X-6.236 Y-4.041 E10.12163
G1 X-6.378 Y-3.811 E10.13591
G1 X-6.785 Y-2.834 E10.19181
G1 X-7.069 Y-1.795 E10.24871
G1 X-7.163 Y-.975 E10.29231
G1 X-7.163 Y-0.005 E10.34354
G1 X-7.067 Y0.837 E10.38831
G1 X-6.779 Y1.888 E10.44587
G1 X-6.368 Y2.845 E10.50088
G1 X-5.912 Y3.584 E10.54675
G1 X-5.443 Y4.179 E10.58677
G0 F6000 X-5.93 Y4.094
G1 F4200 X-7.547 Y5.106 E10.68753
G1 X-8.202 Y5.754 E10.7362
G1 X-8.842 Y4.892 E10.79291
G1 X-10.251 Y2.047 E10.9606
G1 X-10.092 Y-.424 E11.09139
G1 X-10.119 Y-.62 E11.10185
G1 X-10.249 Y-.838 E11.11525
G1 X-10.16 Y-1.898 E11.17144
G1 X-9.898 Y-3.183 E11.24071
G1 X-9.705 Y-3.712 E11.27046
G1 X-6.779 Y-3.711 E11.42501
G1 X-7.083 Y-2.98 E11.46683
G1 X-7.393 Y-1.868 E11.52781
G1 X-7.491 Y-1.012 E11.57332
G1 X-7.491 Y0.032 E11.62846
G1 X-7.391 Y0.91 E11.67514
G1 X-7.082 Y2.018 E11.7359
G1 X-6.657 Y3.009 E11.79285
G1 X-6.171 Y3.788 E11.84135
G1 X-5.93 Y4.094 E11.86193
G0 F6000 X-6.423 Y4.014
M104 S220
G1 F4200 X-7.678 Y4.799 E11.94012
G1 X-8.163 Y5.252 E11.97517
G1 X-8.563 Y4.714 E12.01058
G1 X-9.917 Y1.981 E12.17169
G1 X-9.763 Y-.403 E12.29788
G1 X-9.786 Y-.658 E12.3114
G1 X-9.91 Y-.929 E12.32714
G1 X-9.832 Y-1.856 E12.37628
G1 X-9.581 Y-3.088 E12.4427
G1 X-9.474 Y-3.381 E12.45917
G1 X-7.274 Y-3.381 E12.57538
G1 X-7.421 Y-3.009 E12.59651
G1 X-7.718 Y-1.929 E12.65567
G1 X-7.819 Y-1.05 E12.70241
G1 X-7.819 Y0.069 E12.76151
G1 X-7.716 Y0.975 E12.80968
G1 X-7.408 Y2.095 E12.87103
G1 X-6.949 Y3.163 E12.93244
G1 X-6.423 Y4.014 E12.98528
G0 F6000 X-6.876 Y3.908
G1 F4200 X-7.853 Y4.519 E13.04615
G1 X-8.126 Y4.749 E13.065
G1 X-8.28 Y4.542 E13.07863
G1 X-9.581 Y1.914 E13.23353
G1 X-9.433 Y-.382 E13.35505
G1 X-9.454 Y-.684 E13.37104
G1 X-9.572 Y-1.005 E13.38911
G1 X-9.505 Y-1.805 E13.43151
G1 X-9.251 Y-3.051 E13.49868
G1 X-7.752 Y-3.051 E13.57786
G1 X-8.041 Y-2.001 E13.63539
G1 X-8.154 Y-1.018 E13.68765
G1 X-8.154 Y0.046 E13.74385
G1 X-8.041 Y1.036 E13.79649
G1 X-7.721 Y2.203 E13.8604
G1 X-7.244 Y3.312 E13.92417
G1 X-6.876 Y3.908 E13.96117
G0 F6000 X-7.33 Y3.802
G1 F4200 X-8.052 Y4.258 E14.00628
G1 X-9.246 Y1.847 E14.14839
G1 X-9.104 Y-.36 E14.26521
G1 X-9.122 Y-.704 E14.2834
G1 X-9.236 Y-1.066 E14.30345
G1 X-9.177 Y-1.763 E14.3404
G1 X-8.982 Y-2.721 E14.39204
G1 X-8.185 Y-2.721 E14.43414
G1 X-8.366 Y-2.063 E14.47019
G1 X-8.484 Y-1.038 E14.52468
G1 X-8.484 Y0.056 E14.58247
G1 X-8.365 Y1.103 E14.63813
G1 X-8.033 Y2.312 E14.70436
G1 X-7.58 Y3.366 E14.76495
G1 X-7.33 Y3.802 E14.7915
G0 F6000 X-7.795 Y3.704
G1 F4200 X-7.92 Y3.782 E14.79928
G1 X-8.912 Y1.78 E14.9173
G1 X-8.805 Y0.128 E15.00475
G1 X-8.691 Y1.162 E15.05969
G1 X-8.343 Y2.426 E15.12894
G1 X-7.795 Y3.704 E15.20239
G1 F1800 E14.40239
G0 F6000 X-8.834 Y-.883
G1 F1800 E15.20239
G1 F4200 X-8.9 Y-1.117 E15.21524
G1 X-8.85 Y-1.711 E15.24672
G1 X-8.712 Y-2.391 E15.28337
G1 X-8.618 Y-2.391 E15.28834
G1 X-8.708 Y-1.983 E15.31041
G1 X-8.834 Y-.883 E15.36889
G1 F1800 E14.56889
G1 F3000 Z0.55
G0 F6000 X-3.54 Y-4.196 Z0.55
G1 F3000 Z0.25
G1 F1800 E15.36889
G1 F4200 X-3.395 Y-4.343 E15.3798
G1 X-2.923 Y-4.696 E15.41093
G1 X-3.54 Y-4.196 E15.45288
G1 F1800 E14.65288
G1 F3000 Z0.55
G0 F6000 X-6.849 Y-.948 Z0.55
;TYPE:SUPPORT-INTERFACE
G1 F3000 Z0.25
G1 F1800 E15.45288
G1 F4200 X-6.758 Y-1.744 E15.4952
G1 X-6.484 Y-2.739 E15.54971
G1 X-6.103 Y-3.656 E15.60216
G1 X-5.856 Y-4.056 E15.627
G1 X-5.833 Y-4.056 E15.62821
G1 X-6.08 Y-3.653 E15.65318
G1 X-6.472 Y-2.723 E15.70649
G1 X-6.736 Y-1.76 E15.75923
G1 X-6.831 Y-.942 E15.80273
G1 X-6.831 Y-0.038 E15.85048
G1 X-6.735 Y0.783 E15.89414
G1 X-6.463 Y1.769 E15.94817
G1 X-6.079 Y2.674 E16.0001
G1 X-5.642 Y3.388 E16.04431
G1 X-5.149 Y4.013 E16.08636
G1 X-5.165 Y4.023 E16.08736
G1 X-5.658 Y3.397 E16.12945
G1 X-6.083 Y2.708 E16.17221
G1 X-6.484 Y1.776 E16.2258
G1 X-6.756 Y0.787 E16.27998
G1 X-6.849 Y-0.032 E16.32352
G1 X-6.849 Y-.948 E16.3719
G1 F1800 E15.5719
G0 F6000 X-7.658 Y-1.04
G0 X-7.559 Y-1.902
G0 X-7.255 Y-3.006
G0 X-6.831 Y-4.028
G0 X-6.307 Y-4.865
G0 X-2.844 Y-6.74
G0 X-2.043 Y-7.04
G0 X-1.15 Y-7.254
G0 X-.38 Y-7.35
G0 X0.627 Y-7.326
G0 X1.443 Y-7.19
G0 X2.321 Y-6.928
G0 X3.059 Y-6.608
G1 F1800 E16.3719
G1 F4200 X3.067 Y-6.625 E16.3729
G1 X3.3 Y-6.51 E16.38662
G1 X3.933 Y-6.131 E16.42559
G1 X4.709 Y-5.495 E16.47859
G1 X5.383 Y-4.755 E16.53146
G1 X5.967 Y-3.908 E16.5858
G1 X6.32 Y-3.172 E16.62892
G1 X6.623 Y-2.297 E16.67783
G1 X6.795 Y-1.524 E16.71966
G1 X6.798 Y-1.47 E16.72252
G1 X6.782 Y-1.448 E16.72395
G1 X6.779 Y-1.495 E16.72644
G1 X6.602 Y-2.304 E16.77019
G1 X6.306 Y-3.157 E16.81788
G1 X5.957 Y-3.88 E16.86028
G1 X5.365 Y-4.744 E16.91561
G1 X4.712 Y-5.465 E16.96699
G1 X4.058 Y-6.005 E17.01179
G1 X3.298 Y-6.49 E17.05941
G1 X3.059 Y-6.608 E17.07349
G1 F1800 E16.27349
G0 F6000 X2.321 Y-6.928
G0 X2.681 Y-7.71
G0 X3.69 Y-7.226
G0 X4.402 Y-6.799
G0 X5.271 Y-6.087
G0 X6.019 Y-5.266
G0 X6.674 Y-4.316
G0 X7.075 Y-3.479
G0 X7.405 Y-2.527
G0 X7.603 Y-1.636
G0 X7.406 Y1.545
G0 X7.075 Y2.499
G0 X6.693 Y3.297
G0 X6.065 Y4.23
G0 X5.323 Y5.055
G0 X4.39 Y5.826
G0 X3.64 Y5.813
G0 X4.078 Y5.009
G1 F1800 E17.07349
G1 F4200 X4.716 Y4.481 E17.11723
G1 X5.373 Y3.754 E17.16899
G1 X5.953 Y2.909 E17.22313
G1 X6.306 Y2.177 E17.26605
G1 X6.602 Y1.324 E17.31375
G1 X6.633 Y1.183 E17.32137
G1 X6.633 Y1.265 E17.3257
G1 X6.619 Y1.327 E17.32906
G1 X6.32 Y2.192 E17.3774
G1 X5.984 Y2.893 E17.41847
G1 X5.423 Y3.726 E17.47151
G1 X4.76 Y4.464 E17.52392
G1 X4.102 Y5.009 E17.56905
G1 X4.078 Y5.009 E17.57031
G1 F1800 E16.77031
G1 F3000 Z0.55
G0 F6000 X2.139 Y-4.829 Z0.55
;TIME_ELAPSED:12.102870
;LAYER:1
M106 S51
G0 F6900 X2.139 Y-4.829 Z0.73
;TYPE:SUPPORT
G1 F3000 Z0.43
G1 F1800 E17.57031
G1 F4260 X3.99 Y-3.394 E17.64393
G1 X5.361 Y-.244 E17.75191
G1 F4597.1 X5.321 Y-.227 E17.75317
G1 F4681.3 X5.249 Y0.106 E17.76292
G1 F4332.2 X2.19 Y3.366 E17.90109
G1 F4260 X3.016 Y4.183 E17.9376
G1 X3.302 Y4 E17.94827
G1 X3.831 Y3.565 E17.9698
G1 X4.379 Y2.958 E17.9955
G1 X4.856 Y2.257 E18.02215
G1 X5.137 Y1.667 E18.04269
G1 X5.369 Y1 E18.06489
G1 F4274.2 X5.516 Y0.344 E18.08595
G1 F4613.7 X5.575 Y-.196 E18.10171
G1 F4597.1 X5.572 Y-.482 E18.11004
G1 F4260 X5.516 Y-1.32 E18.13644
G1 X5.37 Y-1.979 E18.15766
G1 X5.139 Y-2.647 E18.17987
G1 X4.856 Y-3.238 E18.20047
G1 X4.373 Y-3.946 E18.22741
G1 X3.829 Y-4.547 E18.25289
G1 X3.301 Y-4.981 E18.27437
G1 X2.667 Y-5.382 E18.29795
G1 X2.442 Y-5.494 E18.30585
G1 X2.139 Y-4.829 E18.32882
G0 F6900 X4 Y-4.282
G1 F4260 X4 Y-3.45 E18.35497
G1 F1800 E17.55497
G0 F6900 X3.412 Y-2.938
G0 X3.441 Y0.987
G0 X4 Y1.51
G1 F1800 E18.35497
G1 F4260 X4 Y3.303 E18.41132
G1 F1800 E17.61132
G1 F3000 Z0.73
G0 F6900 X6.795 Y-.792 Z0.73
G1 F3000 Z0.43
G1 F1800 E18.41132
G1 F3007.1 X6.785 Y-1.174 E18.42153
G1 F1800 E17.62153
G0 F6900 X7.453 Y-.9
G0 X8.52 Y-1.226
G0 X10.374 Y-2.907
G0 X11.6 Y-4.714
G0 X9.009 Y-9.111
G0 X4.9 Y-7.052
G0 X4.92 Y-5.71
G1 F1800 E18.42153
G1 F4260 X5.617 Y-4.947 E18.45401
G1 X6.222 Y-4.073 E18.48742
G1 X6.444 Y-3.613 E18.50348
G1 X6.456 Y-3.52 E18.50642
G1 X6.404 Y-3.431 E18.50966
G1 X6.259 Y-3.357 E18.51478
G1 X6.622 Y-2.305 E18.54976
G1 X6.8 Y-1.495 E18.57582
G1 F4613.7 X6.785 Y-1.174 E18.58515
G1 X6.941 Y-1.485 E18.59525
G1 F4260 X7.557 Y-1.67 E18.61546
G1 X7.292 Y-2.276 E18.63625
G1 X7.293 Y-2.348 E18.63852
G1 X7.442 Y-2.635 E18.64868
G1 X9.51 Y-3.354 E18.71749
G1 X9.373 Y-3.824 E18.73288
G1 X9.377 Y-3.919 E18.73587
G1 X9.519 Y-4.213 E18.74613
G1 X10.65 Y-4.94 E18.78839
G1 X8.736 Y-8.188 E18.90689
G1 X5.003 Y-6.313 E19.03819
G1 F4176.5 X4.64 Y-6.343 E19.04986
G1 F4109.3 X4.274 Y-6.642 E19.06526
G1 F3884.5 X3.821 Y-6.993 E19.08501
G1 F3491.8 X3.34 Y-7.363 E19.10828
G1 F3319.5 X3.158 Y-6.964 E19.12597
G1 F3491.8 X3.626 Y-6.71 E19.14639
G1 F3704.3 X3.67 Y-6.664 E19.14869
G1 F3908.3 X4.095 Y-6.39 E19.16602
G1 F4190.2 X4.92 Y-5.71 E19.20018
G0 F6900 X6 Y-6.758
G1 F4260 X6 Y-4.476 E19.27191
G0 F6900 X8 Y-2.882
G1 F4260 X8 Y-7.762 E19.42529
G1 F1800 E18.62529
G0 F6900 X7.655 Y-8.446
G0 X9.009 Y-9.111
G0 X10.659 Y-6.332
G0 X10 Y-5.943
G1 F1800 E19.42529
G1 F4260 X10 Y-4.581 E19.4681
G1 F1800 E18.6681
G0 F6900 X10.129 Y-3.764
G0 X10.374 Y-2.907
G0 X7.45 Y-0.001
G0 X6.783 Y-0.01
G1 F1800 E19.4681
G1 F3007.1 X6.762 Y0.519 E19.48224
G1 F1800 E18.68224
G0 F6900 X7.442 Y0.528
G0 X10.327 Y2.032
G0 X11.757 Y3.663
G0 X10.105 Y6.466
G0 X7.908 Y8.265
G0 X5.335 Y5.932
G0 X4.99 Y4.666
G1 F1800 E19.48224
G1 F3725.9 X4.532 Y5.099 E19.50489
G1 F3363.2 X4.843 Y5.369 E19.52129
G1 F3408 X5.074 Y5.121 E19.5346
G1 F3814.9 X5.401 Y5.103 E19.5461
G1 F4260 X5.51 Y5.141 E19.54973
G1 X7.928 Y7.334 E19.65233
G1 X9.553 Y5.994 E19.71853
G1 X10.8 Y3.899 E19.79516
