;FLAVOR:Marlin
;TIME:6636
;Filament used: 8.22866m
;Layer height: 0.2
;MINX:-49.802
;MINY:-79.802
;MINZ:0.2
;MAXX:49.802
;MAXY:79.802
;MAXZ:4
;Generated with Cura_SteamEngine 5.2.2
M82 ;absolute extrusion mode
G21 ; millimeter units
G90 ; absolute coordinates
M82 ; E absolute
M140 S35
M104 S220
M190 S35
M109 S220
G28 ; home axis
M420 S1 ; enable mesh leveling
; Lower nozzle and move to start position
G1 Z150
G1 X-130 Y0 Z0.4 F3000
; Extrude about 40 mm by printing a 90 degree arc
G3 X0 Y-130 I130 Z0.3 E40 F2700
; Retract and move nozzle up
G92 E0
G1 E-1.5 F1800
G0 Z0.5
G1 E0 F300

G92 E0
G92 E0
G1 F3600 E-0.3
;LAYER_COUNT:20
;LAYER:0
M107
;MESH:coperchio_casse_tondo_risonante.stl
G0 X-43.199 Y-1.073 Z0.2
;TYPE:WALL-INNER
G1 F3600 E0
G1 F1440 X-42.97 Y-.52 E0.01951
G1 X-42.906 Y0.026 E0.03743
G1 X-42.97 Y0.52 E0.05367
G1 X-43.199 Y1.073 E0.07318
G1 X-43.538 Y1.502 E0.09101
G1 X-43.912 Y1.791 E0.10641
G1 X-43.976 Y1.829 E0.10884
G1 X-44.449 Y2.022 E0.12549
G1 X-44.923 Y2.09 E0.1411
G1 X-45.468 Y2.039 E0.15895
G1 X-46.053 Y1.823 E0.17927
G1 X-46.534 Y1.424 E0.19965
G1 X-46.85 Y0.979 E0.21744
G1 X-47.035 Y0.494 E0.23436
G1 X-47.09 Y0.077 E0.24807
G1 X-47.039 Y-.468 E0.26591
G1 X-46.823 Y-1.053 E0.28624
G1 X-46.424 Y-1.534 E0.30661
G1 X-45.979 Y-1.85 E0.32441
G1 X-45.468 Y-2.039 E0.34217
G1 X-44.923 Y-2.09 E0.36001
G1 X-44.449 Y-2.022 E0.37562
G1 X-43.938 Y-1.808 E0.39368
G1 X-43.538 Y-1.502 E0.4101
G1 X-43.199 Y-1.073 E0.42792
G1 F3600 E0.12792
G0 X-46.22 Y1.183
;TYPE:WALL-OUTER
G1 F3600 E0.42792
G1 F1440 X-46.484 Y0.828 E0.44234
G1 X-46.645 Y0.426 E0.45646
G1 X-46.697 Y-0.026 E0.47129
G1 X-46.633 Y-.467 E0.48582
G1 X-46.484 Y-.828 E0.49855
G1 X-46.183 Y-1.22 E0.51466
G1 X-45.828 Y-1.484 E0.52908
G1 X-45.467 Y-1.633 E0.54181
G1 X-44.974 Y-1.697 E0.55802
G1 X-44.533 Y-1.633 E0.57254
G1 X-44.157 Y-1.477 E0.58581
G1 X-43.804 Y-1.209 E0.60026
G1 X-43.516 Y-.828 E0.61583
G1 X-43.357 Y-.434 E0.62968
G1 X-43.303 Y0.026 E0.64478
G1 X-43.357 Y0.434 E0.6582
G1 X-43.516 Y0.828 E0.67205
G1 X-43.792 Y1.197 E0.68707
G1 X-44.136 Y1.464 E0.70126
G1 X-44.533 Y1.633 E0.71533
G1 X-45.026 Y1.697 E0.73153
G1 X-45.467 Y1.633 E0.74606
G1 X-45.828 Y1.484 E0.75879
G1 X-46.22 Y1.183 E0.7749
G0 F3600 X-46.309 Y1.063
G1 F3600 E0.4749
G0 X-26.542 Y57.744
;TYPE:WALL-INNER
G1 F3600 E0.7749
G1 F2400 X-26.593 Y57.543 E0.78166
G1 X-26.593 Y-57.543 E4.53326
G1 X-26.532 Y-57.766 E4.5408
G1 X-26.401 Y-57.939 E4.54787
G1 X-26.236 Y-58.046 E4.55429
G1 X-26.08 Y-58.093 E4.5596
G1 X26.08 Y-58.093 E6.25992
G1 X26.236 Y-58.046 E6.26523
G1 X26.442 Y-57.898 E6.2735
G1 X26.532 Y-57.766 E6.27871
G1 X26.593 Y-57.543 E6.28625
G1 X26.593 Y57.543 E10.03785
G1 X26.532 Y57.766 E10.04539
G1 X26.401 Y57.939 E10.05246
G1 X26.236 Y58.046 E10.05887
G1 X26.08 Y58.093 E10.06418
G1 X-26.08 Y58.093 E11.76451
G1 X-26.305 Y58.011 E11.77231
G1 X-26.415 Y57.926 E11.77684
G1 X-26.542 Y57.744 E11.78408
G1 F3600 E11.48408
G0 X-46.823 Y73.447
G1 F3600 E11.78408
G1 F1440 X-46.424 Y72.966 E11.80445
G1 X-45.979 Y72.65 E11.82224
G1 X-45.468 Y72.461 E11.84
G1 X-44.923 Y72.41 E11.85785
G1 X-44.449 Y72.478 E11.87346
G1 X-43.926 Y72.7 E11.89198
G1 X-43.518 Y73.017 E11.90882
G1 X-43.204 Y73.42 E11.92547
G1 X-42.985 Y73.925 E11.94342
G1 X-42.91 Y74.423 E11.95984
G1 X-42.91 Y74.577 E11.96486
G1 X-42.961 Y74.968 E11.97771
G1 X-43.177 Y75.553 E11.99804
G1 X-43.576 Y76.034 E12.01841
G1 X-44.021 Y76.35 E12.0362
G1 X-44.506 Y76.535 E12.05312
G1 X-45.01 Y76.599 E12.06968
G1 X-45.565 Y76.518 E12.08797
G1 X-46.044 Y76.318 E12.10489
G1 X-46.49 Y75.983 E12.12307
G1 X-46.831 Y75.521 E12.14179
G1 X-47.022 Y75.051 E12.15833
G1 X-47.09 Y74.577 E12.17394
G1 X-47.039 Y74.032 E12.19178
G1 X-46.823 Y73.447 E12.21211
G1 F3600 E11.91211
G0 X-46.633 Y74.967
;TYPE:WALL-OUTER
G1 F3600 E12.21211
G1 F1440 X-46.697 Y74.474 E12.22832
G1 X-46.633 Y74.033 E12.24284
G1 X-46.484 Y73.672 E12.25557
G1 X-46.183 Y73.28 E12.27168
G1 X-45.828 Y73.016 E12.28611
G1 X-45.467 Y72.867 E12.29884
G1 X-44.974 Y72.803 E12.31504
G1 X-44.533 Y72.867 E12.32957
G1 X-44.172 Y73.016 E12.3423
G1 X-43.817 Y73.28 E12.35672
G1 X-43.534 Y73.638 E12.3716
G1 X-43.362 Y74.047 E12.38606
G1 X-43.303 Y74.526 E12.40179
G1 X-43.367 Y74.967 E12.41632
G1 X-43.516 Y75.328 E12.42905
G1 X-43.817 Y75.72 E12.44516
G1 X-44.172 Y75.984 E12.45958
G1 X-44.574 Y76.145 E12.4737
G1 X-45.026 Y76.197 E12.48853
G1 X-45.449 Y76.139 E12.50245
G1 X-45.828 Y75.984 E12.5158
G1 X-46.192 Y75.712 E12.53061
G1 X-46.458 Y75.373 E12.54466
G1 X-46.633 Y74.967 E12.55907
G0 F3600 X-46.652 Y74.819
G1 F3600 E12.25907
G0 X45.547 Y72.468
;TYPE:WALL-INNER
G1 F3600 E12.55907
G1 F1440 X46.114 Y72.728 E12.5794
G1 X46.534 Y73.076 E12.59718
G1 X46.772 Y73.386 E12.60992
G1 X47.032 Y73.953 E12.63026
G1 X47.09 Y74.577 E12.65069
G1 X47.023 Y75.051 E12.66629
G1 X46.832 Y75.522 E12.68286
G1 X46.488 Y75.986 E12.70169
G1 X46.044 Y76.319 E12.71978
G1 X45.565 Y76.518 E12.73669
G1 X45.011 Y76.599 E12.75494
G1 X44.382 Y76.499 E12.7757
G1 X43.886 Y76.272 E12.79348
G1 X43.466 Y75.924 E12.81127
G1 X43.15 Y75.479 E12.82906
G1 X42.961 Y74.968 E12.84682
G1 X42.91 Y74.423 E12.86466
G1 X42.985 Y73.925 E12.88108
G1 X43.204 Y73.42 E12.89902
G1 X43.529 Y73.006 E12.91618
G1 X43.926 Y72.7 E12.93252
G1 X44.449 Y72.478 E12.95104
G1 X44.923 Y72.41 E12.96665
G1 X45.547 Y72.468 E12.98708
G1 F3600 E12.68708
G0 X44.172 Y75.984
;TYPE:WALL-OUTER
G1 F3600 E12.98708
G1 F1440 X43.78 Y75.683 E13.00319
G1 X43.516 Y75.328 E13.01761
G1 X43.367 Y74.967 E13.03034
G1 X43.303 Y74.526 E13.04487
G1 X43.362 Y74.047 E13.0606
G1 X43.534 Y73.638 E13.07507
G1 X43.817 Y73.28 E13.08994
G1 X44.14 Y73.033 E13.1032
G1 X44.533 Y72.867 E13.1171
G1 X45.026 Y72.803 E13.13331
G1 X45.467 Y72.867 E13.14784
G1 X45.873 Y73.042 E13.16225
G1 X46.22 Y73.317 E13.17668
G1 X46.458 Y73.627 E13.18942
G1 X46.633 Y74.033 E13.20383
G1 X46.697 Y74.474 E13.21836
G1 X46.641 Y74.945 E13.23382
G1 X46.478 Y75.342 E13.24781
G1 X46.192 Y75.713 E13.26308
G1 X45.828 Y75.984 E13.27787
G1 X45.449 Y76.139 E13.29122
G1 X45.02 Y76.198 E13.30534
G1 X44.533 Y76.133 E13.32136
G1 X44.172 Y75.984 E13.33409
G0 F3600 X44.053 Y75.893
G1 F3600 E13.03409
G0 X45.547 Y2.032
;TYPE:WALL-INNER
G1 F3600 E13.33409
G1 F1440 X44.923 Y2.09 E13.35451
G1 X44.449 Y2.022 E13.37012
G1 X43.938 Y1.808 E13.38818
G1 X43.538 Y1.502 E13.4046
G1 X43.199 Y1.073 E13.42243
G1 X42.984 Y0.57 E13.44026
G1 X42.906 Y-0.026 E13.45985
G1 X42.984 Y-.57 E13.47777
G1 X43.199 Y-1.073 E13.4956
G1 X43.538 Y-1.502 E13.51342
G1 X43.976 Y-1.829 E13.53124
G1 X44.449 Y-2.022 E13.54789
G1 X44.923 Y-2.09 E13.5635
G1 X45.547 Y-2.032 E13.58393
G1 X46.114 Y-1.772 E13.60427
G1 X46.534 Y-1.424 E13.62205
G1 X46.772 Y-1.114 E13.63479
G1 X47.032 Y-.547 E13.65512
G1 X47.09 Y0.077 E13.67555
G1 X47.035 Y0.494 E13.68926
G1 X46.849 Y0.979 E13.70619
G1 X46.534 Y1.424 E13.72397
G1 X46.114 Y1.772 E13.74175
G1 X45.547 Y2.032 E13.76208
G1 F3600 E13.46208
G0 X45.026 Y-1.697
;TYPE:WALL-OUTER
G1 F3600 E13.76208
G1 F1440 X45.467 Y-1.633 E13.77661
G1 X45.873 Y-1.458 E13.79102
G1 X46.22 Y-1.183 E13.80545
G1 X46.458 Y-.873 E13.81819
G1 X46.633 Y-.467 E13.8326
G1 X46.697 Y-0.026 E13.84713
G1 X46.645 Y0.426 E13.86196
G1 X46.458 Y0.873 E13.87776
G1 X46.22 Y1.183 E13.8905
G1 X45.873 Y1.458 E13.90493
G1 X45.467 Y1.633 E13.91934
G1 X44.974 Y1.697 E13.93555
G1 X44.533 Y1.633 E13.95008
G1 X44.157 Y1.477 E13.96335
G1 X43.804 Y1.209 E13.97779
G1 X43.516 Y0.828 E13.99336
G1 X43.355 Y0.426 E14.00748
G1 X43.303 Y-0.026 E14.02231
G1 X43.357 Y-.434 E14.03573
G1 X43.516 Y-.828 E14.04958
G1 X43.792 Y-1.197 E14.0646
G1 X44.144 Y-1.47 E14.07912
G1 X44.533 Y-1.633 E14.09287
G1 X45.026 Y-1.697 E14.10907
G0 F3600 X45.174 Y-1.676
G1 F3600 E13.80907
G0 X43.177 Y-75.553
;TYPE:WALL-INNER
G1 F3600 E14.10907
G1 F1440 X43.576 Y-76.034 E14.12945
G1 X44.021 Y-76.35 E14.14724
G1 X44.506 Y-76.535 E14.16416
G1 X45.01 Y-76.599 E14.18072
G1 X45.565 Y-76.519 E14.199
G1 X46.036 Y-76.323 E14.21563
G1 X46.523 Y-75.939 E14.23585
G1 X46.811 Y-75.556 E14.25147
G1 X46.999 Y-75.118 E14.267
G1 X47.09 Y-74.577 E14.28489
G1 X47.035 Y-74.006 E14.30359
G1 X46.849 Y-73.521 E14.32052
G1 X46.534 Y-73.076 E14.33829
G1 X46.114 Y-72.728 E14.35607
G1 X45.547 Y-72.468 E14.37641
G1 X44.923 Y-72.41 E14.39684
G1 X44.449 Y-72.478 E14.41245
G1 X43.926 Y-72.7 E14.43097
G1 X43.518 Y-73.017 E14.44781
G1 X43.204 Y-73.42 E14.46446
G1 X42.985 Y-73.925 E14.48241
G1 X42.91 Y-74.423 E14.49883
G1 X42.961 Y-74.968 E14.51667
G1 X43.177 Y-75.553 E14.537
G1 F3600 E14.237
G0 X43.362 Y-74.047
;TYPE:WALL-OUTER
G1 F3600 E14.537
G1 F1440 X43.303 Y-74.526 E14.55273
G1 X43.367 Y-74.967 E14.56726
G1 X43.516 Y-75.328 E14.57999
G1 X43.817 Y-75.72 E14.5961
G1 X44.172 Y-75.984 E14.61052
G1 X44.574 Y-76.145 E14.62464
G1 X45.026 Y-76.197 E14.63947
G1 X45.449 Y-76.139 E14.65339
G1 X45.847 Y-75.975 E14.66742
G1 X46.183 Y-75.72 E14.68117
G1 X46.471 Y-75.354 E14.69635
G1 X46.633 Y-74.967 E14.71003
G1 X46.697 Y-74.526 E14.72455
G1 X46.645 Y-74.074 E14.73938
G1 X46.458 Y-73.627 E14.75518
G1 X46.22 Y-73.317 E14.76792
G1 X45.873 Y-73.042 E14.78235
G1 X45.467 Y-72.867 E14.79676
G1 X45.026 Y-72.803 E14.81129
G1 X44.555 Y-72.86 E14.82676
G1 X44.172 Y-73.016 E14.84024
G1 X43.817 Y-73.28 E14.85466
G1 X43.534 Y-73.638 E14.86954
G1 X43.362 Y-74.047 E14.884
G0 F3600 X43.344 Y-74.196
G1 F3600 E14.584
G0 X-26.148 Y-57.633
G1 F3600 E14.884
G1 F2400 X-26.028 Y-57.697 E14.88843
G1 X26.035 Y-57.696 E16.5856
G1 X26.164 Y-57.613 E16.5906
G1 X26.198 Y-57.515 E16.59398
G1 X26.198 Y57.543 E20.34467
G1 X26.148 Y57.633 E20.34802
G1 X26.028 Y57.697 E20.35246
G1 X-26.035 Y57.696 E22.04962
G1 X-26.181 Y57.582 E22.05566
G1 X-26.198 Y57.515 E22.05791
G1 X-26.198 Y-57.543 E25.8086
G1 X-26.148 Y-57.633 E25.81196
G0 F3600 X-26.028 Y-57.697
G0 X-26.014 Y-57.697
G1 F3600 E25.51196
G0 X-46.053 Y-72.677
;TYPE:WALL-INNER
G1 F3600 E25.81196
G1 F1440 X-46.534 Y-73.076 E25.83233
G1 X-46.85 Y-73.521 E25.85012
G1 X-47.035 Y-74.006 E25.86704
G1 X-47.09 Y-74.423 E25.88076
G1 X-47.066 Y-74.76 E25.89177
G1 X-46.999 Y-75.118 E25.90364
G1 X-46.812 Y-75.555 E25.91914
G1 X-46.523 Y-75.938 E25.93478
G1 X-46.033 Y-76.324 E25.95511
G1 X-45.565 Y-76.518 E25.97163
G1 X-45.011 Y-76.599 E25.98988
G1 X-44.532 Y-76.539 E26.00561
G1 X-43.947 Y-76.323 E26.02594
G1 X-43.466 Y-75.924 E26.04632
G1 X-43.15 Y-75.479 E26.06411
G1 X-42.961 Y-74.968 E26.08187
G1 X-42.91 Y-74.423 E26.09971
G1 X-42.985 Y-73.925 E26.11613
G1 X-43.204 Y-73.42 E26.13407
G1 X-43.529 Y-73.006 E26.15123
G1 X-43.926 Y-72.7 E26.16757
G1 X-44.449 Y-72.478 E26.18609
G1 X-44.923 Y-72.41 E26.2017
G1 X-45.468 Y-72.461 E26.21954
G1 X-46.053 Y-72.677 E26.23987
G1 F3600 E25.93987
G0 X-44.533 Y-72.867
;TYPE:WALL-OUTER
G1 F3600 E26.23987
G1 F1440 X-45.026 Y-72.803 E26.25608
G1 X-45.467 Y-72.867 E26.2706
G1 X-45.828 Y-73.016 E26.28333
G1 X-46.22 Y-73.317 E26.29945
G1 X-46.484 Y-73.672 E26.31387
G1 X-46.645 Y-74.074 E26.32798
G1 X-46.697 Y-74.474 E26.34113
G1 X-46.674 Y-74.708 E26.3488
G1 X-46.633 Y-74.967 E26.35735
G1 X-46.458 Y-75.373 E26.37176
G1 X-46.216 Y-75.688 E26.38471
G1 X-45.873 Y-75.958 E26.39894
G1 X-45.449 Y-76.139 E26.41396
G1 X-45.02 Y-76.198 E26.42808
G1 X-44.583 Y-76.146 E26.44243
G1 X-44.172 Y-75.984 E26.45683
G1 X-43.78 Y-75.683 E26.47294
G1 X-43.516 Y-75.328 E26.48736
G1 X-43.367 Y-74.967 E26.50009
G1 X-43.303 Y-74.526 E26.51462
G1 X-43.362 Y-74.047 E26.53035
G1 X-43.534 Y-73.638 E26.54481
G1 X-43.817 Y-73.28 E26.55969
G1 X-44.14 Y-73.033 E26.57295
G1 X-44.533 Y-72.867 E26.58685
G0 F3600 X-44.681 Y-72.848
G1 F3600 E26.28685
G0 X-49.318 Y-75.856
;TYPE:WALL-INNER
G1 F3600 E26.58685
G1 F2400 X-49.406 Y-74.969 E26.61591
G1 X-49.406 Y74.971 E31.50369
G1 X-49.318 Y75.856 E31.53268
G1 X-49.067 Y76.682 E31.56083
G1 X-48.659 Y77.445 E31.58903
G1 X-48.115 Y78.112 E31.61709
G1 X-47.444 Y78.66 E31.64533
G1 X-46.686 Y79.065 E31.67334
G1 X-45.855 Y79.318 E31.70166
G1 X-44.969 Y79.406 E31.73069
G1 X44.969 Y79.406 E34.66251
G1 X45.856 Y79.318 E34.69156
G1 X46.686 Y79.065 E34.71985
G1 X47.444 Y78.66 E34.74787
G1 X48.115 Y78.111 E34.77613
G1 X48.659 Y77.445 E34.80416
G1 X49.067 Y76.682 E34.83237
G1 X49.318 Y75.856 E34.86051
G1 X49.406 Y74.969 E34.88956
G1 X49.406 Y-74.914 E39.77549
G1 X49.406 Y-74.971 E39.77735
G1 X49.318 Y-75.856 E39.80634
G1 X49.065 Y-76.686 E39.83462
G1 X48.66 Y-77.444 E39.86264
G1 X48.111 Y-78.115 E39.8909
G1 X47.445 Y-78.66 E39.91895
G1 X46.686 Y-79.065 E39.947
G1 X45.855 Y-79.318 E39.97531
G1 X44.969 Y-79.406 E40.00434
G1 X-44.969 Y-79.406 E42.93616
G1 X-45.856 Y-79.318 E42.96522
G1 X-46.686 Y-79.065 E42.9935
G1 X-47.444 Y-78.66 E43.02152
G1 X-48.115 Y-78.112 E43.04976
G1 X-48.66 Y-77.445 E43.07784
G1 X-49.067 Y-76.682 E43.10603
G1 X-49.318 Y-75.856 E43.13417
G1 F3600 E42.83417
G0 X-49.708 Y-75.934
;TYPE:WALL-OUTER
G1 F3600 E43.13417
G1 F2400 X-49.802 Y-74.989 E43.16513
G1 X-49.802 Y74.991 E48.05421
G1 X-49.708 Y75.934 E48.08511
G1 X-49.435 Y76.834 E48.11577
G1 X-48.991 Y77.665 E48.14648
G1 X-48.397 Y78.393 E48.17711
G1 X-47.665 Y78.991 E48.20792
G1 X-46.838 Y79.433 E48.23849
G1 X-45.933 Y79.708 E48.26932
G1 X-44.989 Y79.802 E48.30025
G1 X44.989 Y79.802 E51.23337
G1 X45.934 Y79.708 E51.26433
G1 X46.838 Y79.433 E51.29513
G1 X47.665 Y78.991 E51.3257
G1 X48.397 Y78.393 E51.35651
G1 X48.991 Y77.665 E51.38714
G1 X49.435 Y76.834 E51.41785
G1 X49.708 Y75.934 E51.44851
G1 X49.802 Y74.989 E51.47947
G1 X49.802 Y-74.914 E56.36605
G1 X49.802 Y-74.991 E56.36856
G1 X49.708 Y-75.934 E56.39945
G1 X49.433 Y-76.838 E56.43025
G1 X48.991 Y-77.665 E56.46082
G1 X48.393 Y-78.397 E56.49163
G1 X47.665 Y-78.991 E56.52226
G1 X46.838 Y-79.433 E56.55283
G1 X45.933 Y-79.708 E56.58366
G1 X44.989 Y-79.802 E56.61459
G1 X-44.989 Y-79.802 E59.54771
G1 X-45.934 Y-79.708 E59.57867
G1 X-46.838 Y-79.433 E59.60947
G1 X-47.665 Y-78.991 E59.64004
G1 X-48.397 Y-78.393 E59.67085
G1 X-48.991 Y-77.665 E59.70148
G1 X-49.435 Y-76.834 E59.73219
G1 X-49.708 Y-75.934 E59.76285
G0 F3600 X-49.722 Y-75.785
G1 F3600 E59.46285
G0 X-47.277 Y-75.227
;TYPE:SKIN
G1 F3600 E59.76285
G1 F1440 X-47.027 Y-75.764 E59.78216
G1 X-46.999 Y-75.808 E59.78386
G1 X-46.592 Y-76.281 E59.8042
G1 X-46.154 Y-76.597 E59.82181
G1 X-45.658 Y-76.8 E59.83928
G1 X-44.986 Y-76.89 E59.86138
G1 X-44.504 Y-76.834 E59.8772
G1 X-43.904 Y-76.625 E59.89791
G1 X-43.382 Y-76.262 E59.91864
G1 X-42.987 Y-75.786 E59.9388
G1 X-42.881 Y-75.604 E59.94567
G1 X-42.675 Y-75.036 E59.96536
G1 X-42.608 Y-74.493 E59.9832
G1 X-42.685 Y-73.897 E60.00279
G1 X-42.875 Y-73.406 E60.01995
G1 X-43.31 Y-72.792 E60.04448
G1 X-43.817 Y-72.42 E60.06498
G1 X-44.372 Y-72.189 E60.08457
G1 X-44.992 Y-72.108 E60.10496
G1 X-45.538 Y-72.176 E60.12289
G1 X-46.099 Y-72.376 E60.14231
G1 X-46.619 Y-72.739 E60.16298
G1 X-46.995 Y-73.189 E60.1821
G1 X-47.119 Y-73.396 E60.18996
G1 X-47.328 Y-73.956 E60.20945
G1 X-47.392 Y-74.504 E60.22743
G1 X-47.277 Y-75.227 E60.2513
G1 F3600 E59.9513
G0 X-47.907 Y-77.899
G1 F3600 E60.2513
G1 F2400 X-48.412 Y-77.277 E60.27741
G1 X-48.791 Y-76.566 E60.30368
G1 X-49.025 Y-75.796 E60.32991
G1 X-49.109 Y-74.953 E60.35753
G1 X-49.11 Y74.956 E65.2443
G1 X-49.024 Y75.796 E65.27183
G1 X-48.792 Y76.567 E65.29807
G1 X-48.412 Y77.278 E65.32435
G1 X-47.905 Y77.901 E65.35054
G1 X-47.279 Y78.41 E65.37684
G1 X-46.572 Y78.788 E65.40297
G1 X-45.794 Y79.025 E65.42949
G1 X-44.955 Y79.11 E65.45698
G1 X44.954 Y79.109 E68.38785
G1 X45.795 Y79.026 E68.4154
G1 X46.573 Y78.789 E68.44191
G1 X47.277 Y78.411 E68.46796
G1 X47.906 Y77.899 E68.4944
G1 X48.411 Y77.28 E68.52044
G1 X48.791 Y76.565 E68.54684
G1 X49.025 Y75.795 E68.57307
G1 X49.11 Y74.954 E68.60062
G1 X49.11 Y-74.914 E73.48606
